!!!COM: Haydn, Franz Joseph
!!!OPR: Symphony in C Major
!!!OTL:
!!!OMV: 1
!!!SCT: H I:82
!!!SCA: Thematisch-bibliographisches Werkevererzeichnis (A. van Hoboken)
!!!YOR: Offenbach Edition, ca. 1864
!!!EED: Frances Bennion
!!!ENC: Frances Bennion
!!!CDT: 1732/3/31/-1809/5/31/
!!!OCY: Österreich
!!!YEC: Copyright (c) 1994, 2000 Center for Computer Assisted Research in the Humanities
!!!YEM: Rights to all derivative editions reserved.
!!!YEM: Refer to licensing agreement for further details.
!!!YEN: United States of America
**kern	**kern	**kern	**kern	**kern	**kern	**kern	**kern	**kern	**kern	**kern	**kern	**kern	**kern	**kern
*k[]	*k[]	*k[]	*k[]	*k[]	*k[]	*k[]	*k[]	*k[]	*k[]	*k[]	*k[]	*k[]	*k[]	*k[]
*C:	*C:	*C:	*C:	*C:	*C:	*C:	*C:	*C:	*C:	*C:	*C:	*C:	*C:	*C:
*clefF4	*clefF4	*clefF	*clefF	*clefC3	*clefF4	*clefF4	*clefF	*clefF	*clefF	*clefF	*clefF	*clefF	*clefF	*clefF4
*M3/4	*M3/4	*M3/4	*M3/4	*M3/4	*M3/4	*M3/4	*M3/4	*M3/4	*M3/4	*M3/4	*M3/4	*M3/4	*M3/4	*M3/4
=1	=1	=1	=1	=1	=1	=1	=1	=1	=1	=1	=1	=1	=1	=1
4C	4C	16cc	16c	16c	4C	4C	4cc	4e	4cc	4e	4cc	4cc	4c	4C
.	.	16cc	16c	16c	.	.	.	.	.	.	.	.	.	.
.	.	16cc	16c	16c	.	.	.	.	.	.	.	.	.	.
.	.	16cc	16c	16c	.	.	.	.	.	.	.	.	.	.
4C	4E	16ee	16e	16e	4E	4E	4cc	4e	4cc	4e	4ee	4ee	4e	4E
.	.	16ee	16e	16e	.	.	.	.	.	.	.	.	.	.
.	.	16ee	16e	16e	.	.	.	.	.	.	.	.	.	.
.	.	16ee	16e	16e	.	.	.	.	.	.	.	.	.	.
4C	4G	16gg	16g	16g	4G	4G	4cc	4e	4cc	4e	4gg	4gg	4g	4G
.	.	16gg	16g	16g	.	.	.	.	.	.	.	.	.	.
.	.	16gg	16g	16g	.	.	.	.	.	.	.	.	.	.
.	.	16gg	16g	16g	.	.	.	.	.	.	.	.	.	.
=2	=2	=2	=2	=2	=2	=2	=2	=2	=2	=2	=2	=2	=2	=2
4C	4c	16ccc	16cc	16cc	4c	4c	4cc	4e	4cc	4e	4ccc	4ccc	4cc	4c
.	.	16ccc	16cc	16cc	.	.	.	.	.	.	.	.	.	.
.	.	16ccc	16cc	16cc	.	.	.	.	.	.	.	.	.	.
.	.	16ccc	16cc	16cc	.	.	.	.	.	.	.	.	.	.
2r	4e	8eee	8ee	8ee	4e	4e	2r	2r	2r	2r	4eee	4eee	4ee	4e
.	.	4.r	4.r	4.r	.	.	.	.	.	.	.	.	.	.
.	4r	.	.	.	4r	4r	.	.	.	.	4r	4r	4r	4r
=3	=3	=3	=3	=3	=3	=3	=3	=3	=3	=3	=3	=3	=3	=3
2.r	4G	16gg	16g	16g	4G	4G	2.r	2.r	2.r	2.r	4gg	4gg	4g	4G
.	.	16gg	16g	16g	.	.	.	.	.	.	.	.	.	.
.	.	16gg	16g	16g	.	.	.	.	.	.	.	.	.	.
.	.	16gg	16g	16g	.	.	.	.	.	.	.	.	.	.
.	4c	8ccc	8cc	8cc	4c	4c	.	.	.	.	4ccc	4ccc	4cc	4c
.	.	4.r	4.r	4.r	.	.	.	.	.	.	.	.	.	.
.	4r	.	.	.	4r	4r	.	.	.	.	4r	4r	4r	4r
=4	=4	=4	=4	=4	=4	=4	=4	=4	=4	=4	=4	=4	=4	=4
2.r	4E	16ee	16e	16e	4E	4E	2.r	2.r	2.r	2.r	4ee	4ee	4e	4E
.	.	16ee	16e	16e	.	.	.	.	.	.	.	.	.	.
.	.	16ee	16e	16e	.	.	.	.	.	.	.	.	.	.
.	.	16ee	16e	16e	.	.	.	.	.	.	.	.	.	.
.	4G	8gg	8g	8g	4G	4G	.	.	.	.	4gg	4gg	4g	4G
.	.	4.r	4.r	4.r	.	.	.	.	.	.	.	.	.	.
.	4r	.	.	.	4r	4r	.	.	.	.	4r	4r	4r	4r
=5	=5	=5	=5	=5	=5	=5	=5	=5	=5	=5	=5	=5	=5	=5
2.r	2.r	2.b	4r	4r	4GG	4GG	2.r	2.r	2.r	2.r	2.r	2.r	2.r	2.r
.	.	.	4f	4d	2r	2r	.	.	.	.	.	.	.	.
.	.	.	4f	4d	.	.	.	.	.	.	.	.	.	.
=6	=6	=6	=6	=6	=6	=6	=6	=6	=6	=6	=6	=6	=6	=6
2.r	2.r	8.cc	4e	4e	4C	4C	2.r	2.r	2.r	2.r	2.r	2.r	2.r	2.r
.	.	16dd	.	.	.	.	.	.	.	.	.	.	.	.
.	.	8ee	2r	2r	2r	2r	.	.	.	.	.	.	.	.
.	.	8b	.	.	.	.	.	.	.	.	.	.	.	.
.	.	8cc	.	.	.	.	.	.	.	.	.	.	.	.
.	.	8a	.	.	.	.	.	.	.	.	.	.	.	.
=7	=7	=7	=7	=7	=7	=7	=7	=7	=7	=7	=7	=7	=7	=7
2.r	2.r	2g	4B	4G	4G	4G	2.r	2.r	2.r	2.r	2.r	2.r	2.r	2.r
.	.	.	4c	4A	2r	2r	.	.	.	.	.	.	.	.
.	.	8f	4d	4B	.	.	.	.	.	.	.	.	.	.
.	.	16e	.	.	.	.	.	.	.	.	.	.	.	.
.	.	16f	.	.	.	.	.	.	.	.	.	.	.	.
=8	=8	=8	=8	=8	=8	=8	=8	=8	=8	=8	=8	=8	=8	=8
4.r	4.r	4e	4e	4c	4C	4C	4.r	4.r	4.r	4.r	4.r	4.r	4.r	4.r
.	.	8r	8r	8r	8r	8r	.	.	.	.	.	.	.	.
16C	16C	16c	16c	16c	16C	16C	16cc	16c	16cc	16c	16cc	16cc	16cc	16C
16C	16C	16c	16c	16c	16C	16C	16cc	16c	16cc	16c	16cc	16cc	16cc	16C
8C	8C	8c	8c	8c	8C	8C	8cc	8c	8cc	8c	8cc	8cc	8cc	8C
8C	8C	8c	8c	8c	8C	8C	8cc	8c	8cc	8c	8cc	8cc	8cc	8C
=9	=9	=9	=9	=9	=9	=9	=9	=9	=9	=9	=9	=9	=9	=9
4C	4C	8c	8c	4c	4C	4C	4cc	4c	4cc	4c	4cc	4cc	4cc	4C
.	.	8f	8A	.	.	.	.	.	.	.	.	.	.	.
8r	8r	8e	8G	8r	8r	8r	8r	8r	8r	8r	8r	8r	8r	8r
16C	16C	16c	16c	16c	16C	16C	16cc	16c	16cc	16c	16cc	16cc	16cc	16C
16C	16C	16c	16c	16c	16C	16C	16cc	16c	16cc	16c	16cc	16cc	16cc	16C
8C	8C	8c	8c	8c	8C	8C	8cc	8c	8cc	8c	8cc	8cc	8cc	8C
8C	8C	8c	8c	8c	8C	8C	8cc	8c	8cc	8c	8cc	8cc	8cc	8C
=10	=10	=10	=10	=10	=10	=10	=10	=10	=10	=10	=10	=10	=10	=10
4C	4C	8c	8c	4c	4C	4C	4cc	4c	4cc	4c	4cc	4cc	4cc	4C
.	.	8a	8f	.	.	.	.	.	.	.	.	.	.	.
8r	8r	8g	8e	8r	8r	8r	8r	8r	8r	8r	8r	8r	8r	8r
16C	16C	16cc	16cc	16c	16C	16C	16cc	16c	16cc	16c	16cc	16cc	16cc	16C
16C	16C	16cc	16cc	16c	16C	16C	16cc	16c	16cc	16c	16cc	16cc	16cc	16C
8C	8C	8cc	8cc	8c	8C	8C	8cc	8c	8cc	8c	8cc	8cc	8cc	8C
8C	8C	8cc	8cc	8c	8C	8C	8cc	8c	8cc	8c	8cc	8cc	8cc	8C
=11	=11	=11	=11	=11	=11	=11	=11	=11	=11	=11	=11	=11	=11	=11
4C	4C	8cc	8cc	4c	4C	4C	4cc	4c	4cc	4c	8cc	8cc	8cc	4C
.	.	8ff	8a	.	.	.	.	.	.	.	8ff	8ff	8a	.
8r	8r	8ee	8g	8r	8r	8r	8r	8r	8r	8r	8ee	8ee	8g	8r
16C	16C	16cc	16cc	16c	16C	16C	16cc	16c	16cc	16c	16cc	16cc	16cc	16C
16C	16C	16cc	16cc	16c	16C	16C	16cc	16c	16cc	16c	16cc	16cc	16cc	16C
8C	8C	8cc	8cc	8c	8C	8C	8cc	8c	8cc	8c	8cc	8cc	8cc	8C
8C	8C	8cc	8cc	8c	8C	8C	8cc	8c	8cc	8c	8cc	8cc	8cc	8C
=12	=12	=12	=12	=12	=12	=12	=12	=12	=12	=12	=12	=12	=12	=12
4C	4C	8cc	8cc	4c	4C	4C	4cc	4c	4cc	4c	8cc	8cc	8cc	4C
.	.	8aa	8ff	.	.	.	.	.	.	.	8aa	8aa	8ff	.
8r	8r	8gg	8ee	8r	8r	8r	8r	8r	8r	8r	8gg	8gg	8ee	8r
16GG	16G	16gg	16g	16g	16G	16G	16g	16g	16g	16g	16gg	16gg	16g	16G
16GG	16G	16gg	16g	16g	16G	16G	16g	16g	16g	16g	16gg	16gg	16g	16G
8GG	8G	8gg	8g	8g	8G	8G	8g	8g	8g	8g	8gg	8gg	8g	8G
8GG	8G	8gg	8g	8g	8G	8G	8g	8g	8g	16g	8gg	8gg	8g	8G
.	.	.	.	.	.	.	.	.	.	16g	.	.	.	.
=13	=13	=13	=13	=13	=13	=13	=13	=13	=13	=13	=13	=13	=13	=13
4C	8c	8ccc	8cc	8cc	8c	8c	4cc	4cc	4cc	4cc	8ccc	4ccc	4cc	8c
.	8e	8eee	8ee	8ee	8e	8e	.	.	.	.	8eee	.	.	8e
8r	8c	8ccc	8cc	8cc	8c	8c	8r	8r	8r	8r	8ccc	8r	8r	8c
16GG	16G	16gg	16g	16g	16G	16G	16g	16g	16g	16g	16gg	16gg	16g	16G
16GG	16G	16gg	16g	16g	16G	16G	16g	16g	16g	16g	16gg	16gg	16g	16G
8GG	8G	8gg	8g	8g	8G	8G	8g	8g	8g	8g	8gg	8gg	8g	8G
8GG	8G	8gg	8g	8g	8G	8G	8g	8g	8g	8g	8gg	8gg	8g	8G
=14	=14	=14	=14	=14	=14	=14	=14	=14	=14	=14	=14	=14	=14	=14
4C	8c	8ccc	8cc	8cc	8c	8c	4cc	4cc	4cc	4cc	8ccc	4ccc	4cc	8c
.	8e	8eee	8ee	8ee	8e	8e	.	.	.	.	8eee	.	.	8e
8r	8c	8ccc	8cc	8cc	8c	8c	8r	8r	8r	8r	8ccc	8r	8r	8c
16GG	16G	16gg	16g	16g	16G	16G	16g	16g	16g	16g	16gg	16gg	16g	16G
16GG	16G	16gg	16g	16g	16G	16G	16g	16g	16g	16g	16gg	16gg	16g	16G
8GG	8G	8gg	8g	8g	8G	8G	8g	8g	8g	8g	8gg	8gg	8g	8G
8GG	8G	8gg	8g	8g	8G	8G	8g	8g	8g	8g	8gg	8gg	8g	8G
=15	=15	=15	=15	=15	=15	=15	=15	=15	=15	=15	=15	=15	=15	=15
4C	8c	8ccc	8cc	8cc	8c	8c	4cc	4cc	4cc	4cc	8ccc	8ccc	8cc	8c
.	8G	8gg	8g	8g	8G	8G	.	.	.	.	8gg	8gg	8g	8G
8r	8c	8ccc	8cc	8cc	8c	8c	8r	8r	8r	8r	8ccc	8ccc	8cc	8c
16C	8G	8gg	8g	8g	8G	8G	8cc	8c	8cc	8c	8gg	8gg	8g	8G
16C	.	.	.	.	.	.	.	.	.	.	.	.	.	.
8C	8E	8ee	8e	8e	8E	8E	8ee	8e	8ee	8e	8ee	8ee	8e	8E
8C	8C	8cc	8c	8c	8C	8C	8cc	8c	8cc	8c	8cc	8cc	8c	8C
=16	=16	=16	=16	=16	=16	=16	=16	=16	=16	=16	=16	=16	=16	=16
4GG	8G	4gg	4g	8g	8G	8G	4dd	4g	4dd	4g	[2.gg	4gg	4gg	8G
.	16G	.	.	16g	16G	16G	.	.	.	.	.	.	.	16G
.	16G	.	.	16g	16G	16G	.	.	.	.	.	.	.	16G
4r	8G	4bb 4dd 4g	4bb 4dd 4g	8g	8G	8G	4r	4r	4r	4r	.	4bb	4dd	8G
.	8G	.	.	8g	8G	8G	.	.	.	.	.	.	.	8G
4C	8E	4ccc 4ee 4g	4ccc 4g 4ee	8e	8E	8E	4ee	4cc	4ee	4cc	.	4ccc	4ee	8E
.	8C	.	.	8c	8C	8C	.	.	.	.	.	.	.	8C
=17	=17	=17	=17	=17	=17	=17	=17	=17	=17	=17	=17	=17	=17	=17
8GG	8GG	4g 4bb 4dd	4bb 4dd 4g	8G	8GG	8GG	4dd	4g	4dd	4g	2.gg_	4bb	4dd	8GG
16GG	16G	.	.	16g	16G	16G	.	.	.	.	.	.	.	16G
16GG	16G	.	.	16g	16G	16G	.	.	.	.	.	.	.	16G
8GG	8G	4g 4bb 4dd	4bb 4g 4dd	8g	8G	8G	4r	4r	4r	4r	.	4bb	4dd	8G
8GG	8G	.	.	8g	8G	8G	.	.	.	.	.	.	.	8G
8C	8E	4ee 4ccc 4g	4ccc 4ee 4g	8e	8E	8E	4ee	4cc	4ee	4cc	.	4ccc	4ee	8E
8C	8C	.	.	8c	8C	8C	.	.	.	.	.	.	.	8C
=18	=18	=18	=18	=18	=18	=18	=18	=18	=18	=18	=18	=18	=18	=18
8GG	8GG	4bb 4dd 4g	4bb 4dd 4g	8G	8GG	8GG	4dd	4g	4dd	4g	2.gg]	4bb	4dd	8GG
16GG	16G	.	.	16g	16G	16G	.	.	.	.	.	.	.	16G
16GG	16G	.	.	16g	16G	16G	.	.	.	.	.	.	.	16G
8GG	8G	4g 4bb 4dd	4bb 4dd 4g	8g	8G	8G	4r	4r	4r	4r	.	4bb	4dd	8G
8GG	8G	.	.	8g	8G	8G	.	.	.	.	.	.	.	8G
8C	8E	4ee 4g 4ccc	4ee 4ccc 4g	8e	8E	8E	4ee	4cc	4ee	4cc	.	4ccc	4ee	8E
8C	8C	.	.	8c	8C	8C	.	.	.	.	.	.	.	8C
=19	=19	=19	=19	=19	=19	=19	=19	=19	=19	=19	=19	=19	=19	=19
4GG	4GG	4g 4bb 4dd	4g 4dd 4bb	4G	4GG	4GG	4dd	4g	4dd	4g	4gg	4bb	4dd	4GG
4GG	4G	4d 4gg 4b	4gg 4d 4b	4g	4G	4G	4dd	4g	4dd	4g	4gg	4gg	4b	4G
4GG	4G	4d 4b 4gg	4gg 4d 4b	4g	4G	4G	4dd	4g	4dd	4g	4gg	4gg	4b	4G
=20	=20	=20	=20	=20	=20	=20	=20	=20	=20	=20	=20	=20	=20	=20
4GG	4G	4gg 4b 4d	4d 4gg 4b	4g	4G	4G	4dd	4g	4dd	4g	4gg	4gg	4b	4G
2r	2r	2r	2r	2r	2r	2r	2r	2r	2r	2r	2r	2r	2r	2r
=21	=21	=21	=21	=21	=21	=21	=21	=21	=21	=21	=21	=21	=21	=21
2.r	2.r	4c	4c	2.r	2.r	2.r	2.r	2.r	2.r	2.r	[2.gg	[2.ee	[2.cc	2.r
.	.	4e	4e	.	.	.	.	.	.	.	.	.	.	.
.	.	4g	4g	.	.	.	.	.	.	.	.	.	.	.
=22	=22	=22	=22	=22	=22	=22	=22	=22	=22	=22	=22	=22	=22	=22
2.r	2.r	4cc	4cc	2.r	2.r	2.r	2.r	2.r	2.r	2.r	4.gg]	4.ee]	4.cc]	2.r
.	.	4ee	4ee	.	.	.	.	.	.	.	.	.	.	.
.	.	.	.	.	.	.	.	.	.	.	8gg	8ee	8cc	.
.	.	4r	4r	.	.	.	.	.	.	.	8gg	8ee	8cc	.
.	.	.	.	.	.	.	.	.	.	.	8gg	8ee	8cc	.
=23	=23	=23	=23	=23	=23	=23	=23	=23	=23	=23	=23	=23	=23	=23
2.r	2.r	4g	4g	2.r	2.r	2.r	2.r	2.r	2.r	2.r	4.gg	4.ee	4.cc	2.r
.	.	4cc	4cc	.	.	.	.	.	.	.	.	.	.	.
.	.	.	.	.	.	.	.	.	.	.	8gg	8ee	8cc	.
.	.	4r	4r	.	.	.	.	.	.	.	8gg	8ee	8cc	.
.	.	.	.	.	.	.	.	.	.	.	8gg	8ee	8cc	.
=24	=24	=24	=24	=24	=24	=24	=24	=24	=24	=24	=24	=24	=24	=24
2.r	2.r	4e	4e	2.r	2.r	2.r	2.r	2.r	2.r	2.r	4.gg	4.ee	4.cc	2.r
.	.	4g	4g	.	.	.	.	.	.	.	.	.	.	.
.	.	.	.	.	.	.	.	.	.	.	8gg	8ee	8cc	.
.	.	4r	4r	.	.	.	.	.	.	.	8gg	8ee	8cc	.
.	.	.	.	.	.	.	.	.	.	.	8gg#	8ee	8cc	.
=25	=25	=25	=25	=25	=25	=25	=25	=25	=25	=25	=25	=25	=25	=25
4C	4AA	8aa 8cc	8ee 8cc	4A	4AA	4AA	4cc	4e	4cc	4e	[2.aa	[2.ee	[2.cc	4AA
.	.	4aa 4cc	4ee 4cc	.	.	.	.	.	.	.	.	.	.	.
4C	4C	.	.	4c	4C	4C	4cc	4e	4cc	4e	.	.	.	4C
.	.	4aa 4cc	4ee 4cc	.	.	.	.	.	.	.	.	.	.	.
4C	4E	.	.	4e	4E	4E	4cc	4e	4cc	4e	.	.	.	4E
.	.	[8aa 8cc	[8ee 8cc	.	.	.	.	.	.	.	.	.	.	.
=26	=26	=26	=26	=26	=26	=26	=26	=26	=26	=26	=26	=26	=26	=26
4C	4A	8aa 8cc]	8ee 8cc]	4a	4A	4A	4cc	4e	4cc	4e	4.aa]	4.ee]	4.cc]	4A
.	.	4aa 4cc	4ee 4cc	.	.	.	.	.	.	.	.	.	.	.
2r	8r	.	.	8r	4c	4c	8r	8r	8r	8r	.	.	.	8r
.	8A	4aa 4cc	4ee 4cc	8a 8cc	.	.	8cc	8e	8cc	8e	8ee	8aa	8cc	8A
.	8A	.	.	8a 8cc	4r	4r	8cc	8e	8cc	8e	8ee	8aa	8cc	8A
.	8A	[8aa 8cc	[8ee 8cc	8cc 8a	.	.	8cc	8e	8cc	8e	8ee	8aa	8cc	8A
=27	=27	=27	=27	=27	=27	=27	=27	=27	=27	=27	=27	=27	=27	=27
4C	4A	8aa 8cc]	8ee 8cc]	4a 4cc	4E	4E	4cc	4e	4cc	4e	4ee	4aa	4cc	4A
.	.	4aa 4cc	4ee 4cc	.	.	.	.	.	.	.	.	.	.	.
2r	8r	.	.	8r	4A	4A	8r	8r	8r	8r	8r	8r	8r	8r
.	8A	4aa 4cc	4cc 4ee	8a 8cc	.	.	8cc	8e	8cc	8e	8ee	8aa	8cc	8A
.	8A	.	.	8a 8cc	4r	4r	8cc	8e	8cc	8e	8ee	8aa	8cc	8A
.	8A	[8aa 8cc	[8cc 8ee	8a 8cc	.	.	8cc	8e	8cc	8e	8ee	8aa	8cc	8A
=28	=28	=28	=28	=28	=28	=28	=28	=28	=28	=28	=28	=28	=28	=28
4C	4C	8aa 8cc]	8cc 8ee]	4cc 4a	4C	4C	4cc	4e	4cc	4e	4ee	4aa	4cc	4C
.	.	4aa 4cc	4cc 4ee	.	.	.	.	.	.	.	.	.	.	.
2r	4E	.	.	8r	4E	4E	8r	8r	8r	8r	8r	8r	8r	4E
.	.	4aa 4cc	4ee 4cc	8cc 8a	.	.	8cc	8e	8cc	8e	8ee	8aa	8cc	.
.	4r	.	.	8a 8cc	4r	4r	8cc	8e	8cc	8e	8ee	8aa	8cc	4r
.	.	8aa 8cc	8cc 8ee	8a 8cc	.	.	8cc	8e	8cc	8e	8ee	8aa	8cc	.
=29	=29	=29	=29	=29	=29	=29	=29	=29	=29	=29	=29	=29	=29	=29
2.r	4D	8ff#	8ff# 8a	4a 4cc	4D	4D	4cc	4c	4cc	4c	4ff#	4aa	4cc	4D
.	.	4ccc	4ff# 4a	.	.	.	.	.	.	.	.	.	.	.
.	4F#	.	.	8r	4F#	4F#	8r	8r	8r	8r	8r	8r	8r	4F#
.	.	4ccc	4ff# 4a	8cc 8a	.	.	8cc	8c	8cc	8c	8ff#	8aa	8cc	.
.	4A	.	.	8a 8cc	4A	4A	8cc	8c	8cc	8c	8ff#	8aa	8cc	4A
.	.	[8ccc	[8ff# 8a	8a 8cc	.	.	8cc	8c	8cc	8c	8ff#	8aa	8cc	.
=30	=30	=30	=30	=30	=30	=30	=30	=30	=30	=30	=30	=30	=30	=30
2.r	4c	8ccc]	8ff# 8a]	4a 4cc	4c	4c	4cc	4c	4cc	4c	4ccc	4ff#	4aa	4c
.	.	4ccc	4ff# 4a	.	.	.	.	.	.	.	.	.	.	.
.	2e-	.	.	8r	2e-	2e-	8r	8r	8r	8r	8r	8r	8r	2e-
.	.	4ccc	4ff# 4a	8a 8cc	.	.	8cc	8c	8cc	8c	8ccc	8ff#	8aa	.
.	.	.	.	8a 8cc	.	.	8cc	8c	8cc	8c	8ccc	8ff#	8aa	.
.	.	[8ccc	[8ff# 8a	8a 8cc	.	.	8cc	8c	8cc	8c	8ccc	8ff#	8aa	.
=31	=31	=31	=31	=31	=31	=31	=31	=31	=31	=31	=31	=31	=31	=31
2.r	4A	8ccc]	8ff# 8a]	4a 4cc	4A	4A	4cc	4c	4cc	4c	4ccc	4ff#	4aa	4A
.	.	4ccc	4ff# 4a	.	.	.	.	.	.	.	.	.	.	.
.	2c	.	.	8r	2c	2c	8r	8r	8r	8r	8r	8r	8r	2c
.	.	4ccc	4ff# 4a	8cc 8a	.	.	8cc	8c	8cc	8c	8ccc	8ff#	8aa	.
.	.	.	.	8cc 8a	.	.	8cc	8c	8cc	8c	8ccc	8ff#	8aa	.
.	.	[8ccc	8ff# 8a	8a 8cc	.	.	8cc	8c	8cc	8c	8ccc	8ff#	8aa	.
=32	=32	=32	=32	=32	=32	=32	=32	=32	=32	=32	=32	=32	=32	=32
2.r	4F#	8ccc]	2.a 2.ff#	4a 4cc	4F#	4F#	4cc	4c	4cc	4c	2.ccc	2.ff#	2.aa	4F#
.	.	8aa	.	.	.	.	.	.	.	.	.	.	.	.
.	4A	8ccc	.	8r	4A	4A	8r	8r	8r	8r	.	.	.	4A
.	.	8aa	.	8d	.	.	8cc	8c	8cc	8c	.	.	.	.
.	4D	8ff#	.	8d	4D	4D	8cc	8c	8cc	8c	.	.	.	4D
.	.	8cc	.	8d	.	.	8cc	8c	8cc	8c	.	.	.	.
=33	=33	=33	=33	=33	=33	=33	=33	=33	=33	=33	=33	=33	=33	=33
4GG	4G	16b	16b 16gg	4g	8G	8G	4g	4G	4g	4G	4gg	4gg	4gg	4G
.	.	16b	16b 16gg	.	.	.	.	.	.	.	.	.	.	.
.	.	16b	16b 16gg	.	8G	8G	.	.	.	.	.	.	.	.
.	.	16b	16gg 16b	.	.	.	.	.	.	.	.	.	.	.
2r	2r	16dd	16b	8r	8G	8G	2r	2r	2r	2r	2r	2r	2r	2r
.	.	16dd	16b	.	.	.	.	.	.	.	.	.	.	.
.	.	16dd	16b	8g	8G	8G	.	.	.	.	.	.	.	.
.	.	16dd	16b	.	.	.	.	.	.	.	.	.	.	.
.	.	16gg	16dd	8g	8G	8G	.	.	.	.	.	.	.	.
.	.	16gg	16dd	.	.	.	.	.	.	.	.	.	.	.
.	.	16gg	16dd	8g	8G	8G	.	.	.	.	.	.	.	.
.	.	16gg	16dd	.	.	.	.	.	.	.	.	.	.	.
=34	=34	=34	=34	=34	=34	=34	=34	=34	=34	=34	=34	=34	=34	=34
4GG	4G	16bb	16gg	2.b 2.d	8GG	8GG	4g	4G	4g	4G	4ddd	4ddd	4bb	4G
.	.	16bb	16gg	.	.	.	.	.	.	.	.	.	.	.
.	.	16bb	16gg	.	8G	8G	.	.	.	.	.	.	.	.
.	.	16bb	16gg	.	.	.	.	.	.	.	.	.	.	.
8r	4B	4ddd	4bb	.	8G	8G	2r	2r	2r	2r	4bb	4bb	4gg	4B
16GG	.	.	.	.	8G	8G	.	.	.	.	.	.	.	.
16GG	.	.	.	.	.	.	.	.	.	.	.	.	.	.
8GG	4d	4r	4r	.	8G	8G	.	.	.	.	4gg	4gg	4dd	4d
8GG	.	.	.	.	8G	8G	.	.	.	.	.	.	.	.
=35	=35	=35	=35	=35	=35	=35	=35	=35	=35	=35	=35	=35	=35	=35
4GG	4G	16ee	16cc	2.cc 2.e	8GG	8GG	4g	4G	4g	4G	4ee	4ee	4cc	4G
.	.	16ee	16cc	.	.	.	.	.	.	.	.	.	.	.
.	.	16ee	16cc	.	8G	8G	.	.	.	.	.	.	.	.
.	.	16ee	16cc	.	.	.	.	.	.	.	.	.	.	.
8r	2r	4eee	4ccc	.	8G	8G	8r	8r	8r	8r	4r	4r	4r	2r
16GG	.	.	.	.	8G	8G	8g	8G	8g	8G	.	.	.	.
16GG	.	.	.	.	.	.	.	.	.	.	.	.	.	.
8GG	.	4r	4r	.	8G	8G	8g	8G	8g	8G	4eee	4ee	4cc	.
8GG	.	.	.	.	8G	8G	8g	8G	8g	8G	.	.	.	.
=36	=36	=36	=36	=36	=36	=36	=36	=36	=36	=36	=36	=36	=36	=36
4GG	2.d	16ff#	2.cc 2.ff#	2.a 2.d	8GG	8GG	4g	4G	4g	4G	2.ff#	2.cc	2.aa	2.d
.	.	16ff#	.	.	.	.	.	.	.	.	.	.	.	.
.	.	16aa	.	.	8G	8G	.	.	.	.	.	.	.	.
.	.	16aa	.	.	.	.	.	.	.	.	.	.	.	.
2r	.	16ddd	.	.	8G	8G	2r	2r	2r	2r	.	.	.	.
.	.	16ddd	.	.	.	.	.	.	.	.	.	.	.	.
.	.	16ccc	.	.	8G	8G	.	.	.	.	.	.	.	.
.	.	16ccc	.	.	.	.	.	.	.	.	.	.	.	.
.	.	16bb	.	.	8G	8G	.	.	.	.	.	.	.	.
.	.	16bb	.	.	.	.	.	.	.	.	.	.	.	.
.	.	16aa	.	.	8G	8G	.	.	.	.	.	.	.	.
.	.	16aa	.	.	.	.	.	.	.	.	.	.	.	.
=37	=37	=37	=37	=37	=37	=37	=37	=37	=37	=37	=37	=37	=37	=37
4GG	4G	16gg	16b 16gg	2.b 2.d	8GG	8GG	4g	4G	4g	4G	4gg	4b	4gg	4G
.	.	16gg	16gg 16b	.	.	.	.	.	.	.	.	.	.	.
.	.	16gg	16gg 16b	.	8G	8G	.	.	.	.	.	.	.	.
.	.	16gg	16gg 16b	.	.	.	.	.	.	.	.	.	.	.
2r	4r	16bb	16dd	.	8G	8G	2r	2r	2r	2r	4r	4r	4r	4r
.	.	16bb	16dd	.	.	.	.	.	.	.	.	.	.	.
.	.	16bb	16dd	.	8G	8G	.	.	.	.	.	.	.	.
.	.	16bb	16dd	.	.	.	.	.	.	.	.	.	.	.
.	4GG	16ddd	16b	.	8G	8G	.	.	.	.	4ddd	4dd	4b	4GG
.	.	16ddd	16b	.	.	.	.	.	.	.	.	.	.	.
.	.	16ddd	16b	.	8G	8G	.	.	.	.	.	.	.	.
.	.	16ddd	16b	.	.	.	.	.	.	.	.	.	.	.
=38	=38	=38	=38	=38	=38	=38	=38	=38	=38	=38	=38	=38	=38	=38
4GG	4G	16ee	16cc	2.cc 2.e	8GG	8GG	4g	4G	4g	4G	4ee	4ee	4cc	4G
.	.	16ee	16cc	.	.	.	.	.	.	.	.	.	.	.
.	.	16ee	16cc	.	8G	8G	.	.	.	.	.	.	.	.
.	.	16ee	16cc	.	.	.	.	.	.	.	.	.	.	.
8r	4r	4eee	4ccc	.	8G	8G	8r	8r	8r	8r	4r	4r	4r	4r
16GG	.	.	.	.	8G	8G	8g	8G	8g	8G	.	.	.	.
16GG	.	.	.	.	.	.	.	.	.	.	.	.	.	.
8GG	4G	4r	4r	.	8G	8G	8g	8G	8g	8G	4eee	4ee	4cc	4G
8GG	.	.	.	.	8G	8G	8g	8G	8g	8G	.	.	.	.
=39	=39	=39	=39	=39	=39	=39	=39	=39	=39	=39	=39	=39	=39	=39
4GG	2.d	16ff#	2.cc 2.ff#	2.d 2.a	8GG	8GG	4g	4G	4g	4G	2.ff#	2.cc	2.aa	2.d
.	.	16ff#	.	.	.	.	.	.	.	.	.	.	.	.
.	.	16aa	.	.	8G	8G	.	.	.	.	.	.	.	.
.	.	16aa	.	.	.	.	.	.	.	.	.	.	.	.
2r	.	16ddd	.	.	8G	8G	2r	2r	2r	2r	.	.	.	.
.	.	16ddd	.	.	.	.	.	.	.	.	.	.	.	.
.	.	16ccc	.	.	8G	8G	.	.	.	.	.	.	.	.
.	.	16ccc	.	.	.	.	.	.	.	.	.	.	.	.
.	.	16bb	.	.	8G	8G	.	.	.	.	.	.	.	.
.	.	16bb	.	.	.	.	.	.	.	.	.	.	.	.
.	.	16aa	.	.	8G	8G	.	.	.	.	.	.	.	.
.	.	16aa	.	.	.	.	.	.	.	.	.	.	.	.
=40	=40	=40	=40	=40	=40	=40	=40	=40	=40	=40	=40	=40	=40	=40
4GG	8G	16bb	8gg	8b	8GG	8GG	4g	4G	4g	4G	8gg	4b	4gg	8G
.	.	16bb	.	.	.	.	.	.	.	.	.	.	.	.
.	8B	16ddd	4dd 4d	8dd	8B	8B	.	.	.	.	8ddd	.	.	8B
.	.	16ddd	.	.	.	.	.	.	.	.	.	.	.	.
2r	8A	16ccc	.	8cc	8A	8A	2r	2r	2r	2r	8ccc	4dd	4dd	8A
.	.	16ccc	.	.	.	.	.	.	.	.	.	.	.	.
.	8G	16bb	4dd 4d	8b	8G	8G	.	.	.	.	8bb	.	.	8G
.	.	16bb	.	.	.	.	.	.	.	.	.	.	.	.
.	8F#	16aa	.	8a	8F#	8F#	.	.	.	.	8aa	4dd	4dd	8F#
.	.	16aa	.	.	.	.	.	.	.	.	.	.	.	.
.	8G	16bb	[8dd 8d	8b	8G	8G	.	.	.	.	8bb	.	.	8G
.	.	16bb	.	.	.	.	.	.	.	.	.	.	.	.
=41	=41	=41	=41	=41	=41	=41	=41	=41	=41	=41	=41	=41	=41	=41
2.r	8A	16ccc	8dd 8d]	8cc	8A	8A	2.r	2.r	2.r	2.r	8ccc	[2.dd	[2.dd	8A
.	.	16ccc	.	.	.	.	.	.	.	.	.	.	.	.
.	8F#	16aa	4dd 4d	8a	8F#	8F#	.	.	.	.	8aa	.	.	8F#
.	.	16aa	.	.	.	.	.	.	.	.	.	.	.	.
.	8D	16ddd	.	8dd	8D	8D	.	.	.	.	8ddd	.	.	8D
.	.	16ddd	.	.	.	.	.	.	.	.	.	.	.	.
.	8F#	16ccc	4dd 4d	8cc	8F#	8F#	.	.	.	.	8ccc	.	.	8F#
.	.	16ccc	.	.	.	.	.	.	.	.	.	.	.	.
.	8G	16bb	.	8b	8G	8G	.	.	.	.	8bb	.	.	8G
.	.	16bb	.	.	.	.	.	.	.	.	.	.	.	.
.	8B	16gg	[8dd 8d	8g	8B	8B	.	.	.	.	8gg	.	.	8B
.	.	16gg	.	.	.	.	.	.	.	.	.	.	.	.
=42	=42	=42	=42	=42	=42	=42	=42	=42	=42	=42	=42	=42	=42	=42
4GG	8G	16bb	8dd 8d]	8b	8G	8G	4g	4G	4g	4G	8bb	2.dd_	2.dd_	8G
.	.	16bb	.	.	.	.	.	.	.	.	.	.	.	.
.	8B	16ddd	4dd 4d	8dd	8B	8B	.	.	.	.	8ddd	.	.	8B
.	.	16ddd	.	.	.	.	.	.	.	.	.	.	.	.
2r	8A	16ccc	.	8cc	8A	8A	2r	2r	2r	2r	8ccc	.	.	8A
.	.	16ccc	.	.	.	.	.	.	.	.	.	.	.	.
.	8G	16bb	4dd 4d	8b	8G	8G	.	.	.	.	8bb	.	.	8G
.	.	16bb	.	.	.	.	.	.	.	.	.	.	.	.
.	8F#	16aa	.	8a	8F#	8F#	.	.	.	.	8aa	.	.	8F#
.	.	16aa	.	.	.	.	.	.	.	.	.	.	.	.
.	8G	16bb	[8dd 8d	8b	8G	8G	.	.	.	.	8bb	.	.	8G
.	.	16bb	.	.	.	.	.	.	.	.	.	.	.	.
=43	=43	=43	=43	=43	=43	=43	=43	=43	=43	=43	=43	=43	=43	=43
2.r	8A	16ccc	8dd 8d]	8cc	8A	8A	2.r	2.r	2.r	2.r	8ccc	2dd]	2dd]	8A
.	.	16ccc	.	.	.	.	.	.	.	.	.	.	.	.
.	8F#	16aa	4dd 4d	8a	8F#	8F#	.	.	.	.	8aa	.	.	8F#
.	.	16aa	.	.	.	.	.	.	.	.	.	.	.	.
.	8D	16ddd	.	8dd	8D	8D	.	.	.	.	8ddd	.	.	8D
.	.	16ddd	.	.	.	.	.	.	.	.	.	.	.	.
.	8F#	16ccc	4dd 4d	8cc	8F#	8F#	.	.	.	.	8ccc	.	.	8F#
.	.	16ccc	.	.	.	.	.	.	.	.	.	.	.	.
.	8G	16bb	.	8b	8G	8G	.	.	.	.	8bb	4r	4r	8G
.	.	16bb	.	.	.	.	.	.	.	.	.	.	.	.
.	8B	16gg	8dd 8d	8g	8B	8B	.	.	.	.	8r	.	.	8B
.	.	16gg	.	.	.	.	.	.	.	.	.	.	.	.
=44	=44	=44	=44	=44	=44	=44	=44	=44	=44	=44	=44	=44	=44	=44
2.r	8G	16eee	16ee	8G	8G	2.r	2.r	2.r	2.r	2.r	2.r	2.r	2.r	8G
.	.	16eee	16ee	.	.	.	.	.	.	.	.	.	.	.
.	8g	16ccc#	16cc#	8g	8g	.	.	.	.	.	.	.	.	8g
.	.	16ccc#	16cc#	.	.	.	.	.	.	.	.	.	.	.
.	8f#	16ddd	16dd	8f#	8f#	.	.	.	.	.	.	.	.	8f#
.	.	16ddd	16dd	.	.	.	.	.	.	.	.	.	.	.
.	8F#	16aa	16aa	8F#	8F#	.	.	.	.	.	.	.	.	8F#
.	.	16aa	16aa	.	.	.	.	.	.	.	.	.	.	.
.	8E	16ccc	16ccc	8E	8E	.	.	.	.	.	.	.	.	8E
.	.	16ccc	16ccc	.	.	.	.	.	.	.	.	.	.	.
.	8e	16cc	16cc	8e	8e	.	.	.	.	.	.	.	.	8e
.	.	16cc	16cc	.	.	.	.	.	.	.	.	.	.	.
=45	=45	=45	=45	=45	=45	=45	=45	=45	=45	=45	=45	=45	=45	=45
2.r	8d	16bb	16bb	8d	8d	3..r	2.r	2.r	2.r	2.r	2r	2.r	2r	8d
.	.	16bb	16bb	.	.	.	.	.	.	.	.	.	.	.
.	8D	16b	16b	8dd	8D	.	.	.	.	.	.	.	.	8D
.	.	16b	16b	.	.	.	.	.	.	.	.	.	.	.
.	8C	16aa	16aa	8cc	8C	.	.	.	.	.	.	.	.	8C
.	.	16aa	16aa	.	.	.	.	.	.	.	.	.	.	.
.	8c	16a	16a	8c	8c	.	.	.	.	.	.	.	.	8c
.	.	16a	16a	.	.	.	.	.	.	.	.	.	.	.
.	8B	16gg	16gg	8B	8B	.	.	.	.	.	4gg	.	4g	8B
.	.	16gg	16gg	.	.	24r	.	.	.	.	.	.	.	.
.	8BB	16g	16g	8b	8BB	8BB	.	.	.	.	.	.	.	8BB
.	.	16g	16g	.	.	.	.	.	.	.	.	.	.	.
=46	=46	=46	=46	=46	=46	=46	=46	=46	=46	=46	=46	=46	=46	=46
2.r	4C	16a	16a	8g	4C	4C	[2.g	[2.G	[2.g	[2.G	4aa	[2.gg	4a	4C
.	.	16a	16a	.	.	.	.	.	.	.	.	.	.	.
.	.	16gg	16gg	8g	.	.	.	.	.	.	.	.	.	.
.	.	16gg	16gg	.	.	.	.	.	.	.	.	.	.	.
.	4C#	16b-	16b-	8g	4C#	4C#	.	.	.	.	4bb-	.	4b-	4C#
.	.	16b-	16b-	.	.	.	.	.	.	.	.	.	.	.
.	.	16gg	16gg	8g	.	.	.	.	.	.	.	.	.	.
.	.	16gg	16gg	.	.	.	.	.	.	.	.	.	.	.
.	4D	16b	16b	8g	4D	4D	.	.	.	.	4bb	.	4b	4D
.	.	16b	16b	.	.	.	.	.	.	.	.	.	.	.
.	.	16gg	16gg	8g	.	.	.	.	.	.	.	.	.	.
.	.	16gg	16gg	.	.	.	.	.	.	.	.	.	.	.
=47	=47	=47	=47	=47	=47	=47	=47	=47	=47	=47	=47	=47	=47	=47
2.r	4E-	16cc	16cc	8g	4E-	4E-	2.g]	2.G]	2.g]	2.G]	4ccc	4.gg]	4cc	4E-
.	.	16cc	16cc	.	.	.	.	.	.	.	.	.	.	.
.	.	16gg	16cc	8g	.	.	.	.	.	.	.	.	.	.
.	.	16gg	16cc	.	.	.	.	.	.	.	.	.	.	.
.	2E	16cc#	16cc#	8g	2E	2E	.	.	.	.	2ccc#	.	2cc#	2E
.	.	16cc#	16cc#	.	.	.	.	.	.	.	.	.	.	.
.	.	16bb-	16cc#	8g	.	.	.	.	.	.	.	8bb-	.	.
.	.	16bb-	16cc#	.	.	.	.	.	.	.	.	.	.	.
.	.	16aa	16cc#	8f#	.	.	.	.	.	.	.	8aa	.	.
.	.	16aa	16cc#	.	.	.	.	.	.	.	.	.	.	.
.	.	16gg	16cc#	8g	.	.	.	.	.	.	.	8gg	.	.
.	.	16gg	16cc#	.	.	.	.	.	.	.	.	.	.	.
=48	=48	=48	=48	=48	=48	=48	=48	=48	=48	=48	=48	=48	=48	=48
2.r	4D	16ff#	16dd	8f#	4D	4D	2.r	2.r	2.r	2.r	[2.ddd	4ff#	2.dd	4D
.	.	16ff#	16dd	.	.	.	.	.	.	.	.	.	.	.
.	.	16ddd	16dd	8f#	.	.	.	.	.	.	.	.	.	.
.	.	16ddd	16dd	.	.	.	.	.	.	.	.	.	.	.
.	4E	16ddd	16dd	8g	4E	4E	.	.	.	.	.	4gg	.	4E
.	.	16ddd	16dd	.	.	.	.	.	.	.	.	.	.	.
.	.	16ddd	16dd	8g	.	.	.	.	.	.	.	.	.	.
.	.	16ddd	16dd	.	.	.	.	.	.	.	.	.	.	.
.	4F#	16ddd	16dd	8a	4F#	4F#	.	.	.	.	.	4aa	.	4F#
.	.	16ddd	16dd	.	.	.	.	.	.	.	.	.	.	.
.	.	16ddd	16dd	8a	.	.	.	.	.	.	.	.	.	.
.	.	16ddd	16dd	.	.	.	.	.	.	.	.	.	.	.
=49	=49	=49	=49	=49	=49	=49	=49	=49	=49	=49	=49	=49	=49	=49
2.r	4G#	16ddd	16ee 16b	8b	4G#	4G#	2.r	2.r	2.r	2.r	4ddd]	4bb	4b	4G#
.	.	16ddd	16ee 16b	.	.	.	.	.	.	.	.	.	.	.
.	.	16ddd	16b 16ee	8b	.	.	.	.	.	.	.	.	.	.
.	.	16ddd	16ee 16b	.	.	.	.	.	.	.	.	.	.	.
.	4A	16ccc#	16ee 16a	8a	4A	4A	.	.	.	.	4ccc#	2ee	4cc#	4A
.	.	16ccc#	16ee 16a	.	.	.	.	.	.	.	.	.	.	.
.	.	16ccc#	16ee 16a	8a	.	.	.	.	.	.	.	.	.	.
.	.	16ccc#	16ee 16a	.	.	.	.	.	.	.	.	.	.	.
.	4c#	16aa	16ee 16a	8a	4c#	4c#	.	.	.	.	4aa	.	4a	4c#
.	.	16aa	16ee 16a	.	.	.	.	.	.	.	.	.	.	.
.	.	16aa	16ee 16a	8a	.	.	.	.	.	.	.	.	.	.
.	.	16aa	16a 16ee	.	.	.	.	.	.	.	.	.	.	.
=50	=50	=50	=50	=50	=50	=50	=50	=50	=50	=50	=50	=50	=50	=50
2r	4F#	16ccc	16d 16dd	8a	4F#	4F#	2.r	2.r	2.r	2.r	4ccc	4aa	2dd	4F#
.	.	16ccc	16dd 16d	.	.	.	.	.	.	.	.	.	.	.
.	.	16ccc	16dd 16d	8a	.	.	.	.	.	.	.	.	.	.
.	.	16ccc	16d 16dd	.	.	.	.	.	.	.	.	.	.	.
.	4G	16bb	16dd 16d	8g	4G	4G	.	.	.	.	4bb	4dd	.	4G
.	.	16bb	16dd 16d	.	.	.	.	.	.	.	.	.	.	.
.	.	16bb	16dd 16d	8g	.	.	.	.	.	.	.	.	.	.
.	.	16bb	16dd 16d	.	.	.	.	.	.	.	.	.	.	.
4GG	4d	16gg	16d	8g	4B	4B	.	.	.	.	4gg	4gg	4gg	4d
.	.	16gg	16d	.	.	.	.	.	.	.	.	.	.	.
.	.	16gg	16d	8g	.	.	.	.	.	.	.	.	.	.
.	.	16gg	16d	.	.	.	.	.	.	.	.	.	.	.
=51	=51	=51	=51	=51	=51	=51	=51	=51	=51	=51	=51	=51	=51	=51
4C	2e-	2aa-	2e-	2.g	2c	2c	2g	2G	2g	2G	2aa-	[2.gg	[2.gg	2e-
4r	.	.	.	.	.	.	.	.	.	.	.	.	.	.
4GG	4d	4gg	4d	.	4B	4B	4r	4r	4r	4r	4gg	.	.	4d
=52	=52	=52	=52	=52	=52	=52	=52	=52	=52	=52	=52	=52	=52	=52
4C	2e-	2aa-	2e-	2.g	2c	2c	2g	2G	2g	2G	2aa-	2.gg_	2.gg_	2e-
4r	.	.	.	.	.	.	.	.	.	.	.	.	.	.
4GG	4d	4gg	4d	.	4B	4B	4r	4r	4r	4r	4gg	.	.	4d
=53	=53	=53	=53	=53	=53	=53	=53	=53	=53	=53	=53	=53	=53	=53
4C	2.e-	2.aa-	2.e-	2.g	2.c	2.c	2g	2G	2g	2G	2.aa-	2.gg]	2.gg]	2.e-
2r	.	.	.	.	.	.	.	.	.	.	.	.	.	.
.	.	.	.	.	.	.	4r	4r	4r	4r	.	.	.	.
=54	=54	=54	=54	=54	=54	=54	=54	=54	=54	=54	=54	=54	=54	=54
4GG	2.f	2.bb	2.f	2.g	2.d	2.d	4g	4G	4g	4G	2.gg	2.ff	2.bb	2.f
2r	.	.	.	.	.	.	2r	2r	2r	2r	.	.	.	.
=55	=55	=55	=55	=55	=55	=55	=55	=55	=55	=55	=55	=55	=55	=55
4GG	4e-	4ccc	4g	4g	4e-	4e-	4g	4G	4g	4G	4gg	4ee-	4ccc	4e-
2r	2r	2r	2r	2r	2r	2r	2r	2r	2r	2r	2r	2r	2r	2r
=56	=56	=56	=56	=56	=56	=56	=56	=56	=56	=56	=56	=56	=56	=56
4GG	4d	4bb- 4b-	4g 4G	4g	4d	4d	4g	4G	4g	4G	4gg	4gg	4bb-	4d
2r	2r	2r	2r	2r	2r	2r	2r	2r	2r	2r	2r	2r	2r	2r
=57	=57	=57	=57	=57	=57	=57	=57	=57	=57	=57	=57	=57	=57	=57
2.r	2.r	4aa	4e-	4g	4c	4c	2.r	2.r	2.r	2.r	2.r	2.r	2.r	2.r
.	.	2r	2r	2r	2r	2r	.	.	.	.	.	.	.	.
=58	=58	=58	=58	=58	=58	=58	=58	=58	=58	=58	=58	=58	=58	=58
2.r	2.r	4gg	4b-	4c#	4c#	4c#	2.r	2.r	2.r	2.r	2.r	2.r	2.r	2.r
.	.	2r	2r	2r	2r	2r	.	.	.	.	.	.	.	.
=59	=59	=59	=59	=59	=59	=59	=59	=59	=59	=59	=59	=59	=59	=59
2.r	2.r	4ff#	4a	4d	8D	4D	2.r	2.r	2.r	2.r	2.r	2.r	2.r	2.r
.	.	.	.	.	8d	.	.	.	.	.	.	.	.	.
.	.	4r	4r	4r	8D	2r	.	.	.	.	.	.	.	.
.	.	.	.	.	8d	.	.	.	.	.	.	.	.	.
.	.	4dd	[4dd	4f#	8D	.	.	.	.	.	.	.	.	.
.	.	.	.	.	8d	.	.	.	.	.	.	.	.	.
=60	=60	=60	=60	=60	=60	=60	=60	=60	=60	=60	=60	=60	=60	=60
2.r	2.r	2ee	4dd]	2g	8D	2.r	2.r	2.r	2.r	2.r	2.r	2.r	2.r	2.r
.	.	.	.	.	8d	.	.	.	.	.	.	.	.	.
.	.	.	4cc#	.	8D	.	.	.	.	.	.	.	.	.
.	.	.	.	.	8d	.	.	.	.	.	.	.	.	.
.	.	8ff#	[4cc	[4a	8D	.	.	.	.	.	.	.	.	.
.	.	16ee	.	.	8d	.	.	.	.	.	.	.	.	.
.	.	16ff#	.	.	.	.	.	.	.	.	.	.	.	.
=61	=61	=61	=61	=61	=61	=61	=61	=61	=61	=61	=61	=61	=61	=61
2.r	2.r	4gg	4cc]	4a]	8D	2.r	2.r	2.r	2.r	2.r	2.r	2.r	2.r	2.r
.	.	.	.	.	8d	.	.	.	.	.	.	.	.	.
.	.	4r	4b	4g	8D	.	.	.	.	.	.	.	.	.
.	.	.	.	.	8d	.	.	.	.	.	.	.	.	.
.	.	4aa	4f#	4d	8D	.	.	.	.	.	.	.	.	.
.	.	.	.	.	8d	.	.	.	.	.	.	.	.	.
=62	=62	=62	=62	=62	=62	=62	=62	=62	=62	=62	=62	=62	=62	=62
2.r	2.r	8bb	8g	4d	8D	2.r	2.r	2.r	2.r	2.r	2.r	2.r	2.r	2.r
.	.	16aa	16f#	.	8d	.	.	.	.	.	.	.	.	.
.	.	16bb	16g	.	.	.	.	.	.	.	.	.	.	.
.	.	4ccc	4a	4r	8D	.	.	.	.	.	.	.	.	.
.	.	.	.	.	8d	.	.	.	.	.	.	.	.	.
.	.	4bb	4g	4d	8D	.	.	.	.	.	.	.	.	.
.	.	.	.	.	8d	.	.	.	.	.	.	.	.	.
=63	=63	=63	=63	=63	=63	=63	=63	=63	=63	=63	=63	=63	=63	=63
2.r	8D	4aa	4f#	2d	8D	8D	[2.dd	[2.dd	[2.dd	[2.dd	2r	2.dd	[2.dd	8D
.	8d	.	.	.	8d	8d	.	.	.	.	.	.	.	8d
.	8D	4r	4r	.	8D	8D	.	.	.	.	.	.	.	8D
.	8d	.	.	.	8d	8d	.	.	.	.	.	.	.	8d
.	8D	[4ddd	4dd	4f#	8D	8D	.	.	.	.	4ff#	.	.	8D
.	8d	.	.	.	8d	8d	.	.	.	.	.	.	.	8d
=64	=64	=64	=64	=64	=64	=64	=64	=64	=64	=64	=64	=64	=64	=64
2.r	8D	4ddd]	2ee	2g	8D	8D	2.dd_	2.dd_	2.dd_	2.dd_	2gg	2ee	4dd]	8D
.	8d	.	.	.	8d	8d	.	.	.	.	.	.	.	8d
.	8D	4ccc#	.	.	8D	8D	.	.	.	.	.	.	4cc#	8D
.	8d	.	.	.	8d	8d	.	.	.	.	.	.	.	8d
.	8D	[4ccc	8ff#	[4a	8D	8D	.	.	.	.	[4aa	8ff#	[4cc	8D
.	8d	.	16ee	.	8d	8d	.	.	.	.	.	16ee	.	8d
.	.	.	16ff#	.	.	.	.	.	.	.	.	16ff#	.	.
=65	=65	=65	=65	=65	=65	=65	=65	=65	=65	=65	=65	=65	=65	=65
2.r	8D	4ccc]	4gg	4a]	8D	8D	2.dd_	2.dd_	2.dd_	2.dd_	4aa]	2gg	4cc]	8D
.	8d	.	.	.	8d	8d	.	.	.	.	.	.	.	8d
.	8D	4bb	4r	4g	8D	8D	.	.	.	.	4gg	.	4b	8D
.	8d	.	.	.	8d	8d	.	.	.	.	.	.	.	8d
.	8D	4aa	4ff#	8d	8D	8D	.	.	.	.	4aa	4aa	4ff#	8D
.	8d	.	.	8dd	8d	8d	.	.	.	.	.	.	.	8d
=66	=66	=66	=66	=66	=66	=66	=66	=66	=66	=66	=66	=66	=66	=66
2.r	8D	8bb	8gg	8d	8D	8D	2.dd_	2.dd_	2.dd_	2.dd_	8bb	8bb	8gg	8D
.	8d	16aa	16ff#	8dd	8d	8d	.	.	.	.	16aa	16aa	16ff#	8d
.	.	16bb	16gg	.	.	.	.	.	.	.	16bb	16bb	16gg	.
.	8D	4ccc	4aa	8d	8D	8D	.	.	.	.	4ccc	4ccc	4aa	8D
.	8d	.	.	8dd	8d	8d	.	.	.	.	.	.	.	8d
.	8D	4bb	4gg	8d	8D	8D	.	.	.	.	4bb	4bb	4gg	8D
.	8d	.	.	8dd	8d	8d	.	.	.	.	.	.	.	8d
=67	=67	=67	=67	=67	=67	=67	=67	=67	=67	=67	=67	=67	=67	=67
2.r	8D	8aa	8ff#	8d	8D	8D	4dd]	4dd]	4dd]	4dd]	4aa	4aa	4ff#	8D
.	16d	16ddd	16dd	16dd	16d	16d	.	.	.	.	.	.	.	16d
.	16d	16ddd	16dd	16dd	16d	16d	.	.	.	.	.	.	.	16d
.	8d	8ddd	8dd	8dd	8d	8d	4r	4r	4r	4r	2r	8r	8r	8d
.	8d	8ddd	8dd	8dd	8d	8d	.	.	.	.	.	8ddd	8dd	8d
.	8B	8bb	8b	8b	8B	8B	4g	4g	4g	4g	.	8bb	8b	8B
.	8G	8gg	8g	8g	8G	8G	.	.	.	.	.	8gg	8g	8G
=68	=68	=68	=68	=68	=68	=68	=68	=68	=68	=68	=68	=68	=68	=68
2.r	8D	8dd	8d	8d	8D	8D	4dd	4dd	4dd	4dd	2.r	4dd	4dd	8D
.	16d	16ddd	16dd	16dd	16d	16d	.	.	.	.	.	.	.	16d
.	16d	16ddd	16dd	16dd	16d	16d	.	.	.	.	.	.	.	16d
.	8d	8ddd	8dd	8dd	8d	8d	4r	4r	4r	4r	.	8r	8r	8d
.	8d	8ddd	8dd	8dd	8d	8d	.	.	.	.	.	8ddd	8dd	8d
.	8B	8bb	8b	8b	8B	8B	4g	4g	4g	4g	.	8bb	8b	8B
.	8G	8gg	8g	8g	8G	8G	.	.	.	.	.	8gg	8g	8G
=69	=69	=69	=69	=69	=69	=69	=69	=69	=69	=69	=69	=69	=69	=69
2.r	4D	4dd	4d	4d	4D	4D	4dd	4dd	4dd	4dd	2.r	4dd	4dd	4D
.	4d	4ddd	4dd	4dd	4d	4d	2r	2r	2r	2r	.	4ddd	4dd	4d
.	4r	4r	4r	4r	4r	4r	.	.	.	.	.	4r	4r	4r
=70	=70	=70	=70	=70	=70	=70	=70	=70	=70	=70	=70	=70	=70	=70
2.r	2.r	2bb	8dd	2.r	2.r	2.r	2.r	2.r	2.r	2.r	2bb	2.r	2.r	[2.GG
.	.	.	8g	.	.	.	.	.	.	.	.	.	.	.
.	.	.	8dd	.	.	.	.	.	.	.	.	.	.	.
.	.	.	8g	.	.	.	.	.	.	.	.	.	.	.
.	.	8aa	8cc	.	.	.	.	.	.	.	8aa	.	.	.
.	.	16gg	8g	.	.	.	.	.	.	.	16gg	.	.	.
.	.	16aa	.	.	.	.	.	.	.	.	16aa	.	.	.
=71	=71	=71	=71	=71	=71	=71	=71	=71	=71	=71	=71	=71	=71	=71
2.r	2.r	4gg	8b	2.r	2.r	2.r	2.r	2.r	2.r	2.r	4gg	2.r	2.r	2.GG_
.	.	.	8g	.	.	.	.	.	.	.	.	.	.	.
.	.	4gg	8b	.	.	.	.	.	.	.	4gg	.	.	.
.	.	.	8g	.	.	.	.	.	.	.	.	.	.	.
.	.	8.aa	8cc	.	.	.	.	.	.	.	8.aa	.	.	.
.	.	.	8g	.	.	.	.	.	.	.	.	.	.	.
.	.	16ff#	.	.	.	.	.	.	.	.	16ff#	.	.	.
=72	=72	=72	=72	=72	=72	=72	=72	=72	=72	=72	=72	=72	=72	=72
2.r	2.r	4gg	8b	2.r	2.r	2.r	2.r	2.r	2.r	2.r	4gg	2.r	2.r	2.GG_
.	.	.	8g	.	.	.	.	.	.	.	.	.	.	.
.	.	4gg	8b	.	.	.	.	.	.	.	4gg	.	.	.
.	.	.	8g	.	.	.	.	.	.	.	.	.	.	.
.	.	8.aa	8cc	.	.	.	.	.	.	.	8.aa	.	.	.
.	.	.	8g	.	.	.	.	.	.	.	.	.	.	.
.	.	16ff#	.	.	.	.	.	.	.	.	16ff#	.	.	.
=73	=73	=73	=73	=73	=73	=73	=73	=73	=73	=73	=73	=73	=73	=73
2.r	2.r	4gg	4b	2.r	2.r	2.r	2.r	2.r	2.r	2.r	4gg	2.r	2.r	4GG]
.	.	8ff#	2r	.	.	.	.	.	.	.	8ff#	.	.	2r
.	.	8gg	.	.	.	.	.	.	.	.	8gg	.	.	.
.	.	8aa	.	.	.	.	.	.	.	.	8aa	.	.	.
.	.	8bb	.	.	.	.	.	.	.	.	8bb	.	.	.
=74	=74	=74	=74	=74	=74	=74	=74	=74	=74	=74	=74	=74	=74	=74
2.r	2.r	2ccc	8f#	2.r	2.r	2.r	2.r	2.r	2.r	2.r	2ccc	2.r	2.r	[2.DD
.	.	.	8dd	.	.	.	.	.	.	.	.	.	.	.
.	.	.	8f#	.	.	.	.	.	.	.	.	.	.	.
.	.	.	8dd	.	.	.	.	.	.	.	.	.	.	.
.	.	8bb	8g	.	.	.	.	.	.	.	8bb	.	.	.
.	.	16aa	8dd	.	.	.	.	.	.	.	16aa	.	.	.
.	.	16bb	.	.	.	.	.	.	.	.	16bb	.	.	.
=75	=75	=75	=75	=75	=75	=75	=75	=75	=75	=75	=75	=75	=75	=75
2.r	2.r	4aa	8f#	2.r	2.r	2.r	2.r	2.r	2.r	2.r	4aa	2.r	2.r	2.DD_
.	.	.	8dd	.	.	.	.	.	.	.	.	.	.	.
.	.	4aa	8f#	.	.	.	.	.	.	.	4aa	.	.	.
.	.	.	8dd	.	.	.	.	.	.	.	.	.	.	.
.	.	8.bb	8g	.	.	.	.	.	.	.	8.bb	.	.	.
.	.	.	8dd	.	.	.	.	.	.	.	.	.	.	.
.	.	16gg	.	.	.	.	.	.	.	.	16gg	.	.	.
=76	=76	=76	=76	=76	=76	=76	=76	=76	=76	=76	=76	=76	=76	=76
2.r	2.r	4aa	8f#	2.r	2.r	2.r	2.r	2.r	2.r	2.r	4aa	2.r	2.r	2.DD_
.	.	.	8dd	.	.	.	.	.	.	.	.	.	.	.
.	.	4aa	8f#	.	.	.	.	.	.	.	4aa	.	.	.
.	.	.	8dd	.	.	.	.	.	.	.	.	.	.	.
.	.	8.bb	8g	.	.	.	.	.	.	.	8.bb	.	.	.
.	.	.	8dd	.	.	.	.	.	.	.	.	.	.	.
.	.	16gg	.	.	.	.	.	.	.	.	16gg	.	.	.
=77	=77	=77	=77	=77	=77	=77	=77	=77	=77	=77	=77	=77	=77	=77
2.r	2.r	4aa	4f#	2.r	2.r	2.r	2.r	2.r	2.r	2.r	4aa	2.r	2.r	4DD]
.	.	8bb-	2r	.	.	.	.	.	.	.	8bb-	.	.	2r
.	.	8bb	.	.	.	.	.	.	.	.	8bb	.	.	.
.	.	8ccc	.	.	.	.	.	.	.	.	8ccc	.	.	.
.	.	8ccc#	.	.	.	.	.	.	.	.	8ccc#	.	.	.
=78	=78	=78	=78	=78	=78	=78	=78	=78	=78	=78	=78	=78	=78	=78
2.r	2B	2ddd	2dd	2.d	2B	2B	2.r	2.r	2.r	2.r	2ddd	2dd	[2.dd	2B
.	8A	8ccc	4ff#	.	8A	8A	.	.	.	.	8ccc	4ff#	.	8A
.	16G	16bb	.	.	16G	16G	.	.	.	.	16bb	.	.	16G
.	16A	16ccc	.	.	16A	16A	.	.	.	.	16ccc	.	.	16A
=79	=79	=79	=79	=79	=79	=79	=79	=79	=79	=79	=79	=79	=79	=79
2.r	4G	4bb	4gg	4d	4G	4G	2.r	2.r	2.r	2.r	4bb	4gg	4dd]	4G
.	2F#	2aa 2b	2dd#	2d#	2F#	2F#	.	.	.	.	2aa	2aa	2dd#	2F#
=80	=80	=80	=80	=80	=80	=80	=80	=80	=80	=80	=80	=80	=80	=80
2.r	4E	4gg	4ee	4B	4E	4E	2.r	2.r	2.r	2.r	4gg	4gg	4ee	4E
.	2d	2ff	2b 2g#	2b	2d	2d	.	.	.	.	2ff	2gg#	2ff	2d
=81	=81	=81	=81	=81	=81	=81	=81	=81	=81	=81	=81	=81	=81	=81
2.r	4c	16ee	16a	16e	8c	8c	2.r	2.r	2.r	2.r	4eee	2aa	4ee	4c
.	.	16ee	16a	16e	.	.	.	.	.	.	.	.	.	.
.	.	16ee	16a	16e	8c	8c	.	.	.	.	.	.	.	.
.	.	16ee	16a	16e	.	.	.	.	.	.	.	.	.	.
.	4B	16dd#	16a	16f#	8B	8B	.	.	.	.	4ddd#	.	4dd#	4B
.	.	16dd#	16a	16f#	.	.	.	.	.	.	.	.	.	.
.	.	16dd#	16a	16f#	8B	8B	.	.	.	.	.	.	.	.
.	.	16dd#	16a	16f#	.	.	.	.	.	.	.	.	.	.
.	4E	16dd	16g#	16g#	8E	8E	.	.	.	.	4ddd	4gg#	4dd	4E
.	.	16dd	16g#	16g#	.	.	.	.	.	.	.	.	.	.
.	.	16dd	16g#	16g#	8E	8E	.	.	.	.	.	.	.	.
.	.	16dd	16g#	16g#	.	.	.	.	.	.	.	.	.	.
=82	=82	=82	=82	=82	=82	=82	=82	=82	=82	=82	=82	=82	=82	=82
2.r	4A	16cc#	16g	16e	8A	8A	2.r	2.r	2.r	2.r	4ccc#	4gg	4cc#	4A
.	.	16cc#	16g	16e	.	.	.	.	.	.	.	.	.	.
.	.	16cc#	16g	16e	8A	8A	.	.	.	.	.	.	.	.
.	.	16cc#	16g	16e	.	.	.	.	.	.	.	.	.	.
.	4D	16cc	16f#	16a	8D	8D	.	.	.	.	4ccc	4ff#	4cc	4D
.	.	16cc	16f#	16a	.	.	.	.	.	.	.	.	.	.
.	.	16cc	16f#	16a	8D	8D	.	.	.	.	.	.	.	.
.	.	16cc	16f#	16a	.	.	.	.	.	.	.	.	.	.
.	4G	16b	16g	16d	8G	8G	.	.	.	.	4bb	4gg	4b	4G
.	.	16b	16g	16d	.	.	.	.	.	.	.	.	.	.
.	.	16b	16g	16d	8G	8G	.	.	.	.	.	.	.	.
.	.	16b	16g	16d	.	.	.	.	.	.	.	.	.	.
=83	=83	=83	=83	=83	=83	=83	=83	=83	=83	=83	=83	=83	=83	=83
2.r	8C	8a	8e	8c	8C	8C	2.r	2.r	2.r	2.r	8aa	8aa	8cc	8C
.	8r	8r	8r	8r	8r	8r	.	.	.	.	8r	8r	8r	8r
.	8D	8g	8B	8d	8D	8D	.	.	.	.	8gg	8gg	8b	8D
.	8r	8r	8r	8r	8r	8r	.	.	.	.	8r	8r	8r	8r
.	8D	8f#	8A	8d	8D	8D	.	.	.	.	8ff#	8ff#	8a	8D
.	8r	8r	8r	8r	8r	8r	.	.	.	.	8r	8r	8r	8r
=84	=84	=84	=84	=84	=84	=84	=84	=84	=84	=84	=84	=84	=84	=84
4GG	8GG	8bb	8gg	8G	8GG	8GG	[2.g	[2.G	[2.g	[2.G	4gg	[2.bb	[2.gg	8GG
.	8AA	8bb	8gg	8A	8AA	8AA	.	.	.	.	.	.	.	8AA
2r	8BB	8bb	8gg	8B	8BB	8BB	.	.	.	.	2r	.	.	8BB
.	8C	8bb	8gg	8c	8C	8C	.	.	.	.	.	.	.	8C
.	8D	8bb	8gg	8d	8D	8D	.	.	.	.	.	.	.	8D
.	8E	8bb	8gg	8e	8E	8E	.	.	.	.	.	.	.	8E
=85	=85	=85	=85	=85	=85	=85	=85	=85	=85	=85	=85	=85	=85	=85
4GG	8F#	8bb	8gg	8f#	8F#	8F#	2.g]	2.G]	2.g]	2.G]	2.r	2.bb]	2.gg]	8F#
.	8G	8bb	8gg	8g	8G	8G	.	.	.	.	.	.	.	8G
2r	8A	8bb	8gg	8a	8A	8A	.	.	.	.	.	.	.	8A
.	8B	8bb	8gg	8b	8B	8B	.	.	.	.	.	.	.	8B
.	8c	8bb	8gg	8cc	8c	8c	.	.	.	.	.	.	.	8c
.	8d	8bb	8gg	8dd	8d	8d	.	.	.	.	.	.	.	8d
=86	=86	=86	=86	=86	=86	=86	=86	=86	=86	=86	=86	=86	=86	=86
4GG	4e	4ccc	4gg	4ee	4e	4e	4g	4G	4g	4G	2.r	4ccc	4gg	4e
4GG	4d	4bb	4gg	4dd	4d	4d	4g	4G	4g	4G	.	4bb	4gg	4d
4r	4r	4r	4r	4r	4r	4r	4r	4r	4r	4r	.	4r	4r	4r
=87	=87	=87	=87	=87	=87	=87	=87	=87	=87	=87	=87	=87	=87	=87
2.r	2c#	2aa	2gg	2ee	2c#	2c#	2.r	2.r	2.r	2.r	2aa	2.r	2.r	2c#
.	4r	8eee	4r	4r	4r	4r	.	.	.	.	4eee	.	.	4r
.	.	8r	.	.	.	.	.	.	.	.	.	.	.	.
=88	=88	=88	=88	=88	=88	=88	=88	=88	=88	=88	=88	=88	=88	=88
2.r	2d	2gg	2b	2dd	2d	2d	2.r	2.r	2.r	2.r	2gg	2.r	2.r	2d
.	4r	8aa	8cc	4r	4r	4r	.	.	.	.	4aa	.	.	4r
.	.	8r	8r	.	.	.	.	.	.	.	.	.	.	.
=89	=89	=89	=89	=89	=89	=89	=89	=89	=89	=89	=89	=89	=89	=89
4GG	8GG	8bb	8gg	8G	8GG	8GG	[2.g	[2.G	[2.g	[2.G	4gg	[2.bb	[2.gg	8GG
.	8AA	8bb	8gg	8A	8AA	8AA	.	.	.	.	.	.	.	8AA
2r	8BB	8bb	8gg	8B	8BB	8BB	.	.	.	.	2r	.	.	8BB
.	8C	8bb	8gg	8c	8C	8C	.	.	.	.	.	.	.	8C
.	8D	8bb	8gg	8d	8D	8D	.	.	.	.	.	.	.	8D
.	8E	8bb	8gg	8e	8E	8E	.	.	.	.	.	.	.	8E
=90	=90	=90	=90	=90	=90	=90	=90	=90	=90	=90	=90	=90	=90	=90
4GG	8F#	8bb	8gg	8f#	8F#	8F#	2.g]	2.G]	2.g]	2.G]	2.r	2.bb]	2.gg]	8F#
.	8G	8bb	8gg	8g	8G	8G	.	.	.	.	.	.	.	8G
2r	8A	8bb	8gg	8a	8A	8A	.	.	.	.	.	.	.	8A
.	8B	8bb	8gg	8b	8B	8B	.	.	.	.	.	.	.	8B
.	8c	8bb	8gg	8cc	8c	8c	.	.	.	.	.	.	.	8c
.	8d	8bb	8gg	8dd	8d	8d	.	.	.	.	.	.	.	8d
=91	=91	=91	=91	=91	=91	=91	=91	=91	=91	=91	=91	=91	=91	=91
4GG	4e	4ccc	4gg	4ee	4e	4e	4g	4G	4g	4G	2.r	4ccc	4gg	4e
4GG	4d	4bb	4gg	4dd	4d	4d	4g	4G	4g	4G	.	4bb	4gg	4d
4r	4r	4r	4r	4r	4r	4r	4r	4r	4r	4r	.	4r	4r	4r
=92	=92	=92	=92	=92	=92	=92	=92	=92	=92	=92	=92	=92	=92	=92
2.r	2.c#	2.aa	[2.g	2.e	2.c#	2.c#	2.r	2.r	2.r	2.r	2.r	2.r	2.r	2.c#
=93	=93	=93	=93	=93	=93	=93	=93	=93	=93	=93	=93	=93	=93	=93
2.r	2d	2bb-	2g]	2d	2.d	2.d	2.r	2.r	2.r	2.r	2.r	2.r	2.r	2d
.	4r	4ff#	4cc	4r	.	.	.	.	.	.	.	.	.	4r
=94	=94	=94	=94	=94	=94	=94	=94	=94	=94	=94	=94	=94	=94	=94
2.r	8GG	8gg	8b	8G	8GG	4GG	2.r	2.r	2.r	2.r	2.r	2.r	2.r	8GG
.	8G	8ff#	8dd	8g	8G	.	.	.	.	.	.	.	.	8G
.	8GG	8ee	8cc	8G	8GG	2r	.	.	.	.	.	.	.	8GG
.	8G	8dd	8b	8g	8G	.	.	.	.	.	.	.	.	8G
.	8GG	8cc	8a	8G	8GG	.	.	.	.	.	.	.	.	8GG
.	8G	8b	8g	8g	8G	.	.	.	.	.	.	.	.	8G
=95	=95	=95	=95	=95	=95	=95	=95	=95	=95	=95	=95	=95	=95	=95
2.r	8GG	4cc	4e	8G	8GG	2.r	2.r	2.r	2.r	2.r	2.r	8ccc	8ee	8GG
.	8G	.	.	8g	8G	.	.	.	.	.	.	8bb	8dd	8G
.	8GG	4r	4r	8G	8GG	.	.	.	.	.	.	8aa	8cc	8GG
.	8G	.	.	8g	8G	.	.	.	.	.	.	8gg	8b	8G
.	8GG	4ff#	4cc	8G	8GG	.	.	.	.	.	.	8ff#	8a	8GG
.	8G	.	.	8g	8G	.	.	.	.	.	.	8aa	8cc	8G
=96	=96	=96	=96	=96	=96	=96	=96	=96	=96	=96	=96	=96	=96	=96
2.r	8GG	8gg	8b	8G	8GG	4GG	2.r	2.r	2.r	2.r	2.r	4gg	4b	8GG
.	8G	8ff#	8dd	8g	8G	.	.	.	.	.	.	.	.	8G
.	8GG	8ee	8cc	8G	8GG	2r	.	.	.	.	.	2r	2r	8GG
.	8G	8dd	8b	8g	8G	.	.	.	.	.	.	.	.	8G
.	8GG	8cc	8a	8G	8GG	.	.	.	.	.	.	.	.	8GG
.	8G	8b	8g	8g	8G	.	.	.	.	.	.	.	.	8G
=97	=97	=97	=97	=97	=97	=97	=97	=97	=97	=97	=97	=97	=97	=97
2.r	8c	4cc	4e	8G	8GG	2.r	2.r	2.r	2.r	2.r	8eee	8ccc	2.r	8e
.	8B	.	.	8g	8G	.	.	.	.	.	8ddd	8bb	.	8d
.	8A	4r	4r	8G	8GG	.	.	.	.	.	8ccc	8aa	.	8c
.	8G	.	.	8g	8G	.	.	.	.	.	8bb	8gg	.	8B
.	8F#	4aa	4ff#	8G	8GG	.	.	.	.	.	8aa	8ff#	.	8A
.	8A	.	.	8g	8G	.	.	.	.	.	8ccc	8aa	.	8c
=98	=98	=98	=98	=98	=98	=98	=98	=98	=98	=98	=98	=98	=98	=98
2.r	4G	4bb	4gg	8G	8GG	4GG	2.r	2.r	2.r	2.r	4bb	4gg	2.r	4B
.	.	.	.	8g	8G	.	.	.	.	.	.	.	.	.
.	2r	4r	4r	8G	8GG	2r	.	.	.	.	4r	2r	.	2r
.	.	.	.	8g	8G	.	.	.	.	.	.	.	.	.
.	.	4ddd	4bb	8G	8GG	.	.	.	.	.	4ddd	.	.	.
.	.	.	.	8g	8G	.	.	.	.	.	.	.	.	.
=99	=99	=99	=99	=99	=99	=99	=99	=99	=99	=99	=99	=99	=99	=99
2.r	2r	4bb	4gg	8G	8GG	4GG	2.r	2.r	2.r	2.r	4bb	2.r	2.r	2r
.	.	.	.	8g	8G	.	.	.	.	.	.	.	.	.
.	.	4r	4r	8G	8GG	2r	.	.	.	.	4r	.	.	.
.	.	.	.	8g	8G	.	.	.	.	.	.	.	.	.
.	4B	4bb	4dd	8G	8GG	.	.	.	.	.	4bb	.	.	4d
.	.	.	.	8g	8G	.	.	.	.	.	.	.	.	.
=100	=100	=100	=100	=100	=100	=100	=100	=100	=100	=100	=100	=100	=100	=100
2.r	4G	4gg	4b	8G	8GG	4GG	2.r	2.r	2.r	2.r	4gg	2.r	2.r	4B
.	.	.	.	8g	8G	.	.	.	.	.	.	.	.	.
.	4r	4r	4r	8G	8GG	2r	.	.	.	.	4r	.	.	4r
.	.	.	.	8g	8G	.	.	.	.	.	.	.	.	.
.	4B	4dd	4b	8G	8GG	.	.	.	.	.	4dd	.	.	4d
.	.	.	.	8g	8G	.	.	.	.	.	.	.	.	.
=101	=101	=101	=101	=101	=101	=101	=101	=101	=101	=101	=101	=101	=101	=101
2.r	8G	8b	8g	8G	8GG	8GG	2.r	2.r	2.r	2.r	8gg	2.r	2.r	8B
.	8r	8r	8r	8r	8r	8r	.	.	.	.	8r	.	.	8r
.	8G	8g	8B	8B	8GG	8GG	.	.	.	.	8gg	.	.	8B
.	8r	8r	8r	8r	8r	8r	.	.	.	.	8r	.	.	8r
.	8G	8g	8B	8d	8GG	8GG	.	.	.	.	8gg	.	.	8B
.	8r	8r	8r	8r	8r	8r	.	.	.	.	8r	.	.	8r
=102	=102	=102	=102	=102	=102	=102	=102	=102	=102	=102	=102	=102	=102	=102
2.r	4G	4g	4B	4g	4GG	4GG	2.r	2.r	2.r	2.r	4gg	2.r	2.r	4B
.	2r	2r	2r	2r	2r	2r	.	.	.	.	2r	.	.	2r
=103	=103	=103	=103	=103	=103	=103	=103	=103	=103	=103	=103	=103	=103	=103
2.r	2.r	2.ee	4r	4r	4C	4C	2.r	2.r	2.r	2.r	2.r	2.r	2.r	2.r
.	.	.	4b-	4g	2r	2r	.	.	.	.	.	.	.	.
.	.	.	4b-	4g	.	.	.	.	.	.	.	.	.	.
=104	=104	=104	=104	=104	=104	=104	=104	=104	=104	=104	=104	=104	=104	=104
2.r	2.r	8.ff	4a	4f	4FF	4FF	2.r	2.r	2.r	2.r	2.r	2.r	2.r	2.r
.	.	16gg	.	.	.	.	.	.	.	.	.	.	.	.
.	.	8aa	2r	2r	2r	2r	.	.	.	.	.	.	.	.
.	.	8ee	.	.	.	.	.	.	.	.	.	.	.	.
.	.	8ff	.	.	.	.	.	.	.	.	.	.	.	.
.	.	8dd	.	.	.	.	.	.	.	.	.	.	.	.
=105	=105	=105	=105	=105	=105	=105	=105	=105	=105	=105	=105	=105	=105	=105
2.r	2.r	2cc	4e	4c	4C	4C	2.r	2.r	2.r	2.r	2.r	2.r	2.r	2.r
.	.	.	4f	4d	2r	2r	.	.	.	.	.	.	.	.
.	.	8b-	4g	4e	.	.	.	.	.	.	.	.	.	.
.	.	16a	.	.	.	.	.	.	.	.	.	.	.	.
.	.	16b-	.	.	.	.	.	.	.	.	.	.	.	.
=106	=106	=106	=106	=106	=106	=106	=106	=106	=106	=106	=106	=106	=106	=106
2.r	4.r	4a	4a	4f	4F	4F	2.r	2.r	2.r	2.r	4.r	4.r	4.r	4.r
.	.	8r	8r	8r	8r	8r	.	.	.	.	.	.	.	.
.	16F	16f	16f	16f	16F	16F	.	.	.	.	16f	16f	16f	16F
.	16F	16f	16f	16f	16F	16F	.	.	.	.	16f	16f	16f	16F
.	8F	8f	8f	8f	8F	8F	.	.	.	.	8f	8f	8f	8F
.	8F	8f	8f	8f	8F	8F	.	.	.	.	8f	8f	8f	8F
=107	=107	=107	=107	=107	=107	=107	=107	=107	=107	=107	=107	=107	=107	=107
2.r	4F	8f	8f	4f	4F	4F	2.r	2.r	2.r	2.r	4f	4f	4f	4F
.	.	8b-	8d	.	.	.	.	.	.	.	.	.	.	.
.	8r	8a	8c	8r	8r	8r	.	.	.	.	8r	8r	8r	8r
.	16F	16f	16f	16f	16F	16F	.	.	.	.	16f	16f	16f	16F
.	16F	16f	16f	16f	16F	16F	.	.	.	.	16f	16f	16f	16F
.	8F	8f	8f	8f	8F	8F	.	.	.	.	8f	8f	8f	8F
.	8F	8f	8f	8f	8F	8F	.	.	.	.	8f	8f	8f	8F
=108	=108	=108	=108	=108	=108	=108	=108	=108	=108	=108	=108	=108	=108	=108
2.r	4F	8f	8f	4f	4F	4F	2.r	2.r	2.r	2.r	4f	4f	4f	4F
.	.	8dd	8b-	.	.	.	.	.	.	.	.	.	.	.
.	8r	8cc	8a	8r	8r	8r	.	.	.	.	8r	8r	8r	8r
.	16F	16ff	16ff	16f	16F	16F	.	.	.	.	16ff	16ff	16ff	16F
.	16F	16ff	16ff	16f	16F	16F	.	.	.	.	16ff	16ff	16ff	16F
.	8F	8ff	8ff	8f	8F	8F	.	.	.	.	8ff	8ff	8ff	8F
.	8F	8ff	8ff	8f	8F	8F	.	.	.	.	8ff	8ff	8ff	8F
=109	=109	=109	=109	=109	=109	=109	=109	=109	=109	=109	=109	=109	=109	=109
2.r	4F	8ff	8ff	4f	4F	4F	2.r	2.r	2.r	2.r	4ff	8ff	8ff	4F
.	.	8bb-	8dd	.	.	.	.	.	.	.	.	8bb-	8dd	.
.	8r	8aa	8cc	8r	8r	8r	.	.	.	.	8r	8aa	8cc	8r
.	16F	16ff	16ff	16f	16F	16F	.	.	.	.	16ff	16ff	16ff	16F
.	16F	16ff	16ff	16f	16F	16F	.	.	.	.	16ff	16ff	16ff	16F
.	8F	8ff	8ff	8f	8F	8F	.	.	.	.	8ff	8ff	8ff	8F
.	8F	8ff	8ff	8f	8F	8F	.	.	.	.	8ff	8ff	8ff	8F
=110	=110	=110	=110	=110	=110	=110	=110	=110	=110	=110	=110	=110	=110	=110
2.r	4F	8ff	8ff	4f	4F	4F	2.r	2.r	2.r	2.r	4ff	8ff	8ff	4F
.	.	8ddd	8bb-	.	.	.	.	.	.	.	.	8ddd	8bb-	.
.	8r	8ccc	8aa	8r	8r	8r	.	.	.	.	8r	8ccc	8aa	8r
.	16f	16ff	16ff	16ff	16f	16f	.	.	.	.	16ff	16ff	16ff	16f
.	16f	16ff	16ff	16ff	16f	16f	.	.	.	.	16ff	16ff	16ff	16f
.	8f	8ff	8ff	8ff	8f	8f	.	.	.	.	8ff	8ff	8ff	8f
.	8f	8ff	8ff	8ff	8f	8f	.	.	.	.	8ff	8ff	8ff	8f
=111	=111	=111	=111	=111	=111	=111	=111	=111	=111	=111	=111	=111	=111	=111
2.r	4e-	16ee-	16ee-	4ee-	4e-	4e-	2.r	2.r	2.r	2.r	4eee-	4ee-	4ee-	4e-
.	.	16ee-	16ee-	.	.	.	.	.	.	.	.	.	.	.
.	.	16ee-	16ee-	.	.	.	.	.	.	.	.	.	.	.
.	.	16ee-	16ee-	.	.	.	.	.	.	.	.	.	.	.
.	4c	16cc	16cc	4cc	4c	4c	.	.	.	.	4ccc	4ccc	4ccc	4c
.	.	16cc	16cc	.	.	.	.	.	.	.	.	.	.	.
.	.	16cc	16cc	.	.	.	.	.	.	.	.	.	.	.
.	.	16cc	16cc	.	.	.	.	.	.	.	.	.	.	.
.	4A	16a	16a	4a	4A	4A	.	.	.	.	4aa	4aa	4aa	4A
.	.	16a	16a	.	.	.	.	.	.	.	.	.	.	.
.	.	16a	16a	.	.	.	.	.	.	.	.	.	.	.
.	.	16a	16a	.	.	.	.	.	.	.	.	.	.	.
=112	=112	=112	=112	=112	=112	=112	=112	=112	=112	=112	=112	=112	=112	=112
2.r	4F#	16f#	16f#	4f#	4F#	4F#	2.r	2.r	2.r	2.r	4ff#	4ff#	4ff#	4F#
.	.	16f#	16f#	.	.	.	.	.	.	.	.	.	.	.
.	.	16f#	16f#	.	.	.	.	.	.	.	.	.	.	.
.	.	16f#	16f#	.	.	.	.	.	.	.	.	.	.	.
.	4E-	16e-	16e-	4e-	4E-	4E-	.	.	.	.	4ee-	4ee-	4ee-	4E-
.	.	16e-	16e-	.	.	.	.	.	.	.	.	.	.	.
.	.	16e-	16e-	.	.	.	.	.	.	.	.	.	.	.
.	.	16e-	16e-	.	.	.	.	.	.	.	.	.	.	.
.	4C	16c	16c	4c	4C	4C	.	.	.	.	4cc	4cc	4cc	4C
.	.	16c	16c	.	.	.	.	.	.	.	.	.	.	.
.	.	16c	16c	.	.	.	.	.	.	.	.	.	.	.
.	.	16c	16c	.	.	.	.	.	.	.	.	.	.	.
=113	=113	=113	=113	=113	=113	=113	=113	=113	=113	=113	=113	=113	=113	=113
2.r	4AA	16A	16A	4A	4AA	4AA	2.r	2.r	2.r	2.r	4a	4a	[2.a	4AA
.	.	16A	16A	.	.	.	.	.	.	.	.	.	.	.
.	.	16A	16A	.	.	.	.	.	.	.	.	.	.	.
.	.	16A	16A	.	.	.	.	.	.	.	.	.	.	.
.	4FF#	16d	16A	4F#	4FF#	4FF#	.	.	.	.	4dd	4dd	.	4FF#
.	.	16d	16A	.	.	.	.	.	.	.	.	.	.	.
.	.	16d	16A	.	.	.	.	.	.	.	.	.	.	.
.	.	16d	16A	.	.	.	.	.	.	.	.	.	.	.
.	4DD	16c	16A	4D	4DD	4DD	.	.	.	.	4dd	4cc	.	4DD
.	.	16c	16A	.	.	.	.	.	.	.	.	.	.	.
.	.	16c	16A	.	.	.	.	.	.	.	.	.	.	.
.	.	16c	16A	.	.	.	.	.	.	.	.	.	.	.
=114	=114	=114	=114	=114	=114	=114	=114	=114	=114	=114	=114	=114	=114	=114
2.r	4GG	16B-	16A	2D	4GG	4GG	2.r	2.r	2.r	2.r	2dd	2.b-	4a]	4GG
.	.	16B-	16A	.	.	.	.	.	.	.	.	.	.	.
.	.	16B-	16A	.	.	.	.	.	.	.	.	.	.	.
.	.	16B-	16A	.	.	.	.	.	.	.	.	.	.	.
.	4BB-	16B-	16G	.	4BB-	4BB-	.	.	.	.	.	.	4g	4BB-
.	.	16B-	16G	.	.	.	.	.	.	.	.	.	.	.
.	.	16B-	16G	.	.	.	.	.	.	.	.	.	.	.
.	.	16B-	16G	.	.	.	.	.	.	.	.	.	.	.
.	4C#	16B-	16g	4G	4C#	4C#	.	.	.	.	4gg	.	4g	4C#
.	.	16B-	16g	.	.	.	.	.	.	.	.	.	.	.
.	.	16B-	16g	.	.	.	.	.	.	.	.	.	.	.
.	.	16B-	16g	.	.	.	.	.	.	.	.	.	.	.
=115	=115	=115	=115	=115	=115	=115	=115	=115	=115	=115	=115	=115	=115	=115
2.r	4D	4A	4f#	4D	4D	4D	2.r	2.r	2.r	2.r	4ff#	4a	4f#	4D
.	4D	4d	4d	4F#	4D	4D	.	.	.	.	4dd	4dd	4f#	4D
.	4D	4d	4d	4F#	4D	4D	.	.	.	.	4dd	4dd	4f#	4D
=116	=116	=116	=116	=116	=116	=116	=116	=116	=116	=116	=116	=116	=116	=116
2.r	4D	4d	4d	4F#	4D	4D	2.r	2.r	2.r	2.r	4dd	4dd	4f#	4D
.	2r	2r	2r	2r	2r	2r	.	.	.	.	2r	2r	2r	2r
=117	=117	=117	=117	=117	=117	=117	=117	=117	=117	=117	=117	=117	=117	=117
2.r	2.r	4G	4G	2.r	2.r	2.r	2.r	2.r	2.r	2.r	[2.ddd	[2.bb-	[2.gg	2.r
.	.	4B-	4B-	.	.	.	.	.	.	.	.	.	.	.
.	.	4d	4d	.	.	.	.	.	.	.	.	.	.	.
=118	=118	=118	=118	=118	=118	=118	=118	=118	=118	=118	=118	=118	=118	=118
2.r	2.r	4g	4g	2.r	2.r	2.r	2.r	2.r	2.r	2.r	4.ddd]	4.bb-]	4.gg]	2.r
.	.	4b-	4b-	.	.	.	.	.	.	.	.	.	.	.
.	.	.	.	.	.	.	.	.	.	.	8ddd	8bb-	8gg	.
.	.	4r	4r	.	.	.	.	.	.	.	8ddd	8bb-	8gg	.
.	.	.	.	.	.	.	.	.	.	.	8ddd	8bb-	8gg	.
=119	=119	=119	=119	=119	=119	=119	=119	=119	=119	=119	=119	=119	=119	=119
2.r	2.r	4d	4d	2.r	2.r	2.r	2.r	2.r	2.r	2.r	4.ddd	4.bb-	4.gg	2.r
.	.	4g	4g	.	.	.	.	.	.	.	.	.	.	.
.	.	.	.	.	.	.	.	.	.	.	8ddd	8bb-	8gg	.
.	.	4r	4r	.	.	.	.	.	.	.	8ddd	8bb-	8gg	.
.	.	.	.	.	.	.	.	.	.	.	8ddd	8bb-	8gg	.
=120	=120	=120	=120	=120	=120	=120	=120	=120	=120	=120	=120	=120	=120	=120
2.r	2.r	4B-	4B-	2.r	2.r	2.r	2.r	2.r	2.r	2.r	4.ddd	4.bb-	4.gg	2.r
.	.	4d	4d	.	.	.	.	.	.	.	.	.	.	.
.	.	.	.	.	.	.	.	.	.	.	8ddd	8bb-	8gg	.
.	.	4r	4r	.	.	.	.	.	.	.	8ddd	8bb-	8gg	.
.	.	.	.	.	.	.	.	.	.	.	8ddd	8bb-	8gg	.
=121	=121	=121	=121	=121	=121	=121	=121	=121	=121	=121	=121	=121	=121	=121
2.r	[2.c#	16cc#	16g	[2.e 2.c#	8AA	8AA	2.r	2.r	2.r	2.r	[2.ccc#	[2.gg	[2.ee	[2.g
.	.	16cc#	16g	.	.	.	.	.	.	.	.	.	.	.
.	.	16cc#	16g	.	8A	8A	.	.	.	.	.	.	.	.
.	.	16cc#	16g	.	.	.	.	.	.	.	.	.	.	.
.	.	16ee	16cc#	.	8AA	8AA	.	.	.	.	.	.	.	.
.	.	16ee	16cc#	.	.	.	.	.	.	.	.	.	.	.
.	.	16ee	16cc#	.	8A	8A	.	.	.	.	.	.	.	.
.	.	16ee	16cc#	.	.	.	.	.	.	.	.	.	.	.
.	.	16gg	16ee	.	8AA	8AA	.	.	.	.	.	.	.	.
.	.	16gg	16ee	.	.	.	.	.	.	.	.	.	.	.
.	.	16gg	16ee	.	8A	8A	.	.	.	.	.	.	.	.
.	.	16gg	16ee	.	.	.	.	.	.	.	.	.	.	.
=122	=122	=122	=122	=122	=122	=122	=122	=122	=122	=122	=122	=122	=122	=122
2.r	2.c#_	16ccc#	16gg	4.e 4.c#]	8AA	8AA	2.r	2.r	2.r	2.r	4.ccc#]	4.gg]	4.ee]	2.g_
.	.	16ccc#	16gg	.	.	.	.	.	.	.	.	.	.	.
.	.	16ccc#	16gg	.	8A	8A	.	.	.	.	.	.	.	.
.	.	16ccc#	16gg	.	.	.	.	.	.	.	.	.	.	.
.	.	4eee	4a	.	8AA	8AA	.	.	.	.	.	.	.	.
.	.	.	.	8e 8c#	8A	8A	.	.	.	.	8ccc#	8gg	8ee	.
.	.	4r	4r	8e 8c#	8AA	8AA	.	.	.	.	8ccc#	8gg	8ee	.
.	.	.	.	8e 8c#	8A	8A	.	.	.	.	8ccc#	8gg	8ee	.
=123	=123	=123	=123	=123	=123	=123	=123	=123	=123	=123	=123	=123	=123	=123
2.r	2.c#_	16gg	16ee	4.e 4.c#	8AA	8AA	2.r	2.r	2.r	2.r	4.ccc#	4.gg	4.ee	2.g_
.	.	16gg	16ee	.	.	.	.	.	.	.	.	.	.	.
.	.	16gg	16ee	.	8A	8A	.	.	.	.	.	.	.	.
.	.	16gg	16ee	.	.	.	.	.	.	.	.	.	.	.
.	.	4bb-	4gg	.	8AA	8AA	.	.	.	.	.	.	.	.
.	.	.	.	8e 8c#	8A	8A	.	.	.	.	8ccc#	8gg	8ee	.
.	.	4r	4r	8e 8c#	8AA	8AA	.	.	.	.	8ccc#	8gg	8ee	.
.	.	.	.	8e 8c#	8A	8A	.	.	.	.	8ccc#	8gg	8ee	.
=124	=124	=124	=124	=124	=124	=124	=124	=124	=124	=124	=124	=124	=124	=124
2.r	2.c#]	16ee	16cc#	4.e 4.c#	8AA	8AA	2.r	2.r	2.r	2.r	4.ccc#	4.gg	4.ee	2.g]
.	.	16ee	16cc#	.	.	.	.	.	.	.	.	.	.	.
.	.	16ee	16cc#	.	8A	8A	.	.	.	.	.	.	.	.
.	.	16ee	16cc#	.	.	.	.	.	.	.	.	.	.	.
.	.	4gg	4ee	.	8AA	8AA	.	.	.	.	.	.	.	.
.	.	.	.	8e 8c#	8A	8A	.	.	.	.	8ccc#	8gg	8ee	.
.	.	4r	4r	8e 8c#	8AA	8AA	.	.	.	.	8ccc#	8gg	8ee	.
.	.	.	.	8e 8c#	8A	8A	.	.	.	.	8ccc#	8gg	8ee	.
=125	=125	=125	=125	=125	=125	=125	=125	=125	=125	=125	=125	=125	=125	=125
2.r	4d	8ff	8dd	4d	4D	4D	2.r	2.r	2.r	2.r	4ddd	4ff	4ff	4f
.	.	4ff	4dd	.	.	.	.	.	.	.	.	.	.	.
.	2r	.	.	4f	4F	4F	.	.	.	.	2r	2r	2r	2r
.	.	4ff	4dd	.	.	.	.	.	.	.	.	.	.	.
.	.	.	.	4a	4A	4A	.	.	.	.	.	.	.	.
.	.	[8ff	[8dd	.	.	.	.	.	.	.	.	.	.	.
=126	=126	=126	=126	=126	=126	=126	=126	=126	=126	=126	=126	=126	=126	=126
2.r	4f	8ff]	8dd]	4b-	4B-	4B-	2.r	2.r	2.r	2.r	4ff	4ff	4ff	4f
.	.	4ff	4dd	.	.	.	.	.	.	.	.	.	.	.
.	4d	.	.	4dd	4d	4d	.	.	.	.	4dd	4dd	4dd	4d
.	.	4ff	4dd	.	.	.	.	.	.	.	.	.	.	.
.	4B-	.	.	4r	4r	4r	.	.	.	.	4b-	4b-	4b-	4B-
.	.	8ff	[8dd	.	.	.	.	.	.	.	.	.	.	.
=127	=127	=127	=127	=127	=127	=127	=127	=127	=127	=127	=127	=127	=127	=127
2.r	4G	8ee-	8dd]	4G	4G	4G	2.r	2.r	2.r	2.r	4g	4g	4g	4G
.	.	4ee-	4dd	.	.	.	.	.	.	.	.	.	.	.
.	2r	.	.	4B-	4B-	4B-	.	.	.	.	2r	2r	2r	2r
.	.	4ee-	4dd	.	.	.	.	.	.	.	.	.	.	.
.	.	.	.	4d	4d	4d	.	.	.	.	.	.	.	.
.	.	[8ee-	8dd	.	.	.	.	.	.	.	.	.	.	.
=128	=128	=128	=128	=128	=128	=128	=128	=128	=128	=128	=128	=128	=128	=128
2.r	4g	8ee-]	8cc	4e-	4e-	4e-	2.r	2.r	2.r	2.r	4gg	4gg	4gg	4g
.	.	4ee-	4cc	.	.	.	.	.	.	.	.	.	.	.
.	4e-	.	.	4g	4g	4g	.	.	.	.	4ee-	4ee-	4ee-	4e-
.	.	4ee-	4cc	.	.	.	.	.	.	.	.	.	.	.
.	4c	.	.	4r	4r	4r	.	.	.	.	4cc	4cc	4cc	4c
.	.	8ee-	[8cc	.	.	.	.	.	.	.	.	.	.	.
=129	=129	=129	=129	=129	=129	=129	=129	=129	=129	=129	=129	=129	=129	=129
2.r	4A	8dd	8cc]	4F#	4F#	4F#	2.r	2.r	2.r	2.r	4a	4a	4a	4A
.	.	4dd	4cc	.	.	.	.	.	.	.	.	.	.	.
.	2r	.	.	4A	4A	4A	.	.	.	.	2r	2r	2r	2r
.	.	4dd	4cc	.	.	.	.	.	.	.	.	.	.	.
.	.	.	.	4c	4c	4c	.	.	.	.	.	.	.	.
.	.	[8dd	[8cc	.	.	.	.	.	.	.	.	.	.	.
=130	=130	=130	=130	=130	=130	=130	=130	=130	=130	=130	=130	=130	=130	=130
2.r	2F#	8dd]	8cc]	4d	4d	4d	2.r	2.r	2.r	2.r	4aa	4aa	4aa	2F#
.	.	4dd	4cc	.	.	.	.	.	.	.	.	.	.	.
.	.	.	.	4f#	4f#	4f#	.	.	.	.	4ff#	4ff#	4ff#	.
.	.	4dd	4cc	.	.	.	.	.	.	.	.	.	.	.
.	4f#	.	.	4r	4r	4r	.	.	.	.	4cc	4cc	4cc	4f#
.	.	8dd	8cc	.	.	.	.	.	.	.	.	.	.	.
=131	=131	=131	=131	=131	=131	=131	=131	=131	=131	=131	=131	=131	=131	=131
4GG	4g	16b-	16b-	8b- 8d	8G	8G	[2.dd	[2.g	[2.dd	[2.g	4b-	4b-	4b-	4g
.	.	16b-	16b-	.	.	.	.	.	.	.	.	.	.	.
.	.	16b-	16b-	8b- 8d	8G	8G	.	.	.	.	.	.	.	.
.	.	16b-	16b-	.	.	.	.	.	.	.	.	.	.	.
2r	4d	16dd	16b-	8b- 8d	8G	8G	.	.	.	.	2r	2r	2r	4d
.	.	16dd	16b-	.	.	.	.	.	.	.	.	.	.	.
.	.	16dd	16b-	8b- 8d	8G	8G	.	.	.	.	.	.	.	.
.	.	16dd	16b-	.	.	.	.	.	.	.	.	.	.	.
.	4B-	16gg	16b-	8b- 8d	8G	8G	.	.	.	.	.	.	.	4B-
.	.	16gg	16b-	.	.	.	.	.	.	.	.	.	.	.
.	.	16gg	16b-	8b- 8d	8G	8G	.	.	.	.	.	.	.	.
.	.	16gg	16b-	.	.	.	.	.	.	.	.	.	.	.
=132	=132	=132	=132	=132	=132	=132	=132	=132	=132	=132	=132	=132	=132	=132
4GG	4G	16bb-	16dd	8b- 8d	8G	8G	4.dd]	4.g]	4.dd]	4.g]	2.bb-	4bb-	4gg	4G
.	.	16bb-	16dd	.	.	.	.	.	.	.	.	.	.	.
.	.	16bb-	16dd	8b- 8d	8G	8G	.	.	.	.	.	.	.	.
.	.	16bb-	16dd	.	.	.	.	.	.	.	.	.	.	.
2r	2r	4ddd	4b-	8b- 8d	8G	8G	.	.	.	.	.	4gg	4dd	2r
.	.	.	.	8d 8b-	8G	8G	8dd	8g	8dd	8g	.	.	.	.
.	.	4r	4r	8b- 8d	8G	8G	8dd	8g	8dd	8g	.	4dd	4b-	.
.	.	.	.	8b- 8d	8G	8G	8dd	8g	8dd	8g	.	.	.	.
=133	=133	=133	=133	=133	=133	=133	=133	=133	=133	=133	=133	=133	=133	=133
4GG	4g	16b	16g	8b 8d	8F	8F	[2.dd	[2.g	[2.dd	[2.g	[2.bb	4b	4g	4g
.	.	16b	16g	.	.	.	.	.	.	.	.	.	.	.
.	.	16b	16g	8b 8d	8F	8F	.	.	.	.	.	.	.	.
.	.	16b	16g	.	.	.	.	.	.	.	.	.	.	.
2r	4d	16dd	16b	8b 8d	8F	8F	.	.	.	.	.	2r	2r	4d
.	.	16dd	16b	.	.	.	.	.	.	.	.	.	.	.
.	.	16dd	16b	8d 8b	8F	8F	.	.	.	.	.	.	.	.
.	.	16dd	16b	.	.	.	.	.	.	.	.	.	.	.
.	4B	16gg	16dd	8b 8d	8F	8F	.	.	.	.	.	.	.	4B
.	.	16gg	16dd	.	.	.	.	.	.	.	.	.	.	.
.	.	16gg	16dd	8b 8d	8F	8F	.	.	.	.	.	.	.	.
.	.	16gg	16dd	.	.	.	.	.	.	.	.	.	.	.
=134	=134	=134	=134	=134	=134	=134	=134	=134	=134	=134	=134	=134	=134	=134
4GG	4G	16bb	16gg	8b 8d	8F	8F	4.dd]	4.g]	4.dd]	4.g]	2.bb_	4bb	4gg	4G
.	.	16bb	16gg	.	.	.	.	.	.	.	.	.	.	.
.	.	16bb	16gg	8b 8d	8F	8F	.	.	.	.	.	.	.	.
.	.	16bb	16gg	.	.	.	.	.	.	.	.	.	.	.
2r	2r	4ddd	4bb	8d 8b	8F	8F	.	.	.	.	.	4gg	4dd	2r
.	.	.	.	8b 8d	8F	8F	8dd	8g	8dd	8g	.	.	.	.
.	.	4r	4r	8b 8d	8F	8F	8dd	8g	8dd	8g	.	4dd	4b	.
.	.	.	.	8b 8d	8F	8F	8dd	8g	8dd	8g	.	.	.	.
=135	=135	=135	=135	=135	=135	=135	=135	=135	=135	=135	=135	=135	=135	=135
2.r	4d	16b	16g#	8d 8b	8E	8E	[2.ee	[2.e	[2.ee	[2.e	2.bb_	4b	4g#	4d
.	.	16b	16g#	.	.	.	.	.	.	.	.	.	.	.
.	.	16b	16g#	8b 8d	8E	8E	.	.	.	.	.	.	.	.
.	.	16b	16g#	.	.	.	.	.	.	.	.	.	.	.
.	4B	16dd	16b	8b 8d	8E	8E	.	.	.	.	.	2r	2r	4B
.	.	16dd	16b	.	.	.	.	.	.	.	.	.	.	.
.	.	16dd	16b	8b 8d	8E	8E	.	.	.	.	.	.	.	.
.	.	16dd	16b	.	.	.	.	.	.	.	.	.	.	.
.	4G#	16gg#	16dd	8b 8d	8E	8E	.	.	.	.	.	.	.	4G#
.	.	16gg#	16dd	.	.	.	.	.	.	.	.	.	.	.
.	.	16gg#	16dd	8b 8d	8E	8E	.	.	.	.	.	.	.	.
.	.	16gg#	16dd	.	.	.	.	.	.	.	.	.	.	.
=136	=136	=136	=136	=136	=136	=136	=136	=136	=136	=136	=136	=136	=136	=136
2.r	2E	16bb	16gg#	8b 8d	8E	8E	4.ee]	4.e]	4.ee]	4.e]	2.bb]	4bb	4gg#	2E
.	.	16bb	16gg#	.	.	.	.	.	.	.	.	.	.	.
.	.	16bb	16gg#	8b 8d	8E	8E	.	.	.	.	.	.	.	.
.	.	16bb	16gg#	.	.	.	.	.	.	.	.	.	.	.
.	.	4ddd	4bb	8b 8d	8E	8E	.	.	.	.	.	4gg#	4dd	.
.	.	.	.	8b 8d	8E	8E	8ee	8e	8ee	8e	.	.	.	.
.	4r	4r	4r	8b 8d	8E	8E	8ee	8e	8ee	8e	.	4dd	4b	4r
.	.	.	.	8b 8d	8E	8E	8ee	8e	8ee	8e	.	.	.	.
=137	=137	=137	=137	=137	=137	=137	=137	=137	=137	=137	=137	=137	=137	=137
2.r	4e	16cc	16a	8c 8a	8E	8E	[2.ee	[2.e	[2.ee	[2.e	2.ccc	4cc	4a	4e
.	.	16cc	16a	.	.	.	.	.	.	.	.	.	.	.
.	.	16cc	16a	8a 8c	8E	8E	.	.	.	.	.	.	.	.
.	.	16cc	16a	.	.	.	.	.	.	.	.	.	.	.
.	4c	16ee	16cc	8a 8c	8E	8E	.	.	.	.	.	2r	2r	4c
.	.	16ee	16cc	.	.	.	.	.	.	.	.	.	.	.
.	.	16ee	16cc	8a 8c	8E	8E	.	.	.	.	.	.	.	.
.	.	16ee	16cc	.	.	.	.	.	.	.	.	.	.	.
.	4A	16aa	16ee	8a 8c	8E	8E	.	.	.	.	.	.	.	4A
.	.	16aa	16ee	.	.	.	.	.	.	.	.	.	.	.
.	.	16aa	16ee	8a 8c	8E	8E	.	.	.	.	.	.	.	.
.	.	16aa	16ee	.	.	.	.	.	.	.	.	.	.	.
=138	=138	=138	=138	=138	=138	=138	=138	=138	=138	=138	=138	=138	=138	=138
2.r	2.E	16ccc	16aa	8a 8c	8E	8E	4.ee]	4.e]	4.ee]	4.e]	4ccc	2ccc	2aa	2.E
.	.	16ccc	16aa	.	.	.	.	.	.	.	.	.	.	.
.	.	16ccc	16aa	8c 8a	8E	8E	.	.	.	.	.	.	.	.
.	.	16ccc	16aa	.	.	.	.	.	.	.	.	.	.	.
.	.	4eee	4ccc	8a 8c	8E	8E	.	.	.	.	4eee	.	.	.
.	.	.	.	8a 8c	8E	8E	8ee	8e	8ee	8e	.	.	.	.
.	.	8ccc	8ccc	8c 8a	8E	8E	8ee	8e	8ee	8e	8ccc	4aa	4cc	.
.	.	8aa	8aa	8c 8a	8E	8E	8ee	8e	8ee	8e	8aa	.	.	.
=139	=139	=139	=139	=139	=139	=139	=139	=139	=139	=139	=139	=139	=139	=139
2.r	8E	8ee	8ee	8e	8E	8E	4ee	4e	4ee	4e	4ee	8ee	8b	8E
.	16e	16eee	16eee	16ee	16e	16e	.	.	.	.	.	16ee	16ee	16e
.	16e	16eee	16eee	16ee	16e	16e	.	.	.	.	.	16ee	16ee	16e
.	8e	8eee	8eee	8ee	8e	8e	2r	2r	2r	2r	2r	8ee	8ee	8e
.	8e	8eee	8eee	8ee	8e	8e	.	.	.	.	.	8ee	8ee	8e
.	8c	8ccc	8ccc	8cc	8c	8c	.	.	.	.	.	8cc	8cc	8c
.	8A	8aa	8aa	8a	8A	8A	.	.	.	.	.	8a	8a	8A
=140	=140	=140	=140	=140	=140	=140	=140	=140	=140	=140	=140	=140	=140	=140
2.r	8E	8ee	8ee	8e	8E	8E	4ee	4e	4ee	4e	2.r	8e	8e	8E
.	16e	16eee	16eee	16ee	16e	16e	.	.	.	.	.	16ee	16ee	16e
.	16e	16eee	16eee	16ee	16e	16e	.	.	.	.	.	16ee	16ee	16e
.	8e	8eee	8eee	8ee	8e	8e	2r	2r	2r	2r	.	8ee	8ee	8e
.	8e	8eee	8eee	8ee	8e	8e	.	.	.	.	.	8ee	8ee	8e
.	8c	8ccc	8ccc	8cc	8c	8c	.	.	.	.	.	8cc	8cc	8c
.	8A	8aa	8aa	8a	8A	8A	.	.	.	.	.	8a	8a	8A
=141	=141	=141	=141	=141	=141	=141	=141	=141	=141	=141	=141	=141	=141	=141
2.r	4E	4ee	4ee	4e	4E	4E	4ee	4e	4ee	4e	2.r	4e	4e	4E
.	4e	4eee	4ee	4ee	4e	4e	2r	2r	2r	2r	.	4ee	4ee	4e
.	4r	4r	4r	4r	4r	4r	.	.	.	.	.	4r	4r	4r
=142	=142	=142	=142	=142	=142	=142	=142	=142	=142	=142	=142	=142	=142	=142
2.r	2.r	2cc#	8e	2.r	2.r	2.r	2.r	2.r	2.r	2.r	2ccc#	2.r	2.r	2.r
.	.	.	8A	.	.	.	.	.	.	.	.	.	.	.
.	.	.	8e	.	.	.	.	.	.	.	.	.	.	.
.	.	.	8A	.	.	.	.	.	.	.	.	.	.	.
.	.	8b	8d	.	.	.	.	.	.	.	8bb	.	.	.
.	.	16a	8A	.	.	.	.	.	.	.	16aa	.	.	.
.	.	16b	.	.	.	.	.	.	.	.	16bb	.	.	.
=143	=143	=143	=143	=143	=143	=143	=143	=143	=143	=143	=143	=143	=143	=143
2.r	2.r	4a	8c#	2.r	2.r	2.r	2.r	2.r	2.r	2.r	4aa	2.r	2.r	2.r
.	.	.	8A	.	.	.	.	.	.	.	.	.	.	.
.	.	4a	8c#	.	.	.	.	.	.	.	4aa	.	.	.
.	.	.	8A	.	.	.	.	.	.	.	.	.	.	.
.	.	8.b	8d	.	.	.	.	.	.	.	8.bb	.	.	.
.	.	.	8A	.	.	.	.	.	.	.	.	.	.	.
.	.	16g#	.	.	.	.	.	.	.	.	16gg#	.	.	.
=144	=144	=144	=144	=144	=144	=144	=144	=144	=144	=144	=144	=144	=144	=144
2.r	2.r	4a	8c#	2.r	2.r	2.r	2.r	2.r	2.r	2.r	4aa	2.r	2.r	2.r
.	.	.	8A	.	.	.	.	.	.	.	.	.	.	.
.	.	4a	8c#	.	.	.	.	.	.	.	4aa	.	.	.
.	.	.	8A	.	.	.	.	.	.	.	.	.	.	.
.	.	8.b	8d	.	.	.	.	.	.	.	8.bb	.	.	.
.	.	.	8A	.	.	.	.	.	.	.	.	.	.	.
.	.	16g#	.	.	.	.	.	.	.	.	16gg#	.	.	.
=145	=145	=145	=145	=145	=145	=145	=145	=145	=145	=145	=145	=145	=145	=145
2.r	2.r	4a	4c#	2.r	2.r	2.r	2.r	2.r	2.r	2.r	4aa	2.r	2.r	2.r
.	.	8g#	2r	.	.	.	.	.	.	.	8gg#	.	.	.
.	.	8a	.	.	.	.	.	.	.	.	8aa	.	.	.
.	.	8b	.	.	.	.	.	.	.	.	8bb	.	.	.
.	.	8cc#	.	.	.	.	.	.	.	.	8ccc#	.	.	.
=146	=146	=146	=146	=146	=146	=146	=146	=146	=146	=146	=146	=146	=146	=146
2.r	2.r	2dd	8g#	2.r	2.r	2.r	2.r	2.r	2.r	2.r	2ddd	2.r	2.r	2.r
.	.	.	8e	.	.	.	.	.	.	.	.	.	.	.
.	.	.	8g#	.	.	.	.	.	.	.	.	.	.	.
.	.	.	8e	.	.	.	.	.	.	.	.	.	.	.
.	.	8cc#	8a	.	.	.	.	.	.	.	8ccc#	.	.	.
.	.	16b	8e	.	.	.	.	.	.	.	16bb	.	.	.
.	.	16cc#	.	.	.	.	.	.	.	.	16ccc#	.	.	.
=147	=147	=147	=147	=147	=147	=147	=147	=147	=147	=147	=147	=147	=147	=147
2.r	2.r	4b	8g#	2.r	2.r	2.r	2.r	2.r	2.r	2.r	4bb	2.r	2.r	2.r
.	.	.	8e	.	.	.	.	.	.	.	.	.	.	.
.	.	4b	8g#	.	.	.	.	.	.	.	4bb	.	.	.
.	.	.	8e	.	.	.	.	.	.	.	.	.	.	.
.	.	8.cc#	8a	.	.	.	.	.	.	.	8.ccc#	.	.	.
.	.	.	8e	.	.	.	.	.	.	.	.	.	.	.
.	.	16a	.	.	.	.	.	.	.	.	16aa	.	.	.
=148	=148	=148	=148	=148	=148	=148	=148	=148	=148	=148	=148	=148	=148	=148
2.r	2.r	4b	8g#	2.r	2.r	2.r	2.r	2.r	2.r	2.r	4bb	2.r	2.r	2.r
.	.	.	8e	.	.	.	.	.	.	.	.	.	.	.
.	.	4b	8g#	.	.	.	.	.	.	.	4bb	.	.	.
.	.	.	8e	.	.	.	.	.	.	.	.	.	.	.
.	.	8.cc#	8a	.	.	.	.	.	.	.	8.ccc#	.	.	.
.	.	.	8e	.	.	.	.	.	.	.	.	.	.	.
.	.	16a	.	.	.	.	.	.	.	.	16aa	.	.	.
=149	=149	=149	=149	=149	=149	=149	=149	=149	=149	=149	=149	=149	=149	=149
2.r	2.r	4b	4g#	2.r	2.r	2.r	2.r	2.r	2.r	2.r	4bb	2.r	2.r	2.r
.	.	8cc	2r	.	.	.	.	.	.	.	8ccc	.	.	.
.	.	8cc#	.	.	.	.	.	.	.	.	8ccc#	.	.	.
.	.	8dd	.	.	.	.	.	.	.	.	8ddd	.	.	.
.	.	8dd#	.	.	.	.	.	.	.	.	8ddd#	.	.	.
=150	=150	=150	=150	=150	=150	=150	=150	=150	=150	=150	=150	=150	=150	=150
2.r	2.r	2ee	2.r	4e	2c#	2c#	2.r	2.r	2.r	2.r	2eee	2.r	2.r	2.r
.	.	.	.	4f#	.	.	.	.	.	.	.	.	.	.
.	.	8dd	.	4g#	8B	8B	.	.	.	.	8ddd	.	.	.
.	.	16cc#	.	.	16A	16A	.	.	.	.	16ccc#	.	.	.
.	.	16dd	.	.	16B	16B	.	.	.	.	16ddd	.	.	.
=151	=151	=151	=151	=151	=151	=151	=151	=151	=151	=151	=151	=151	=151	=151
2.r	2.r	4cc#	2e	4a	4A	4A	2.r	2.r	2.r	2.r	4ccc#	2.r	2.r	2.r
.	.	2b	.	2r	2G#	2G#	.	.	.	.	2bb	.	.	.
.	.	.	4e#	.	.	.	.	.	.	.	.	.	.	.
=152	=152	=152	=152	=152	=152	=152	=152	=152	=152	=152	=152	=152	=152	=152
2.r	2.r	4a	4f#	4A	4F#	4F#	2.r	2.r	2.r	2.r	4aa	2aa	2aa	4A
.	.	2r	2r	4B	2E	2E	.	.	.	.	2r	.	.	4B
.	.	.	.	4c#	.	.	.	.	.	.	.	8gg	8gg	4c#
.	.	.	.	.	.	.	.	.	.	.	.	16ff#	16ff#	.
.	.	.	.	.	.	.	.	.	.	.	.	16gg	16gg	.
=153	=153	=153	=153	=153	=153	=153	=153	=153	=153	=153	=153	=153	=153	=153
2.r	2.r	2.r	2.r	2d	4D	4D	2.r	2.r	2.r	2.r	2.r	4ff#	4a	2d
.	.	.	.	.	2r	2r	.	.	.	.	.	2ee	2g	.
.	.	.	.	4c#	.	.	.	.	.	.	.	.	.	4c#
=154	=154	=154	=154	=154	=154	=154	=154	=154	=154	=154	=154	=154	=154	=154
2.r	2.r	2.r	2.r	4c	2.r	2.r	2.r	2.r	2.r	2.r	4a	4dd	4f#	4c
.	.	.	.	4B	.	.	.	.	.	.	4b	4ee	4g	4B
.	.	.	.	4A	.	.	.	.	.	.	4cc	4ff#	[4cc	4A
=155	=155	=155	=155	=155	=155	=155	=155	=155	=155	=155	=155	=155	=155	=155
2.r	2.r	2.r	2.r	4G	2G	2G	2.r	2.r	2.r	2.r	2.dd	[2.gg	4cc]	[2.G
.	.	.	.	2r	.	.	.	.	.	.	.	.	2b	.
.	.	.	.	.	8F	8F	.	.	.	.	.	.	.	.
.	.	.	.	.	16E	16E	.	.	.	.	.	.	.	.
.	.	.	.	.	16F	16F	.	.	.	.	.	.	.	.
=156	=156	=156	=156	=156	=156	=156	=156	=156	=156	=156	=156	=156	=156	=156
2.r	2.r	2.r	2gg	4g	4E	4E	2.r	2.r	2.r	2.r	4g	2gg]	4cc	4G]
.	.	.	.	4a	2D	2D	.	.	.	.	4a	.	2r	4A
.	.	.	8ff	4b	.	.	.	.	.	.	4b	8ff	.	4B
.	.	.	16ee	.	.	.	.	.	.	.	.	16ee	.	.
.	.	.	16ff	.	.	.	.	.	.	.	.	16ff	.	.
=157	=157	=157	=157	=157	=157	=157	=157	=157	=157	=157	=157	=157	=157	=157
2.r	2.r	2ccc	4ee	4cc	4C	4C	2.r	2.r	2.r	2.r	4cc	4ee	2.r	4c
.	.	.	2dd	4f	2r	2r	.	.	.	.	4f	2r	.	2r
.	.	8bb	.	4g	.	.	.	.	.	.	4g	.	.	.
.	.	16aa	.	.	.	.	.	.	.	.	.	.	.	.
.	.	16bb	.	.	.	.	.	.	.	.	.	.	.	.
=158	=158	=158	=158	=158	=158	=158	=158	=158	=158	=158	=158	=158	=158	=158
2.r	2.r	4aa	2cc	4a	2.r	2.r	2.r	2.r	2.r	2.r	4a	2.r	2.r	2.r
.	.	2gg	.	2e	.	.	.	.	.	.	2e	.	.	.
.	.	.	4cc#	.	.	.	.	.	.	.	.	.	.	.
=159	=159	=159	=159	=159	=159	=159	=159	=159	=159	=159	=159	=159	=159	=159
2.r	2.r	4ff	4dd	4f	2d	2d	2.r	2.r	2.r	2.r	4f	2.r	2.r	2.r
.	.	2ff#	2ee-	2a	.	.	.	.	.	.	2r	.	.	.
.	.	.	.	.	8c	8c	.	.	.	.	.	.	.	.
.	.	.	.	.	16B	16B	.	.	.	.	.	.	.	.
.	.	.	.	.	16c	16c	.	.	.	.	.	.	.	.
=160	=160	=160	=160	=160	=160	=160	=160	=160	=160	=160	=160	=160	=160	=160
2.r	2.r	4gg	4dd	4d	4B	4B	2.r	2.r	2.r	2.r	4ddd	2gg	2.r	2.r
.	.	[2ccc	4cc	4e	2A	2A	.	.	.	.	[2ccc	.	.	.
.	.	.	4ff#	4d	.	.	.	.	.	.	.	4ff#	.	.
=161	=161	=161	=161	=161	=161	=161	=161	=161	=161	=161	=161	=161	=161	=161
2.r	2r	4ccc]	2gg	2d	2.G	2.G	2r	2r	2r	2r	4ccc]	2gg	2r	2r
.	.	4bb	.	.	.	.	.	.	.	.	4bb	.	.	.
.	4B	4gg	4dd	4b	.	.	4g	4G	4g	4G	4gg	4gg	4b	4d
=162	=162	=162	=162	=162	=162	=162	=162	=162	=162	=162	=162	=162	=162	=162
4GG	2c	2aa-	2ee-	2cc	2.G	2.G	2cc	2c	2cc	2c	2aa-	2gg	2cc	2e-
2r	.	.	.	.	.	.	.	.	.	.	.	.	.	.
.	4B	4gg	4dd	4b	.	.	4g	4G	4g	4G	4gg	4gg	4b	4d
=163	=163	=163	=163	=163	=163	=163	=163	=163	=163	=163	=163	=163	=163	=163
4GG	2c	2aa-	2ee-	2cc	2.G	2.G	2cc	2c	2cc	2c	2aa-	2gg	2cc	2e-
2r	.	.	.	.	.	.	.	.	.	.	.	.	.	.
.	4B	4gg	4dd	4b	.	.	4g	4G	4g	4G	4gg	4gg	4b	4d
=164	=164	=164	=164	=164	=164	=164	=164	=164	=164	=164	=164	=164	=164	=164
4GG	2.c	2aa-	2.ee-	2.cc	2.G	2.G	2.cc	2.c	2.cc	2.c	2aa-	2gg	2.cc	2.e-
2r	.	.	.	.	.	.	.	.	.	.	.	.	.	.
.	.	4ff#	.	.	.	.	.	.	.	.	4ff#	4ff#	.	.
=165	=165	=165	=165	=165	=165	=165	=165	=165	=165	=165	=165	=165	=165	=165
4GG	2B	2gg	2dd	4b	2G	2G	4g	4G	4g	4G	2gg	2gg	2b	2d
2r	.	.	.	4r	.	.	2r	2r	2r	2r	.	.	.	.
.	4d	4bb	4ff	4d	4G	4G	.	.	.	.	4bb	4ff	4dd	4f
=166	=166	=166	=166	=166	=166	=166	=166	=166	=166	=166	=166	=166	=166	=166
2.r	2d	2ccc	2ff	2d	2A-	2A-	2.r	2.r	2.r	2.r	2ccc	2ff	2dd	2f
.	4d	4bb	4ff	4d	4G	4G	.	.	.	.	4bb	4ff	4dd	4f
=167	=167	=167	=167	=167	=167	=167	=167	=167	=167	=167	=167	=167	=167	=167
2.r	2d	2ccc	2ff	2d	2A-	2A-	2.r	2.r	2.r	2.r	2ccc	2ff	2dd	2f
.	4d	4bb	4ff	4d	4G	4G	.	.	.	.	4bb	4ff	4dd	4f
=168	=168	=168	=168	=168	=168	=168	=168	=168	=168	=168	=168	=168	=168	=168
2.r	[2.d	2ddd	[2.ff	[2.d	2.A-	2.A-	2.r	2.r	2.r	2.r	2ddd	[2.ff	[2.dd	[2.f
.	.	4ccc	.	.	.	.	.	.	.	.	4ccc	.	.	.
=169	=169	=169	=169	=169	=169	=169	=169	=169	=169	=169	=169	=169	=169	=169
2.r	4d]	4bb	4ff]	4d]	4G	4G	2.r	2.r	2.r	2.r	4bb	4ff]	4dd]	4f]
.	4r	4r	4r	4r	4r	4r	.	.	.	.	4r	2r	2r	4r
.	[4d	4ccc	[4ff	[4d	4A-	4A-	.	.	.	.	[4dd	.	.	[4f
=170	=170	=170	=170	=170	=170	=170	=170	=170	=170	=170	=170	=170	=170	=170
2.r	4d]	4bb	4ff]	4d]	4G	4G	2.r	2.r	2.r	2.r	4dd]	2.r	2.r	4f]
.	4r	4r	4r	4r	4r	4r	.	.	.	.	4r	.	.	4r
.	[4d	4ccc	[4ff	[4d	4A-	4A-	.	.	.	.	[4dd	.	.	[4f
=171	=171	=171	=171	=171	=171	=171	=171	=171	=171	=171	=171	=171	=171	=171
2.r	4d]	4bb	4ff]	4d]	4G	4G	2.r	2.r	2.r	2.r	4dd]	2.r	2.r	4f]
.	4r	4r	4r	4r	4r	4r	.	.	.	.	4r	.	.	4r
.	[4d	4ccc	[4ff	[4d	4A-	4A-	.	.	.	.	[4dd	.	.	[4f
=172	=172	=172	=172	=172	=172	=172	=172	=172	=172	=172	=172	=172	=172	=172
2.r	4d]	4bb	4ff]	4d]	4G	4G	2.r	2.r	2.r	2.r	4dd]	2.r	2.r	4f]
.	4d	4bb	4ff	4d	4G	4G	.	.	.	.	4dd	.	.	4f
.	4d	4bb	4ff	4d	4G	4G	.	.	.	.	4dd	.	.	4f
=173	=173	=173	=173	=173	=173	=173	=173	=173	=173	=173	=173	=173	=173	=173
2.r	4d	4bb	4ff	4d	4G	4G	2.r	2.r	2.r	2.r	4dd	2.r	2.r	4f
.	2r	2r	2r	2r	2r	2r	.	.	.	.	2r	.	.	2r
=174	=174	=174	=174	=174	=174	=174	=174	=174	=174	=174	=174	=174	=174	=174
4C	4C	16cc	16c	16c	4C	4C	4cc	4e	4cc	4e	4cc	4cc	4c	4C
.	.	16cc	16c	16c	.	.	.	.	.	.	.	.	.	.
.	.	16cc	16c	16c	.	.	.	.	.	.	.	.	.	.
.	.	16cc	16c	16c	.	.	.	.	.	.	.	.	.	.
4C	4E	16ee	16e	16e	4E	4E	4cc	4e	4cc	4e	4ee	4ee	4e	4E
.	.	16ee	16e	16e	.	.	.	.	.	.	.	.	.	.
.	.	16ee	16e	16e	.	.	.	.	.	.	.	.	.	.
.	.	16ee	16e	16e	.	.	.	.	.	.	.	.	.	.
4C	4G	16gg	16g	16g	4G	4G	4cc	4e	4cc	4e	4gg	4gg	4g	4G
.	.	16gg	16g	16g	.	.	.	.	.	.	.	.	.	.
.	.	16gg	16g	16g	.	.	.	.	.	.	.	.	.	.
.	.	16gg	16g	16g	.	.	.	.	.	.	.	.	.	.
=175	=175	=175	=175	=175	=175	=175	=175	=175	=175	=175	=175	=175	=175	=175
4C	4c	16ccc	16cc	16cc	4c	4c	4cc	4e	4cc	4e	4ccc	4ccc	4cc	4c
.	.	16ccc	16cc	16cc	.	.	.	.	.	.	.	.	.	.
.	.	16ccc	16cc	16cc	.	.	.	.	.	.	.	.	.	.
.	.	16ccc	16cc	16cc	.	.	.	.	.	.	.	.	.	.
2r	4e	8eee	8ee	8ee	4e	4e	2r	2r	2r	2r	4eee	4eee	4ee	4e
.	.	4.r	4.r	4.r	.	.	.	.	.	.	.	.	.	.
.	4r	.	.	.	4r	4r	.	.	.	.	4r	4r	4r	4r
=176	=176	=176	=176	=176	=176	=176	=176	=176	=176	=176	=176	=176	=176	=176
4C	4G	16gg	16g	16g	4G	4G	4cc	4e	4cc	4e	4gg	4gg	4g	4G
.	.	16gg	16g	16g	.	.	.	.	.	.	.	.	.	.
.	.	16gg	16g	16g	.	.	.	.	.	.	.	.	.	.
.	.	16gg	16g	16g	.	.	.	.	.	.	.	.	.	.
2r	4c	8ccc	8cc	8cc	4c	4c	2r	2r	2r	2r	4ccc	4ccc	4cc	4c
.	.	4.r	4.r	4.r	.	.	.	.	.	.	.	.	.	.
.	4r	.	.	.	4r	4r	.	.	.	.	4r	4r	4r	4r
=177	=177	=177	=177	=177	=177	=177	=177	=177	=177	=177	=177	=177	=177	=177
4C	4E	16ee	16e	16e	4E	4E	4cc	4e	4cc	4e	4ee	4ee	4e	4E
.	.	16ee	16e	16e	.	.	.	.	.	.	.	.	.	.
.	.	16ee	16e	16e	.	.	.	.	.	.	.	.	.	.
.	.	16ee	16e	16e	.	.	.	.	.	.	.	.	.	.
2r	4G	8gg	8g	8g	4G	4G	2r	2r	2r	2r	4gg	4gg	4g	4G
.	.	4.r	4.r	4.r	.	.	.	.	.	.	.	.	.	.
.	4r	.	.	.	4r	4r	.	.	.	.	4r	4r	4r	4r
=178	=178	=178	=178	=178	=178	=178	=178	=178	=178	=178	=178	=178	=178	=178
2.r	2.r	2.b	4r	4r	4GG	4GG	2.r	2.r	2.r	2.r	2.r	2.r	2.r	2.r
.	.	.	4f	4d	2r	2r	.	.	.	.	.	.	.	.
.	.	.	4f	4d	.	.	.	.	.	.	.	.	.	.
=179	=179	=179	=179	=179	=179	=179	=179	=179	=179	=179	=179	=179	=179	=179
2.r	2.r	8.cc	4e	4e	4C	4C	2.r	2.r	2.r	2.r	2.r	2.r	2.r	2.r
.	.	16dd	.	.	.	.	.	.	.	.	.	.	.	.
.	.	8ee	2r	2r	2r	2r	.	.	.	.	.	.	.	.
.	.	8b	.	.	.	.	.	.	.	.	.	.	.	.
.	.	8cc	.	.	.	.	.	.	.	.	.	.	.	.
.	.	8a	.	.	.	.	.	.	.	.	.	.	.	.
=180	=180	=180	=180	=180	=180	=180	=180	=180	=180	=180	=180	=180	=180	=180
2.r	2.r	2g	4B	4G	4G	4G	2.r	2.r	2.r	2.r	2.r	2.r	2.r	2.r
.	.	.	4c	4A	2r	2r	.	.	.	.	.	.	.	.
.	.	8f	4d	4B	.	.	.	.	.	.	.	.	.	.
.	.	16e	.	.	.	.	.	.	.	.	.	.	.	.
.	.	16f	.	.	.	.	.	.	.	.	.	.	.	.
=181	=181	=181	=181	=181	=181	=181	=181	=181	=181	=181	=181	=181	=181	=181
4.r	4.r	4e	4e	4c	4C	4C	4.r	4.r	4.r	4.r	4.r	4.r	4.r	4.r
.	.	8r	8r	8r	8r	8r	.	.	.	.	.	.	.	.
16C	16C	16c	16c	16c	16C	16C	16cc	16c	16cc	16c	16cc	16cc	16cc	16C
16C	16C	16c	16c	16c	16C	16C	16cc	16c	16cc	16c	16cc	16cc	16cc	16C
8C	8C	8c	8c	8c	8C	8C	8cc	8c	8cc	8c	8cc	8cc	8cc	8C
8C	8C	8c	8c	8c	8C	8C	8cc	8c	8cc	8c	8cc	8cc	8cc	8C
=182	=182	=182	=182	=182	=182	=182	=182	=182	=182	=182	=182	=182	=182	=182
4C	4C	8c	8c	4c	4C	4C	4cc	4c	4cc	4c	4cc	4cc	4cc	4C
.	.	8f	8A	.	.	.	.	.	.	.	.	.	.	.
8r	8r	8e	8G	8r	8r	8r	8r	8r	8r	8r	8r	8r	8r	8r
16C	16C	16c	16c	16c	16C	16C	16cc	16c	16cc	16c	16cc	16cc	16cc	16C
16C	16C	16c	16c	16c	16C	16C	16cc	16c	16cc	16c	16cc	16cc	16cc	16C
8C	8C	8c	8c	8c	8C	8C	8cc	8c	8cc	8c	8cc	8cc	8cc	8C
8C	8C	8c	8c	8c	8C	8C	8cc	8c	8cc	8c	8cc	8cc	8cc	8C
=183	=183	=183	=183	=183	=183	=183	=183	=183	=183	=183	=183	=183	=183	=183
4C	4C	8c	8c	4c	4C	4C	4cc	4c	4cc	4c	4cc	4cc	4cc	4C
.	.	8a	8f	.	.	.	.	.	.	.	.	.	.	.
8r	8r	8g	8e	8r	8r	8r	8r	8r	8r	8r	8r	8r	8r	8r
16C	16C	16cc	16cc	16c	16C	16C	16cc	16c	16cc	16c	16cc	16cc	16cc	16C
16C	16C	16cc	16cc	16c	16C	16C	16cc	16c	16cc	16c	16cc	16cc	16cc	16C
8C	8C	8cc	8cc	8c	8C	8C	8cc	8c	8cc	8c	8cc	8cc	8cc	8C
8C	8C	8cc	8cc	8c	8C	8C	8cc	8c	8cc	8c	8cc	8cc	8cc	8C
=184	=184	=184	=184	=184	=184	=184	=184	=184	=184	=184	=184	=184	=184	=184
4C	4C	8cc	8cc	4c	4C	4C	4cc	4c	4cc	4c	4cc	4cc	4cc	4C
.	.	8ff	8a	.	.	.	.	.	.	.	.	.	.	.
8r	8r	8ee	8g	8r	8r	8r	8r	8r	8r	8r	8r	8r	8r	8r
16C	16C	16cc	16cc	16c	16C	16C	16cc	16c	16cc	16c	16cc	16cc	16cc	16C
16C	16C	16cc	16cc	16c	16C	16C	16cc	16c	16cc	16c	16cc	16cc	16cc	16C
8C	8C	8cc	8cc	8c	8C	8C	8cc	8c	8cc	8c	8cc	8cc	8cc	8C
8C	8C	8cc	8cc	8c	8C	8C	8cc	8c	8cc	8c	8cc	8cc	8cc	8C
=185	=185	=185	=185	=185	=185	=185	=185	=185	=185	=185	=185	=185	=185	=185
4C	4C	8cc	8cc	4c	4C	4C	4cc	4c	4cc	4c	8cc	4cc	4cc	4C
.	.	8aa	8ff	.	.	.	.	.	.	.	8aa	.	.	.
2r	8r	8gg	8ee	8r	8r	8r	2r	2r	2r	2r	8gg	8r	8r	8r
.	16B-	16bb-	16bb-	16b-	16B-	16B-	.	.	.	.	16bb-	16bb-	16bb-	16B-
.	16B-	16bb-	16bb-	16b-	16B-	16B-	.	.	.	.	16bb-	16bb-	16bb-	16B-
.	8B-	8bb-	8bb-	8b-	8B-	8B-	.	.	.	.	8bb-	8bb-	8bb-	8B-
.	8B-	8bb-	8bb-	8b-	8B-	8B-	.	.	.	.	8bb-	8bb-	8bb-	8B-
=186	=186	=186	=186	=186	=186	=186	=186	=186	=186	=186	=186	=186	=186	=186
2.r	8B-	8bb-	8bb-	8b-	8B-	8B-	2.r	2.r	2.r	2.r	8bb-	8bb-	8bb-	8B-
.	8G	8gg	8gg	8g	8G	8G	.	.	.	.	8gg	8gg	8gg	8G
.	8E	8ee	8ee	8e	8E	8E	.	.	.	.	8ee	8ee	8ee	8E
.	16G	16gg	16gg	16g	16G	16G	.	.	.	.	16gg	16gg	16gg	16G
.	16G	16gg	16gg	16g	16G	16G	.	.	.	.	16gg	16gg	16gg	16G
.	8G	8gg	8gg	8g	8G	8G	.	.	.	.	8gg	8gg	8gg	8G
.	8G	8gg	8gg	8g	8G	8G	.	.	.	.	8gg	8gg	8gg	8G
=187	=187	=187	=187	=187	=187	=187	=187	=187	=187	=187	=187	=187	=187	=187
2.r	8G	8gg	8gg	8g	8G	8G	2.r	2.r	2.r	2.r	8gg	8gg	8gg	8G
.	8E	8ee	8ee	8e	8E	8E	.	.	.	.	8ee	8ee	8ee	8E
.	8C#	8cc#	8cc#	8c#	8C#	8C#	.	.	.	.	8cc#	8cc#	8cc#	8C#
.	16A	16aa	16aa	16a	16A	16A	.	.	.	.	16aa	16aa	16aa	16A
.	16A	16aa	16aa	16a	16A	16A	.	.	.	.	16aa	16aa	16aa	16A
.	8A	8aa	8aa	8a	8A	8A	.	.	.	.	8aa	8aa	8aa	8A
.	8A	8aa	8aa	8a	8A	8A	.	.	.	.	8aa	8aa	8aa	8A
=188	=188	=188	=188	=188	=188	=188	=188	=188	=188	=188	=188	=188	=188	=188
2.r	8A	8aa	8aa	8a	8A	8A	2.r	2.r	2.r	2.r	8aa	8aa	8aa	8A
.	8F	8ff	8ff	8f	8F	8F	.	.	.	.	8ff	8ff	8ff	8F
.	8D	8dd	8dd	8d	8D	8D	.	.	.	.	8dd	8dd	8dd	8D
.	16A	16ddd	16aa 16dd	16dd	16F	16F	.	.	.	.	16ddd	16aa	16dd	16A
.	16A	16ddd	16aa 16dd	16dd	16F	16F	.	.	.	.	16ddd	16aa	16dd	16A
.	8A	8ddd	8aa 8dd	8dd	8F	8F	.	.	.	.	8ddd	8aa	8dd	8A
.	8A	8ddd	8aa 8dd	8dd	8F	8F	.	.	.	.	8ddd	8aa	8dd	8A
=189	=189	=189	=189	=189	=189	=189	=189	=189	=189	=189	=189	=189	=189	=189
2.r	4G	8ddd	4bb- 4dd	4b-	4G	4G	2.r	2.r	2.r	2.r	4ddd	4bb-	4dd	4G
.	.	8bb-	.	.	.	.	.	.	.	.	.	.	.	.
.	8r	8gg	8r	8r	8r	8r	.	.	.	.	8r	8r	8r	8r
.	16B-	16ddd	16dd 16bb-	16b-	16G	16G	.	.	.	.	16ddd	16bb-	16dd	16B-
.	16B-	16ddd	16dd 16bb-	16b-	16G	16G	.	.	.	.	16ddd	16bb-	16dd	16B-
.	8B-	8ddd	8dd 8bb-	8b-	8G	8G	.	.	.	.	8ddd	8bb-	8dd	8B-
.	8B-	8ddd	8dd 8bb-	8b-	8G	8G	.	.	.	.	8ddd	8bb-	8dd	8B-
=190	=190	=190	=190	=190	=190	=190	=190	=190	=190	=190	=190	=190	=190	=190
2.r	4c	8ddd	4ff# 4a	4a	4A	4A	2.r	2.r	2.r	2.r	4ddd	4ff#	4dd	4c
.	.	8aa	.	.	.	.	.	.	.	.	.	.	.	.
.	8r	8ff#	8r	8r	8r	8r	.	.	.	.	8r	8r	8r	8r
.	16c	16ddd	16ff# 16cc	16cc	16A	16A	.	.	.	.	16ddd	16ff#	16dd	16c
.	16c	16ddd	16ff# 16cc	16cc	16A	16A	.	.	.	.	16ddd	16ff#	16dd	16c
.	8c	8ddd	8cc 8ff#	8cc	8A	8A	.	.	.	.	8ddd	8ff#	8dd	8c
.	8c	8ddd	8ff# 8cc	8cc	8A	8A	.	.	.	.	8ddd	8ff#	8dd	8c
=191	=191	=191	=191	=191	=191	=191	=191	=191	=191	=191	=191	=191	=191	=191
2.r	4d	8ddd	4gg 4b-	4b-	4B-	4B-	2.r	2.r	2.r	2.r	4ddd	4gg	4dd	4d
.	.	8bb-	.	.	.	.	.	.	.	.	.	.	.	.
.	8r	8gg	8r	8r	8r	8r	.	.	.	.	8r	8r	8r	8r
.	16G	16ddd	16gg	16b-	16B-	16B-	.	.	.	.	16ddd	16gg	16dd	16G
.	16G	16ddd	16gg	16b-	16B-	16B-	.	.	.	.	16ddd	16gg	16dd	16G
.	8G	8ddd	8gg	8b-	8B-	8B-	.	.	.	.	8ddd	8gg	8dd	8G
.	8G	8ddd	8gg	8b-	8B-	8B-	.	.	.	.	8ddd	8ddd	8dd	8G
=192	=192	=192	=192	=192	=192	=192	=192	=192	=192	=192	=192	=192	=192	=192
2.r	4A	4ccc# 4ee	4gg	4a	4A	4A	2.r	2.r	2.r	2.r	4ccc#	4ccc#	4ee	4A
.	4F#	4ccc 4dd	4aa	4f#	4F#	4F#	.	.	.	.	4ccc	4ccc	4ff#	4F#
.	4r	4r	4r	4r	4r	4r	.	.	.	.	4r	4r	4r	4r
=193	=193	=193	=193	=193	=193	=193	=193	=193	=193	=193	=193	=193	=193	=193
2.r	4G	4dd 4bb	4dd	4g	4G	4G	2.r	2.r	2.r	2.r	4bb	4bb	4dd	4G
.	4E	4bb- 4e 4cc	4gg 4cc 4e	4e	4E	4E	.	.	.	.	4bb-	4bb-	4gg	4E
.	4r	4r	4r	4r	4r	4r	.	.	.	.	4r	4r	4r	4r
=194	=194	=194	=194	=194	=194	=194	=194	=194	=194	=194	=194	=194	=194	=194
2.r	4F	16aa	16cc	8f	8F	8F	2.r	2.r	2.r	2.r	4aa	4aa	4cc	4F
.	.	16aa	16cc	.	.	.	.	.	.	.	.	.	.	.
.	.	16aa	16cc	8f	8F	8F	.	.	.	.	.	.	.	.
.	.	16aa	16cc	.	.	.	.	.	.	.	.	.	.	.
.	4D	16bb	16ff	8d	8D	8D	.	.	.	.	4bb	4bb	4ff	4D
.	.	16bb	16ff	.	.	.	.	.	.	.	.	.	.	.
.	.	16bb	16ff	8d	8D	8D	.	.	.	.	.	.	.	.
.	.	16bb	16ff	.	.	.	.	.	.	.	.	.	.	.
.	4C	16ccc	16ee	8c	8C	8C	.	.	.	.	4ccc	4ccc	4ee	4C
.	.	16ccc	16ee	.	.	.	.	.	.	.	.	.	.	.
.	.	16ccc	16ee	8c	8C	8C	.	.	.	.	.	.	.	.
.	.	16ccc	16ee	.	.	.	.	.	.	.	.	.	.	.
=195	=195	=195	=195	=195	=195	=195	=195	=195	=195	=195	=195	=195	=195	=195
2.r	4BB	16ddd	16ff	8B	8BB	8BB	2.r	2.r	2.r	2.r	4ddd	4ddd	4ff	4BB
.	.	16ddd	16ff	.	.	.	.	.	.	.	.	.	.	.
.	.	16ddd	16ff	8B	8BB	8BB	.	.	.	.	.	.	.	.
.	.	16ddd	16ff	.	.	.	.	.	.	.	.	.	.	.
.	4B	16ff 16g	16dd	8b	8B	8B	.	.	.	.	4ff	4ff	4dd	4B
.	.	16ff 16g	16dd	.	.	.	.	.	.	.	.	.	.	.
.	.	16ff 16g	16dd	8b	8B	8B	.	.	.	.	.	.	.	.
.	.	16ff 16g	16dd	.	.	.	.	.	.	.	.	.	.	.
.	4c	16g 16ee	16cc	8cc	8c	8c	.	.	.	.	4ee	4ee	4cc	4c
.	.	16ee 16g	16cc	.	.	.	.	.	.	.	.	.	.	.
.	.	16ee 16g	16cc	8cc	8c	8c	.	.	.	.	.	.	.	.
.	.	16ee 16g	16cc	.	.	.	.	.	.	.	.	.	.	.
=196	=196	=196	=196	=196	=196	=196	=196	=196	=196	=196	=196	=196	=196	=196
4GG	4G	4g 4dd	4b	4g	4G	4G	4g	4G	4g	4G	4dd	4dd	4b	4G
8r	4GG	2r	2r	4G	4GG	4GG	8r	8r	8r	8r	2r	8r	8r	4GG
16GG	.	.	.	.	.	.	16g	16G	16g	16G	.	16gg	16g	.
16GG	.	.	.	.	.	.	16g	16G	16g	16G	.	16gg	16g	.
8GG	4r	.	.	4r	4r	4r	8g	8G	8g	8G	.	8gg	8g	4r
8GG	.	.	.	.	.	.	8g	8G	8g	8G	.	8gg	8g	.
=197	=197	=197	=197	=197	=197	=197	=197	=197	=197	=197	=197	=197	=197	=197
4GG	[2.B	16b	16g	2.d 2.B	4f	4f	[2.g	[2.G	[2.g	[2.G	4b	[2.gg	[2.g	[2.d
.	.	16b	16g	.	.	.	.	.	.	.	.	.	.	.
.	.	16b	16g	.	.	.	.	.	.	.	.	.	.	.
.	.	16b	16g	.	.	.	.	.	.	.	.	.	.	.
2r	.	16dd	16b	.	4d	4d	.	.	.	.	4dd	.	.	.
.	.	16dd	16b	.	.	.	.	.	.	.	.	.	.	.
.	.	16dd	16b	.	.	.	.	.	.	.	.	.	.	.
.	.	16dd	16b	.	.	.	.	.	.	.	.	.	.	.
.	.	16ff	16dd	.	4B	4B	.	.	.	.	4ff	.	.	.
.	.	16ff	16dd	.	.	.	.	.	.	.	.	.	.	.
.	.	16ff	16dd	.	.	.	.	.	.	.	.	.	.	.
.	.	16ff	16dd	.	.	.	.	.	.	.	.	.	.	.
=198	=198	=198	=198	=198	=198	=198	=198	=198	=198	=198	=198	=198	=198	=198
4GG	2.B]	16bb	16ff	2.B 2.d	4G	4G	4g]	4G]	4g]	4G]	4bb	4gg]	4g]	2.d]
.	.	16bb	16ff	.	.	.	.	.	.	.	.	.	.	.
.	.	16bb	16ff	.	.	.	.	.	.	.	.	.	.	.
.	.	16bb	16ff	.	.	.	.	.	.	.	.	.	.	.
8r	.	8ddd	8bb	.	4GG	4GG	8r	8r	8r	8r	4ddd	8r	8r	.
16GG	.	4.r	4.r	.	.	.	16g	16G	16g	16G	.	16gg	16g	.
16GG	.	.	.	.	.	.	16g	16G	16g	16G	.	16gg	16g	.
8GG	.	.	.	.	4r	4r	8g	8G	8g	8G	4r	8gg	8g	.
8GG	.	.	.	.	.	.	8g	8G	8g	8G	.	8gg	8g	.
=199	=199	=199	=199	=199	=199	=199	=199	=199	=199	=199	=199	=199	=199	=199
4GG	[2.c	16cc	16e	[2.c 2.e	4e	4e	[2.g	[2.G	[2.g	[2.G	4cc	[2.gg	[2.g	[2.e
.	.	16cc	16e	.	.	.	.	.	.	.	.	.	.	.
.	.	16cc	16e	.	.	.	.	.	.	.	.	.	.	.
.	.	16cc	16e	.	.	.	.	.	.	.	.	.	.	.
2r	.	16ee	16cc	.	4c	4c	.	.	.	.	4ee	.	.	.
.	.	16ee	16cc	.	.	.	.	.	.	.	.	.	.	.
.	.	16ee	16cc	.	.	.	.	.	.	.	.	.	.	.
.	.	16ee	16cc	.	.	.	.	.	.	.	.	.	.	.
.	.	16gg	16ee	.	4G	4G	.	.	.	.	4gg	.	.	.
.	.	16gg	16ee	.	.	.	.	.	.	.	.	.	.	.
.	.	16gg	16ee	.	.	.	.	.	.	.	.	.	.	.
.	.	16gg	16ee	.	.	.	.	.	.	.	.	.	.	.
=200	=200	=200	=200	=200	=200	=200	=200	=200	=200	=200	=200	=200	=200	=200
4GG	2.c]	16ccc	16gg	2.c 2.e]	4E	4E	4g]	4G]	4g]	4G]	4ccc	4gg]	4g]	2.e]
.	.	16ccc	16gg	.	.	.	.	.	.	.	.	.	.	.
.	.	16ccc	16gg	.	.	.	.	.	.	.	.	.	.	.
.	.	16ccc	16gg	.	.	.	.	.	.	.	.	.	.	.
8r	.	8eee	8ccc	.	4C	4C	8r	8r	8r	8r	4eee	8r	8r	.
16GG	.	4.r	4.r	.	.	.	16g	16G	16g	16G	.	16gg	16g	.
16GG	.	.	.	.	.	.	16g	16G	16g	16G	.	16gg	16g	.
8GG	.	.	.	.	4r	4r	8g	8G	8g	8G	4r	8gg	8g	.
8GG	.	.	.	.	.	.	8g	8G	8g	8G	.	8gg	8g	.
=201	=201	=201	=201	=201	=201	=201	=201	=201	=201	=201	=201	=201	=201	=201
4GG	[2.d	16b	16g	[2.f 2.d	4f	4f	[2.g	[2.G	[2.g	[2.G	4b	[2.gg	[2.g	[2.f
.	.	16b	16g	.	.	.	.	.	.	.	.	.	.	.
.	.	16b	16g	.	.	.	.	.	.	.	.	.	.	.
.	.	16b	16g	.	.	.	.	.	.	.	.	.	.	.
2r	.	16dd	16b	.	4d	4d	.	.	.	.	4dd	.	.	.
.	.	16dd	16b	.	.	.	.	.	.	.	.	.	.	.
.	.	16dd	16b	.	.	.	.	.	.	.	.	.	.	.
.	.	16dd	16b	.	.	.	.	.	.	.	.	.	.	.
.	.	16ff	16dd	.	4B	4B	.	.	.	.	4ff	.	.	.
.	.	16ff	16dd	.	.	.	.	.	.	.	.	.	.	.
.	.	16ff	16dd	.	.	.	.	.	.	.	.	.	.	.
.	.	16ff	16dd	.	.	.	.	.	.	.	.	.	.	.
=202	=202	=202	=202	=202	=202	=202	=202	=202	=202	=202	=202	=202	=202	=202
4GG	2.d]	16bb	16ff	2.f 2.d]	4G	4G	4g]	4G]	4g]	4G]	4bb	4gg]	4g]	2.f]
.	.	16bb	16ff	.	.	.	.	.	.	.	.	.	.	.
.	.	16bb	16ff	.	.	.	.	.	.	.	.	.	.	.
.	.	16bb	16ff	.	.	.	.	.	.	.	.	.	.	.
8r	.	8ddd	8bb	.	4GG	4GG	8r	8r	8r	8r	4ddd	8r	8r	.
16GG	.	4.r	4.r	.	.	.	16g	16G	16g	16G	.	16gg	16g	.
16GG	.	.	.	.	.	.	16g	16G	16g	16G	.	16gg	16g	.
8GG	.	.	.	.	4r	4r	8g	8G	8g	8G	4r	8gg	8g	.
8GG	.	.	.	.	.	.	8g	8G	8g	8G	.	8gg	8g	.
=203	=203	=203	=203	=203	=203	=203	=203	=203	=203	=203	=203	=203	=203	=203
4C	4c	16ee	16ee	8e	8c	8c	2g	2G	2g	2G	2.r	[2.gg	[2.g	4e
.	.	16ee	16ee	.	.	.	.	.	.	.	.	.	.	.
.	.	16gg	16gg	8g	8e	8e	.	.	.	.	.	.	.	.
.	.	16gg	16gg	.	.	.	.	.	.	.	.	.	.	.
2r	2r	16ff	16ff	8g	8d	8d	.	.	.	.	.	.	.	2r
.	.	16ff	16ff	.	.	.	.	.	.	.	.	.	.	.
.	.	16ee	16ee	8g	8c	8c	.	.	.	.	.	.	.	.
.	.	16ee	16ee	.	.	.	.	.	.	.	.	.	.	.
.	.	16dd	16dd	8g	8B	8B	4r	4r	4r	4r	.	.	.	.
.	.	16dd	16dd	.	.	.	.	.	.	.	.	.	.	.
.	.	16ee	16ee	8g	8c	8c	.	.	.	.	.	.	.	.
.	.	16ee	16ee	.	.	.	.	.	.	.	.	.	.	.
=204	=204	=204	=204	=204	=204	=204	=204	=204	=204	=204	=204	=204	=204	=204
4GG	2.r	16ff	16ff	8g	8d	8d	2dd	2g	2dd	2g	2.r	2.gg_	2.g_	2.r
.	.	16ff	16ff	.	.	.	.	.	.	.	.	.	.	.
.	.	16dd	16dd	8g	8B	8B	.	.	.	.	.	.	.	.
.	.	16dd	16dd	.	.	.	.	.	.	.	.	.	.	.
4r	.	16gg	16gg	8g	8G	8G	.	.	.	.	.	.	.	.
.	.	16gg	16gg	.	.	.	.	.	.	.	.	.	.	.
.	.	16ff	16ff	8g	8B	8B	.	.	.	.	.	.	.	.
.	.	16ff	16ff	.	.	.	.	.	.	.	.	.	.	.
4C	.	16ee	16ee	8g	8c	8c	4ee	4cc	4ee	4cc	.	.	.	.
.	.	16ee	16ee	.	.	.	.	.	.	.	.	.	.	.
.	.	16cc	16cc	8g	8e	8e	.	.	.	.	.	.	.	.
.	.	16cc	16cc	.	.	.	.	.	.	.	.	.	.	.
=205	=205	=205	=205	=205	=205	=205	=205	=205	=205	=205	=205	=205	=205	=205
2.r	8c	16ee	16ee	8g	8c	8c	2.r	2.r	2.r	2.r	2.r	2.gg_	2.g_	8c
.	.	16ee	16ee	.	.	.	.	.	.	.	.	.	.	.
.	8e	16gg	16gg	8g	8e	8e	.	.	.	.	.	.	.	8e
.	.	16gg	16gg	.	.	.	.	.	.	.	.	.	.	.
.	8d	16ff	16ff	8g	8d	8d	.	.	.	.	.	.	.	8d
.	.	16ff	16ff	.	.	.	.	.	.	.	.	.	.	.
.	8c	16ee	16ee	8g	8c	8c	.	.	.	.	.	.	.	8c
.	.	16ee	16ee	.	.	.	.	.	.	.	.	.	.	.
.	8B	16dd	16dd	8g	8B	8B	.	.	.	.	.	.	.	8B
.	.	16dd	16dd	.	.	.	.	.	.	.	.	.	.	.
.	8c	16ee	16ee	8g	8c	8c	.	.	.	.	.	.	.	8c
.	.	16ee	16ee	.	.	.	.	.	.	.	.	.	.	.
=206	=206	=206	=206	=206	=206	=206	=206	=206	=206	=206	=206	=206	=206	=206
4GG	8d	16ff	16ff	8g	8d	8d	2dd	2g	2dd	2g	2.r	2gg]	2g]	8d
.	.	16ff	16ff	.	.	.	.	.	.	.	.	.	.	.
.	8B	16dd	16dd	8g	8B	8B	.	.	.	.	.	.	.	8B
.	.	16dd	16dd	.	.	.	.	.	.	.	.	.	.	.
4r	8G	16gg	16gg	8g	8G	8G	.	.	.	.	.	.	.	8G
.	.	16gg	16gg	.	.	.	.	.	.	.	.	.	.	.
.	8B	16ff	16ff	8g	8B	8B	.	.	.	.	.	.	.	8B
.	.	16ff	16ff	.	.	.	.	.	.	.	.	.	.	.
4C	8c	16ee	16ee	8g	8c	8c	4ee	4cc	4ee	4cc	.	4r	4r	8c
.	.	16ee	16ee	.	.	.	.	.	.	.	.	.	.	.
.	8e	16cc	16cc	8g	8e	8e	.	.	.	.	.	.	.	8e
.	.	16cc	16cc	.	.	.	.	.	.	.	.	.	.	.
=207	=207	=207	=207	=207	=207	=207	=207	=207	=207	=207	=207	=207	=207	=207
2.r	8c	16aa	16aa	8cc	8c	8c	2.r	2.r	2.r	2.r	4aa	2.r	2.r	8c
.	.	16aa	16aa	.	.	.	.	.	.	.	.	.	.	.
.	8C	16ff#	16ff#	8c	8C	8C	.	.	.	.	.	.	.	8C
.	.	16ff#	16ff#	.	.	.	.	.	.	.	.	.	.	.
.	8B	16gg	16gg	8b	8B	8B	.	.	.	.	4gg	.	.	8B
.	.	16gg	16gg	.	.	.	.	.	.	.	.	.	.	.
.	8BB	16dd	16dd	8B	8BB	8BB	.	.	.	.	.	.	.	8BB
.	.	16dd	16dd	.	.	.	.	.	.	.	.	.	.	.
.	8B-	16gg	16gg	8b-	8B-	8B-	.	.	.	.	4ee	.	.	8B-
.	.	16gg	16gg	.	.	.	.	.	.	.	.	.	.	.
.	8BB-	16ee	16ee	8B-	8BB-	8BB-	.	.	.	.	.	.	.	8BB-
.	.	16ee	16ee	.	.	.	.	.	.	.	.	.	.	.
=208	=208	=208	=208	=208	=208	=208	=208	=208	=208	=208	=208	=208	=208	=208
2.r	8A	16ff	16ff	8a	8A	8A	2.r	2.r	2.r	2.r	4ff	2.r	2.r	8A
.	.	16ff	16ff	.	.	.	.	.	.	.	.	.	.	.
.	8AA	16cc	16cc	8A	8AA	8AA	.	.	.	.	.	.	.	8AA
.	.	16cc	16cc	.	.	.	.	.	.	.	.	.	.	.
.	8E	16bb-	16bb-	8e	8E	8E	.	.	.	.	4bb-	.	.	8E
.	.	16bb-	16bb-	.	.	.	.	.	.	.	.	.	.	.
.	8EE	16cc	16cc	8E	8EE	8EE	.	.	.	.	.	.	.	8EE
.	.	16cc	16cc	.	.	.	.	.	.	.	.	.	.	.
.	8F	16aa	16aa	8f	8F	8F	.	.	.	.	4aa	.	.	8F
.	.	16aa	16aa	.	.	.	.	.	.	.	.	.	.	.
.	8FF	16a	16a	8F	8FF	8FF	.	.	.	.	.	.	.	8FF
.	.	16a	16a	.	.	.	.	.	.	.	.	.	.	.
=209	=209	=209	=209	=209	=209	=209	=209	=209	=209	=209	=209	=209	=209	=209
2.r	8c#	16gg	16gg	8cc#	8c#	8c#	2.r	2.r	2.r	2.r	4gg	2.r	2.r	8c#
.	.	16gg	16gg	.	.	.	.	.	.	.	.	.	.	.
.	8C#	16a	16a	8c#	8C#	8C#	.	.	.	.	.	.	.	8C#
.	.	16a	16a	.	.	.	.	.	.	.	.	.	.	.
.	8d	16ff#	16ff#	8dd	8d	8d	.	.	.	.	4ff#	.	.	8d
.	.	16ff#	16ff#	.	.	.	.	.	.	.	.	.	.	.
.	8D	16a	16a	8d	8D	8D	.	.	.	.	.	.	.	8D
.	.	16a	16a	.	.	.	.	.	.	.	.	.	.	.
.	8F#	16ccc	16ccc	8f#	8F#	8F#	.	.	.	.	4ccc	.	.	8F#
.	.	16ccc	16ccc	.	.	.	.	.	.	.	.	.	.	.
.	8FF#	16dd	16dd	8F#	8FF#	8FF#	.	.	.	.	.	.	.	8FF#
.	.	16dd	16dd	.	.	.	.	.	.	.	.	.	.	.
=210	=210	=210	=210	=210	=210	=210	=210	=210	=210	=210	=210	=210	=210	=210
4GG	8G	16bb	16bb	8g	8G	8G	2.r	2.r	2.r	2.r	4bb	2.r	2r	8G
.	.	16bb	16bb	.	.	.	.	.	.	.	.	.	.	.
.	8GG	16dd	16dd	8G	8GG	8GG	.	.	.	.	.	.	.	8GG
.	.	16dd	16dd	.	.	.	.	.	.	.	.	.	.	.
2r	8c	16ff#	16ff#	8cc	8c	8c	.	.	.	.	4r	.	.	8c
.	.	16ff#	16ff#	.	.	.	.	.	.	.	.	.	.	.
.	8C	16dd	16dd	8c	8C	8C	.	.	.	.	.	.	.	8C
.	.	16dd	16dd	.	.	.	.	.	.	.	.	.	.	.
.	8B	16gg	16gg	8b	8B	8B	.	.	.	.	4gg	.	4g	8B
.	.	16gg	16gg	.	.	.	.	.	.	.	.	.	.	.
.	8BB	16g	16g	8B	8BB	8BB	.	.	.	.	.	.	.	8BB
.	.	16g	16g	.	.	.	.	.	.	.	.	.	.	.
=211	=211	=211	=211	=211	=211	=211	=211	=211	=211	=211	=211	=211	=211	=211
4GG	8C	16a	16a	8c	8C	8C	[2.gg	[2.g	[2.gg	[2.g	[2.gg	[2.gg	4a	8C
.	.	16a	16a	.	.	.	.	.	.	.	.	.	.	.
.	8c	16gg	16gg	8cc	8c	8c	.	.	.	.	.	.	.	8c
.	.	16gg	16gg	.	.	.	.	.	.	.	.	.	.	.
2r	8C#	16b-	16b-	8c#	8C#	8C#	.	.	.	.	.	.	4b-	8C#
.	.	16b-	16b-	.	.	.	.	.	.	.	.	.	.	.
.	8c#	16gg	16gg	8cc#	8c#	8c#	.	.	.	.	.	.	.	8c#
.	.	16gg	16gg	.	.	.	.	.	.	.	.	.	.	.
.	8D	16b	16b	8d	8D	8D	.	.	.	.	.	.	4b	8D
.	.	16b	16b	.	.	.	.	.	.	.	.	.	.	.
.	8d	16gg	16gg	8dd	8d	8d	.	.	.	.	.	.	.	8d
.	.	16gg	16gg	.	.	.	.	.	.	.	.	.	.	.
=212	=212	=212	=212	=212	=212	=212	=212	=212	=212	=212	=212	=212	=212	=212
4GG	8E	16cc	16cc	8e	8E	8E	2.gg_	2.g_	2.gg_	2.g_	2.gg_	2.gg_	4cc	8E
.	.	16cc	16cc	.	.	.	.	.	.	.	.	.	.	.
.	8e	16gg	16gg	8ee	8e	8e	.	.	.	.	.	.	.	8e
.	.	16gg	16gg	.	.	.	.	.	.	.	.	.	.	.
2r	8F	16dd	16dd	8f	8F	8F	.	.	.	.	.	.	4dd	8F
.	.	16dd	16dd	.	.	.	.	.	.	.	.	.	.	.
.	8f	16gg	16gg	8ff	8f	8f	.	.	.	.	.	.	.	8f
.	.	16gg	16gg	.	.	.	.	.	.	.	.	.	.	.
.	8BB	16ff	16ff	8B	8BB	8BB	.	.	.	.	.	.	4ff	8BB
.	.	16ff	16ff	.	.	.	.	.	.	.	.	.	.	.
.	8B	16gg	16gg	8b	8B	8B	.	.	.	.	.	.	.	8B
.	.	16gg	16gg	.	.	.	.	.	.	.	.	.	.	.
=213	=213	=213	=213	=213	=213	=213	=213	=213	=213	=213	=213	=213	=213	=213
4GG	8C	16ee	16ee	8c	8C	8C	4gg]	4g]	4gg]	4g]	4gg]	4gg]	4ee	8C
.	.	16ee	16ee	.	.	.	.	.	.	.	.	.	.	.
.	8c	16gg	16gg	8cc	8c	8c	.	.	.	.	.	.	.	8c
.	.	16gg	16gg	.	.	.	.	.	.	.	.	.	.	.
2r	8AA	16ff#	16ff#	8A	8AA	8AA	4r	4r	4r	4r	4ff#	4ff#	4cc	8AA
.	.	16ff#	16ff#	.	.	.	.	.	.	.	.	.	.	.
.	8A	16ccc	16ccc	8a	8A	8A	.	.	.	.	.	.	.	8A
.	.	16ccc	16ccc	.	.	.	.	.	.	.	.	.	.	.
.	8D	16aa	16aa	8d	8D	8D	4dd	4dd	4dd	4dd	4ccc	4ff#	4cc	8D
.	.	16aa	16aa	.	.	.	.	.	.	.	.	.	.	.
.	8d	16ff#	16ff#	8dd	8d	8d	.	.	.	.	.	.	.	8d
.	.	16ff#	16ff#	.	.	.	.	.	.	.	.	.	.	.
=214	=214	=214	=214	=214	=214	=214	=214	=214	=214	=214	=214	=214	=214	=214
4GG	8G	8gg	8gg	8g	8G	8G	4gg	4g	4gg	4g	8gg	8gg	8gg	8G
.	16G	16gg	16gg	16g	16G	16G	.	.	.	.	16gg	16gg	16gg	16G
.	16G	16gg	16gg	16g	16G	16G	.	.	.	.	16gg	16gg	16gg	16G
4r	8G	8gg	8gg	8g	8G	8G	4r	4r	4r	4r	8gg	8gg	8ee	8G
.	8G	8gg	8gg	8g	8G	8G	.	.	.	.	8gg	8gg	8gg	8G
4C	8E	8ee	8ee	8e	8E	8E	4ee	4cc	4ee	4cc	8ee	8ee	8ee	8E
.	8C	8cc	8cc	8c	8C	8C	.	.	.	.	8cc	8cc	8cc	8C
=215	=215	=215	=215	=215	=215	=215	=215	=215	=215	=215	=215	=215	=215	=215
4GG	8G	8g	8g	8G	8GG	8GG	4dd	4g	4dd	4g	8g	8g	8g	8G
.	16G	16gg	16gg	16g	16G	16G	.	.	.	.	16gg	16gg	16gg	16G
.	16G	16gg	16gg	16g	16G	16G	.	.	.	.	16gg	16gg	16gg	16G
4r	8G	8gg	8gg	8g	8G	8G	4r	4r	4r	4r	8gg	8gg	8gg	8G
.	8G	8gg	8gg	8g	8G	8G	.	.	.	.	8gg	8gg	8gg	8G
4C	8E	8ee	8ee	8e	8E	8E	4ee	4cc	4ee	4cc	8ee	8ee	8ee	8E
.	8C	8cc	8cc	8c	8C	8C	.	.	.	.	8cc	8cc	8cc	8C
=216	=216	=216	=216	=216	=216	=216	=216	=216	=216	=216	=216	=216	=216	=216
4GG	4GG	4g	4g	4G	4GG	4GG	4dd	4g	4dd	4g	4g	4g	4g	4GG
2r	4G	4gg	4gg	4g	4G	4G	2r	2r	2r	2r	4gg	4gg	4gg	4G
.	4r	4r	4r	4r	4r	4r	.	.	.	.	4r	4r	4r	4r
=217	=217	=217	=217	=217	=217	=217	=217	=217	=217	=217	=217	=217	=217	=217
2.r	2.r	2ee	8g	2.r	2.r	2.r	[2.cc	[2.c	[2.C	[2.C	2.r	2.r	2.r	2e
.	.	.	8c	.	.	.	.	.	.	.	.	.	.	.
.	.	.	8g	.	.	.	.	.	.	.	.	.	.	.
.	.	.	8c	.	.	.	.	.	.	.	.	.	.	.
.	.	8dd	8f	.	.	.	.	.	.	.	.	.	.	8d
.	.	16cc	8c	.	.	.	.	.	.	.	.	.	.	16c
.	.	16dd	.	.	.	.	.	.	.	.	.	.	.	16d
=218	=218	=218	=218	=218	=218	=218	=218	=218	=218	=218	=218	=218	=218	=218
2.r	2.r	4cc	8e	2.r	2.r	2.r	2.cc_	2.c_	2.C_	2.C_	2.r	2.r	2.r	4c
.	.	.	8c	.	.	.	.	.	.	.	.	.	.	.
.	.	4cc	8e	.	.	.	.	.	.	.	.	.	.	4c
.	.	.	8c	.	.	.	.	.	.	.	.	.	.	.
.	.	8.dd	8f	.	.	.	.	.	.	.	.	.	.	8.d
.	.	.	8c	.	.	.	.	.	.	.	.	.	.	.
.	.	16b	.	.	.	.	.	.	.	.	.	.	.	16B
=219	=219	=219	=219	=219	=219	=219	=219	=219	=219	=219	=219	=219	=219	=219
2.r	2.r	4cc	8e	2.r	2.r	2.r	2.cc_	2.c_	2.C_	2.C_	2.r	2.r	2.r	4c
.	.	.	8c	.	.	.	.	.	.	.	.	.	.	.
.	.	4cc	8e	.	.	.	.	.	.	.	.	.	.	4c
.	.	.	8c	.	.	.	.	.	.	.	.	.	.	.
.	.	8.dd	8f	.	.	.	.	.	.	.	.	.	.	8.d
.	.	.	8c	.	.	.	.	.	.	.	.	.	.	.
.	.	16b	.	.	.	.	.	.	.	.	.	.	.	16B
=220	=220	=220	=220	=220	=220	=220	=220	=220	=220	=220	=220	=220	=220	=220
2.r	2.r	4cc	4e	2.r	2.r	2.r	4cc]	4c]	4C]	4C]	2.r	2.r	2.r	4c
.	.	8b	2r	.	.	.	2r	2r	2r	2r	.	.	.	8B
.	.	8cc	.	.	.	.	.	.	.	.	.	.	.	8c
.	.	8dd	.	.	.	.	.	.	.	.	.	.	.	8d
.	.	8ee	.	.	.	.	.	.	.	.	.	.	.	8e
=221	=221	=221	=221	=221	=221	=221	=221	=221	=221	=221	=221	=221	=221	=221
2.r	2.r	2ff	8B	2.r	2.r	2.r	[2.g	[2.G	[2.g	[2.G	2.r	2.r	2.r	2f
.	.	.	8g	.	.	.	.	.	.	.	.	.	.	.
.	.	.	8B	.	.	.	.	.	.	.	.	.	.	.
.	.	.	8g	.	.	.	.	.	.	.	.	.	.	.
.	.	8ee	8c	.	.	.	.	.	.	.	.	.	.	8e
.	.	16dd	8g	.	.	.	.	.	.	.	.	.	.	16d
.	.	16ee	.	.	.	.	.	.	.	.	.	.	.	16e
=222	=222	=222	=222	=222	=222	=222	=222	=222	=222	=222	=222	=222	=222	=222
2.r	2.r	4dd	8B	2.r	2.r	2.r	2.g_	2.G_	2.g_	2.G_	2.r	2.r	2.r	4d
.	.	.	8g	.	.	.	.	.	.	.	.	.	.	.
.	.	4dd	8B	.	.	.	.	.	.	.	.	.	.	4d
.	.	.	8g	.	.	.	.	.	.	.	.	.	.	.
.	.	8.ee	8c	.	.	.	.	.	.	.	.	.	.	8.e
.	.	.	8g	.	.	.	.	.	.	.	.	.	.	.
.	.	16cc	.	.	.	.	.	.	.	.	.	.	.	16c
=223	=223	=223	=223	=223	=223	=223	=223	=223	=223	=223	=223	=223	=223	=223
2.r	2.r	4dd	8B	2.r	2.r	2.r	2.g_	2.G_	2.g_	2.G_	2.r	2.r	2.r	4d
.	.	.	8g	.	.	.	.	.	.	.	.	.	.	.
.	.	4dd	8B	.	.	.	.	.	.	.	.	.	.	4d
.	.	.	8g	.	.	.	.	.	.	.	.	.	.	.
.	.	8.ee	8c	.	.	.	.	.	.	.	.	.	.	8.e
.	.	.	8g	.	.	.	.	.	.	.	.	.	.	.
.	.	16cc	.	.	.	.	.	.	.	.	.	.	.	16c
=224	=224	=224	=224	=224	=224	=224	=224	=224	=224	=224	=224	=224	=224	=224
2.r	2.r	4dd	4B	2.r	2.r	2.r	4g]	4G]	4g]	4G]	2.r	2.r	2.r	4d
.	.	8ee-	2r	.	.	.	2r	2r	2r	2r	.	.	.	8e-
.	.	8ee	.	.	.	.	.	.	.	.	.	.	.	8e
.	.	8ff	.	.	.	.	.	.	.	.	.	.	.	8f
.	.	8ff#	.	.	.	.	.	.	.	.	.	.	.	8f#
=225	=225	=225	=225	=225	=225	=225	=225	=225	=225	=225	=225	=225	=225	=225
2.r	2g	2gg	4g	2e	2e	2e	2.r	2.r	2.r	2.r	2.r	2gg	4g	2g
.	.	.	4a	.	.	.	.	.	.	.	.	.	4a	.
.	4B	8ff	4b	8d	8d	8d	.	.	.	.	.	8ff	4b	4B
.	.	16ee	.	16c	16c	16c	.	.	.	.	.	16ee	.	.
.	.	16ff	.	16d	16d	16d	.	.	.	.	.	16ff	.	.
=226	=226	=226	=226	=226	=226	=226	=226	=226	=226	=226	=226	=226	=226	=226
2.r	4c	4ee	4cc	4c	4c	4c	2.r	2.r	2.r	2.r	4eee	4ee	4cc	4c
.	2B	2dd 2e	2g#	2d	2B	2B	.	.	.	.	2ddd	2dd	2gg#	2B
=227	=227	=227	=227	=227	=227	=227	=227	=227	=227	=227	=227	=227	=227	=227
2.r	4A	4cc	4a	4e	4A	4A	2.r	2.r	2.r	2.r	4ccc	4cc	4aa	4A
.	2G	2bb-	2ee 2cc#	2g	2G	2G	.	.	.	.	2bb-	2bb-	2cc#	2G
=228	=228	=228	=228	=228	=228	=228	=228	=228	=228	=228	=228	=228	=228	=228
2.r	4F	16aa	16dd	8a	8F	8F	2.r	2.r	2.r	2.r	4aa	4aa	2dd	4F
.	.	16aa	16dd	.	.	.	.	.	.	.	.	.	.	.
.	.	16aa	16dd	8a	8F	8F	.	.	.	.	.	.	.	.
.	.	16aa	16dd	.	.	.	.	.	.	.	.	.	.	.
.	4E	16gg#	16dd	8b	8E	8E	.	.	.	.	4gg#	4gg#	.	4E
.	.	16gg#	16dd	.	.	.	.	.	.	.	.	.	.	.
.	.	16gg#	16dd	8b	8E	8E	.	.	.	.	.	.	.	.
.	.	16gg#	16dd	.	.	.	.	.	.	.	.	.	.	.
.	4A	16gg	16cc#	8e	8A	8A	.	.	.	.	4gg	4gg	4cc#	4A
.	.	16gg	16cc#	.	.	.	.	.	.	.	.	.	.	.
.	.	16gg	16cc#	8e	8A	8A	.	.	.	.	.	.	.	.
.	.	16gg	16cc#	.	.	.	.	.	.	.	.	.	.	.
=229	=229	=229	=229	=229	=229	=229	=229	=229	=229	=229	=229	=229	=229	=229
2.r	4D	16ff#	16cc	8a	8D	8D	2.r	2.r	2.r	2.r	4ff#	4ff#	4cc	4D
.	.	16ff#	16cc	.	.	.	.	.	.	.	.	.	.	.
.	.	16ff#	16cc	8a	8D	8D	.	.	.	.	.	.	.	.
.	.	16ff#	16cc	.	.	.	.	.	.	.	.	.	.	.
.	4G	16ff	16b	8d	8G	8G	.	.	.	.	4ff	4ff	4b	4G
.	.	16ff	16b	.	.	.	.	.	.	.	.	.	.	.
.	.	16ff	16b	8d	8G	8G	.	.	.	.	.	.	.	.
.	.	16ff	16b	.	.	.	.	.	.	.	.	.	.	.
.	4C	16ee	16cc	8g	8C	8C	.	.	.	.	4ee	4ee	4cc	4C
.	.	16ee	16cc	.	.	.	.	.	.	.	.	.	.	.
.	.	16ee	16cc	8g	8C	8C	.	.	.	.	.	.	.	.
.	.	16ee	16cc	.	.	.	.	.	.	.	.	.	.	.
=230	=230	=230	=230	=230	=230	=230	=230	=230	=230	=230	=230	=230	=230	=230
2.r	8F	8dd	8a	8f	8F	8F	2.r	2.r	2.r	2.r	8ff	8ff	8dd	8F
.	8r	8r	8r	8r	8r	8r	.	.	.	.	8r	8r	8r	8r
.	8G	8cc	8e	8g	8G	8G	.	.	.	.	8ee	8ee	8cc	8G
.	8r	8r	8r	8r	8r	8r	.	.	.	.	8r	8r	8r	8r
.	8G	8b	8d	8G	8G	8G	.	.	.	.	8dd	8dd	8b	8G
.	8r	8r	8r	8r	8r	8r	.	.	.	.	8r	8r	8r	8r
=231	=231	=231	=231	=231	=231	=231	=231	=231	=231	=231	=231	=231	=231	=231
4C	8C	8ee 8cc	8ee 8cc	8C	8C	8C	[2.cc	[2.c	[2.cc	[2.c	[2.ccc	[2.ee	[2.cc	8C
.	8D	8ee 8cc	8ee 8cc	8D	8D	8D	.	.	.	.	.	.	.	8D
2r	8E	8ee 8cc	8ee 8cc	8E	8E	8E	.	.	.	.	.	.	.	8E
.	8F	8ee 8cc	8ee 8cc	8F	8F	8F	.	.	.	.	.	.	.	8F
.	8G	8ee 8cc	8ee 8cc	8G	8G	8G	.	.	.	.	.	.	.	8G
.	8A	8ee 8cc	8ee 8cc	8A	8A	8A	.	.	.	.	.	.	.	8A
=232	=232	=232	=232	=232	=232	=232	=232	=232	=232	=232	=232	=232	=232	=232
4C	8B	8cc 8ee	8ee 8cc	8B	8B	8B	2.cc]	2.c]	2.cc]	2.c]	2.ccc]	2.ee]	2.cc]	8B
.	8c	8cc 8ee	8ee 8cc	8c	8c	8c	.	.	.	.	.	.	.	8c
2r	8d	8cc 8ee	8ee 8cc	8d	8d	8d	.	.	.	.	.	.	.	8d
.	8e	8ee 8cc	8ee 8cc	8e	8e	8e	.	.	.	.	.	.	.	8e
.	8f	8ee 8cc	8cc 8ee	8f	8f	8f	.	.	.	.	.	.	.	8f
.	8g	8ee 8cc	8ee 8cc	8g	8g	8g	.	.	.	.	.	.	.	8g
=233	=233	=233	=233	=233	=233	=233	=233	=233	=233	=233	=233	=233	=233	=233
4C	4a	4ff 4cc	4ff 4cc	4a	4a	4a	4cc	4c	4cc	4c	4ccc	4ff	4cc	4a
4C	4g	4ee 4cc	4cc 4ee	4g	4g	4g	4cc	4c	4cc	4c	4ccc	4ee	4cc	4g
4r	4r	4r	4r	4r	4r	4r	4r	4r	4r	4r	4r	4r	4r	4r
=234	=234	=234	=234	=234	=234	=234	=234	=234	=234	=234	=234	=234	=234	=234
2.r	2f#	2dd	2cc 2a	2.f#	2f#	2f#	2.r	2.r	2.r	2.r	2.r	2.r	2.r	2f#
.	4r	8aa	4r	.	4r	4r	.	.	.	.	.	.	.	4r
.	.	8r	.	.	.	.	.	.	.	.	.	.	.	.
=235	=235	=235	=235	=235	=235	=235	=235	=235	=235	=235	=235	=235	=235	=235
2.r	2G	2cc	2e	2g	2G	2G	2.r	2.r	2.r	2.r	2.r	2.r	2.r	2G
.	4r	8dd	8f	8B	4r	4r	.	.	.	.	.	.	.	4r
.	.	8r	8r	8r	.	.	.	.	.	.	.	.	.	.
=236	=236	=236	=236	=236	=236	=236	=236	=236	=236	=236	=236	=236	=236	=236
4C	8e	8ccc	8ee 8cc	8ee	8e	8e	[2.ee	[2.cc	[2.ee	[2.cc	[2.ccc	[2.ccc	[2.ee	8e
.	8d	8ccc	8ee 8cc	8dd	8d	8d	.	.	.	.	.	.	.	8d
8r	8c	8ccc	8ee 8cc	8cc	8c	8c	.	.	.	.	.	.	.	8c
16C	8B	8ccc	8ee 8cc	8b	8B	8B	.	.	.	.	.	.	.	8B
16C	.	.	.	.	.	.	.	.	.	.	.	.	.	.
8C	8A	8ccc	8ee 8cc	8a	8A	8A	.	.	.	.	.	.	.	8A
8C	8G	8ccc	8ee 8cc	8g	8G	8G	.	.	.	.	.	.	.	8G
=237	=237	=237	=237	=237	=237	=237	=237	=237	=237	=237	=237	=237	=237	=237
4C	8F	8ccc	8ee 8cc	8f	8F	8F	2.ee]	2.cc]	2.ee]	2.cc]	2.ccc]	2.ccc]	2.ee]	8F
.	8E	8ccc	8cc 8ee	8e	8E	8E	.	.	.	.	.	.	.	8E
8r	8D	8ccc	8cc 8ee	8d	8D	8D	.	.	.	.	.	.	.	8D
16C	8C	8ccc	8ee 8cc	8c	8C	8C	.	.	.	.	.	.	.	8C
16C	.	.	.	.	.	.	.	.	.	.	.	.	.	.
8C	8BB	8ccc	8ee 8cc	8B	8BB	8BB	.	.	.	.	.	.	.	8BB
8C	8C	8ccc	8ee 8cc	8c	8C	8C	.	.	.	.	.	.	.	8C
=238	=238	=238	=238	=238	=238	=238	=238	=238	=238	=238	=238	=238	=238	=238
4C	4AA	4ff	4ff 4cc	4A	4AA	4AA	4cc	4cc	4cc	4cc	4ccc	4ccc	4ff	4AA
4C	4GG	4ee	4ee 4cc	4G	4GG	4GG	4cc	4cc	4cc	4cc	4ccc	4ccc	4ee	4GG
4r	4r	4r	4r	4r	4r	4r	4r	4r	4r	4r	4r	4r	4r	4r
=239	=239	=239	=239	=239	=239	=239	=239	=239	=239	=239	=239	=239	=239	=239
2.r	2.r	2.dd	2.a 2.cc	2.f#	2.r	2.r	2.r	2.r	2.r	2.r	2.r	2.f#	2.r	2.r
=240	=240	=240	=240	=240	=240	=240	=240	=240	=240	=240	=240	=240	=240	=240
2.r	2.r	2ee-	2cc	2g	2r	2r	2.r	2.r	2.r	2.r	2.r	2g	2.r	2.r
.	.	4b	4f	4d	4G	4G	.	.	.	.	.	4r	.	.
=241	=241	=241	=241	=241	=241	=241	=241	=241	=241	=241	=241	=241	=241	=241
2.r	2.r	4cc	4e-	2c	2A-	2A-	2.r	2.r	2.r	2.r	2.r	2.r	2.r	2.r
.	.	4r	2r	.	.	.	.	.	.	.	.	.	.	.
.	.	4gg	.	4B-	4E	4E	.	.	.	.	.	.	.	.
=242	=242	=242	=242	=242	=242	=242	=242	=242	=242	=242	=242	=242	=242	=242
2.r	2.r	2aa-	2r	4A-	4F	4F	2.r	2.r	2.r	2.r	2.r	2.r	2.r	2.r
.	.	.	.	2r	2r	2r	.	.	.	.	.	.	.	.
.	.	4ee	4g	.	.	.	.	.	.	.	.	.	.	.
=243	=243	=243	=243	=243	=243	=243	=243	=243	=243	=243	=243	=243	=243	=243
2.r	2.r	4ff	2a-	2.r	2.r	2.r	2.r	2.r	2.r	2.r	2.r	2.r	2.r	2.r
.	.	4r	.	.	.	.	.	.	.	.	.	.	.	.
.	.	4gg	4e	.	.	.	.	.	.	.	.	.	.	.
=244	=244	=244	=244	=244	=244	=244	=244	=244	=244	=244	=244	=244	=244	=244
2.r	2.r	4aa-	4f	2.r	2.r	2.r	2.r	2.r	2.r	2.r	2.r	2.r	2.r	2.r
.	.	4r	4r	.	.	.	.	.	.	.	.	.	.	.
.	.	4bb	4dd	.	.	.	.	.	.	.	.	.	.	.
=245	=245	=245	=245	=245	=245	=245	=245	=245	=245	=245	=245	=245	=245	=245
2.r	2.r	4ccc	4ee-	2.r	2.r	2.r	2.r	2.r	2.r	2.r	2.r	2.r	2.r	2.r
.	.	4r	4r	.	.	.	.	.	.	.	.	.	.	.
.	.	4ddd	4bb	.	.	.	.	.	.	.	.	.	.	.
=246	=246	=246	=246	=246	=246	=246	=246	=246	=246	=246	=246	=246	=246	=246
2.r	2.r	4eee-	4ccc	2r	2r	2r	2.r	2.r	2.r	2.r	2.r	2.r	2.r	2.r
.	.	4r	4r	.	.	.	.	.	.	.	.	.	.	.
.	.	4ff#	4cc	4e-	4A-	4A-	.	.	.	.	.	.	.	.
=247	=247	=247	=247	=247	=247	=247	=247	=247	=247	=247	=247	=247	=247	=247
2.r	2.r	4gg	4ee	4c	4G	4G	2.r	2.r	2.r	2.r	2.r	2.r	2.r	2.r
.	.	2r	2r	2r	2r	2r	.	.	.	.	.	.	.	.
=248	=248	=248	=248	=248	=248	=248	=248	=248	=248	=248	=248	=248	=248	=248
4.r	4.r	4b	4f	4d	4GG	4GG	4.r	4.r	4.r	4.r	4.r	4.r	4.r	4.r
.	.	8r	8r	8r	8r	8r	.	.	.	.	.	.	.	.
16C	16C	16c	16c	16c	16C	16C	16cc	16c	16cc	16c	16cc	16cc	16c	16C
16C	16C	16c	16c	16c	16C	16C	16cc	16c	16cc	16c	16cc	16cc	16c	16C
8C	8C	8c	8c	8c	8C	8C	8cc	8c	8cc	8c	8cc	8cc	8c	8C
8C	8C	8c	8c	8c	8C	8C	8cc	8c	8cc	8c	8cc	8cc	8c	8C
=249	=249	=249	=249	=249	=249	=249	=249	=249	=249	=249	=249	=249	=249	=249
4C	4C	8c	8c	4c	4C	4C	4cc	4c	4cc	4c	4cc	4cc	4c	4C
.	.	8f	8A	.	.	.	.	.	.	.	.	.	.	.
8r	8r	8e	8G	8r	8r	8r	8r	8r	8r	8r	8r	8r	8r	8r
16C	16C	16c	16c	16c	16C	16C	16cc	16c	16cc	16c	16cc	16cc	16c	16C
16C	16C	16c	16c	16c	16C	16C	16cc	16c	16cc	16c	16cc	16cc	16c	16C
8C	8C	8c	8c	8c	8C	8C	8cc	8c	8cc	8c	8cc	8cc	8c	8C
8C	8C	8c	8c	8c	8C	8C	8cc	8c	8cc	8c	8cc	8cc	8c	8C
=250	=250	=250	=250	=250	=250	=250	=250	=250	=250	=250	=250	=250	=250	=250
4C	4C	8c	8c	4c	4C	4C	4cc	4c	4cc	4c	4cc	4cc	4c	4C
.	.	8a	8f	.	.	.	.	.	.	.	.	.	.	.
8r	8r	8g	8e	8r	8r	8r	8r	8r	8r	8r	8r	8r	8r	8r
16C	16c	16cc	16cc	16cc	16c	16c	16cc	16c	16cc	16c	16cc	16cc	16cc	16c
16C	16c	16cc	16cc	16cc	16c	16c	16cc	16c	16cc	16c	16cc	16cc	16cc	16c
8C	8c	8cc	8cc	8cc	8c	8c	8cc	8c	8cc	8c	8cc	8cc	8cc	8c
8C	8c	8cc	8cc	8cc	8c	8c	8cc	8c	8cc	8c	8cc	8cc	8cc	8c
=251	=251	=251	=251	=251	=251	=251	=251	=251	=251	=251	=251	=251	=251	=251
4C	4c	8cc	8cc	4cc	4c	4c	4cc	4c	4cc	4c	4cc	4cc	4cc	4c
.	.	8ff	8a	.	.	.	.	.	.	.	.	.	.	.
8r	8r	8ee	8g	8r	8r	8r	8r	8r	8r	8r	8r	8r	8r	8r
16C	16c	16cc	16cc	16cc	16c	16c	16cc	16c	16cc	16c	16cc	16cc	16cc	16c
16C	16c	16cc	16cc	16cc	16c	16c	16cc	16c	16cc	16c	16cc	16cc	16cc	16c
8C	8c	8cc	8cc	8cc	8c	8c	8cc	8c	8cc	8c	8cc	8cc	8cc	8c
8C	8c	8cc	8cc	8cc	8c	8c	8cc	8c	8cc	8c	8cc	8cc	8cc	8c
=252	=252	=252	=252	=252	=252	=252	=252	=252	=252	=252	=252	=252	=252	=252
4C	4c	8cc	8cc	4cc	4c	4c	4cc	4c	4cc	4c	4cc	4cc	4cc	4c
.	.	8aa	8ff	.	.	.	.	.	.	.	.	.	.	.
2r	8r	8gg	8ee	8r	8r	8r	2r	2r	2r	2r	2r	2r	2r	8r
.	16G	16gg	16g	16g	16G	16G	.	.	.	.	.	.	.	16G
.	16G	16gg	16g	16g	16G	16G	.	.	.	.	.	.	.	16G
.	8G	8gg	8g	8g	8G	8G	.	.	.	.	.	.	.	8G
.	8G	8gg	8g	8g	8G	8G	.	.	.	.	.	.	.	8G
=253	=253	=253	=253	=253	=253	=253	=253	=253	=253	=253	=253	=253	=253	=253
4C	8c	8ccc	8cc	8cc	8c	8c	4cc	4c	4cc	4c	4ccc	4ccc	4ee	8c
.	8e	8eee	8ee	8ee	8e	8e	.	.	.	.	.	.	.	8e
2r	8c	8ccc	8cc	8cc	8c	8c	2r	2r	2r	2r	8r	2r	2r	8c
.	16G	16gg	16g	16g	16G	16G	.	.	.	.	16gg	.	.	16G
.	16G	16gg	16g	16g	16G	16G	.	.	.	.	16gg	.	.	16G
.	8G	8gg	8g	8g	8G	8G	.	.	.	.	8gg	.	.	8G
.	8G	8gg	8g	8g	8G	8G	.	.	.	.	8gg	.	.	8G
=254	=254	=254	=254	=254	=254	=254	=254	=254	=254	=254	=254	=254	=254	=254
4C	8c	8ccc	8cc	8cc	8c	8c	4cc	4c	4cc	4c	8ccc	4ccc	4ee	8c
.	8e	8eee	8ee	8ee	8e	8e	.	.	.	.	8eee	.	.	8e
2r	8c	8ccc	8cc	8cc	8c	8c	8r	8r	8r	8r	8ccc	8r	8r	8c
.	16G	16gg	16g	16g	16G	16G	16g	16g	16g	16g	16gg	16gg	16gg	16G
.	16G	16gg	16g	16g	16G	16G	16g	16g	16g	16g	16gg	16gg	16gg	16G
.	8G	8gg	8g	8g	8G	8G	8g	8g	8g	8g	8gg	8gg	8gg	8G
.	8G	8gg	8g	8g	8G	8G	8g	8g	8g	8g	8gg	8gg	8gg	8G
=255	=255	=255	=255	=255	=255	=255	=255	=255	=255	=255	=255	=255	=255	=255
4C	[2.c	8ccc	8cc	8cc	8c	8c	4cc	4cc	4cc	4cc	2.eee	2.ccc	[2.ee	[2.e
.	.	8gg	8g	8g	8G	8G	.	.	.	.	.	.	.	.
8r	.	8ccc	8cc	8cc	8c	8c	8r	8r	8r	8r	.	.	.	.
16C	.	8gg	8g	8g	8G	8G	8g	8g	8g	8g	.	.	.	.
16C	.	.	.	.	.	.	.	.	.	.	.	.	.	.
8C	.	8ccc	8cc	8cc	8c	8c	8cc	8cc	8cc	8cc	.	.	.	.
8C	.	8gg	8g	8g	8G	8G	8g	8g	8g	8g	.	.	.	.
=256	=256	=256	=256	=256	=256	=256	=256	=256	=256	=256	=256	=256	=256	=256
4C	2.c_	8ccc	8cc	8cc	8c	8c	4cc	4cc	4cc	4cc	2.ccc	2.gg	2.ee]	2.e_
.	.	16ee	16e	16e	16E	16E	.	.	.	.	.	.	.	.
.	.	16ff	16f	16f	16F	16F	.	.	.	.	.	.	.	.
8r	.	8gg	8g	8g	8G	8G	8r	8r	8r	8r	.	.	.	.
16C	.	8ee	8e	8e	8E	8E	8ee	8e	8ee	8e	.	.	.	.
16C	.	.	.	.	.	.	.	.	.	.	.	.	.	.
8C	.	8gg	8g	8g	8G	8G	8gg	8g	8gg	8g	.	.	.	.
8C	.	8ee	8e	8e	8E	8E	8ee	8e	8ee	8e	.	.	.	.
=257	=257	=257	=257	=257	=257	=257	=257	=257	=257	=257	=257	=257	=257	=257
4C	2.c_	8gg	8g	8g	8G	8G	4gg	4g	4gg	4g	2.gg	2.ee	2.cc	2.e_
.	.	16cc	16c	16c	16C	16C	.	.	.	.	.	.	.	.
.	.	16dd	16d	16d	16D	16D	.	.	.	.	.	.	.	.
8r	.	8ee	8e	8e	8E	8E	8r	8r	8r	8r	.	.	.	.
16C	.	8cc	8c	8c	8C	8C	8cc	8e	8cc	8e	.	.	.	.
16C	.	.	.	.	.	.	.	.	.	.	.	.	.	.
8C	.	8ee	8e	8e	8E	8E	8ee	8g	8ee	8g	.	.	.	.
8C	.	8cc	8c	8c	8C	8C	8cc	8e	8cc	8e	.	.	.	.
=258	=258	=258	=258	=258	=258	=258	=258	=258	=258	=258	=258	=258	=258	=258
4C	2.c]	8ee	8e	8e	8E	8E	4ee	4g	4ee	4g	2.ee	2.cc	2.e	2.e]
.	.	24g	24G	24G	24GG	24GG	.	.	.	.	.	.	.	.
.	.	24a	24A	24A	24AA	24AA	.	.	.	.	.	.	.	.
.	.	24b	24B	24B	24BB	24BB	.	.	.	.	.	.	.	.
8r	.	8cc	8c	8c	8C	8C	8r	8r	8r	8r	.	.	.	.
16C	.	8g	8G	8G	8GG	8GG	8g	8G	8g	8G	.	.	.	.
16C	.	.	.	.	.	.	.	.	.	.	.	.	.	.
8C	.	8cc	8c	8c	8C	8C	8cc	8c	8cc	8c	.	.	.	.
8C	.	8g	8G	8G	8GG	8GG	8g	8G	8g	8G	.	.	.	.
=259	=259	=259	=259	=259	=259	=259	=259	=259	=259	=259	=259	=259	=259	=259
8C	8C	8cc	8c	8c	8C	8C	2.cc	2.c	2.cc	2.c	8cc	8cc	8cc	8C
16C	16GG	16g	16G	16G	16GG	16GG	.	.	.	.	16g	16g	16g	16GG
16C	16C	16cc	16c	16c	16C	16C	.	.	.	.	16cc	16cc	16cc	16C
8C	8E	8ee	8e	8e	8E	8E	.	.	.	.	8ee	8ee	8ee	8E
8C	16C	16cc	16c	16c	16C	16C	.	.	.	.	16cc	16cc	16cc	16C
.	16E	16ee	16e	16e	16E	16E	.	.	.	.	16ee	16ee	16ee	16E
8C	8G	8gg	8g	8g	8G	8G	.	.	.	.	8gg	8gg	8gg	8G
8C	16E	16ee	16e	16e	16E	16E	.	.	.	.	16ee	16ee	16ee	16E
.	16G	16gg	16g	16g	16G	16G	.	.	.	.	16gg	16gg	16gg	16G
=260	=260	=260	=260	=260	=260	=260	=260	=260	=260	=260	=260	=260	=260	=260
4C	4c	4ccc	4cc	4cc	4c	4c	4cc	4e	4cc	4e	4ccc	4ccc	4ccc	4c
4C	4C	4ccc 4ee	4cc 4ee 4g	4c	4C	4C	4cc	4e	4cc	4e	4ccc	4ccc	4ee	4C
4C	4C	4ccc 4ee	4ee 4g 4cc	4c	4C	4C	4cc	4e	4cc	4e	4ccc	4ccc	4ee	4C
=261	=261	=261	=261	=261	=261	=261	=261	=261	=261	=261	=261	=261	=261	=261
4C	4C	4ccc 4ee	4ee 4g 4cc	4c	4C	4C	4cc	4e	4cc	4e	4ccc	4ccc	4ee	4C
2r	2r	2r	2r	2r	2r	2r	2r	2r	2r	2r	2r	2r	2r	2r
==	==	==	==	==	==	==	==	==	==	==	==	==	==	==
*-	*-	*-	*-	*-	*-	*-	*-	*-	*-	*-	*-	*-	*-	*-
!!!RWG1: This file contains only pitch and duration data.
!!!RWG2: Transposing instruments are not transposed.
!!!RWG3: Spines may have incompatible meters.
!!!RWG4: Durations of rests and tied notes may be interpreted.
!!!RWG: Key is interpreted using the Humdrum key tool.
!!!OPT: L'ours
!!!AFT: stage1
!!!END: 1997/04/15
!!format changes:
!!content changes:
!!public access: complete
!!!KEY: 1622288164
!!!EMD: Converted from MuseData to Humdrum Dec 16, 2000, by Andreas Kornstaedt using muse2kern.
